/* XPM */
static char *fitecash256[] = {
/* columns rows colors chars-per-pixel */
"256 256 193 2 ",
"   c None",
".  c #29479C",
"X  c #2D4E9E",
"o  c #344E97",
"O  c #304E9E",
"+  c #3B5696",
"@  c #33519D",
"#  c #3B569C",
"$  c #3F5998",
"%  c #2A4DA5",
"&  c #274CAD",
"*  c #2A4EAC",
"=  c #2E51A6",
"-  c #2D51AC",
";  c #3454A4",
":  c #3856A5",
">  c #3759A7",
",  c #3D5BA6",
"<  c #3354AB",
"1  c #3957AB",
"2  c #3758AA",
"3  c #3C5BAB",
"4  c #264DB5",
"5  c #294EB4",
"6  c #264EBD",
"7  c #294FBB",
"8  c #2750B6",
"9  c #2B51B4",
"0  c #2750BE",
"q  c #2C52BC",
"w  c #2C53BE",
"e  c #2951BE",
"r  c #3354B2",
"t  c #3A57B1",
"y  c #3558B2",
"u  c #3C5CB1",
"i  c #435C99",
"p  c #4E6498",
"a  c #51699E",
"s  c #425DA3",
"d  c #405EA4",
"f  c #425DA5",
"g  c #405FA8",
"h  c #415EAA",
"j  c #415EB2",
"k  c #4662A7",
"l  c #4661A6",
"z  c #4A64A6",
"x  c #4F69A7",
"c  c #4361A9",
"v  c #4461A9",
"b  c #4764A8",
"n  c #4461AB",
"m  c #4A65AA",
"M  c #4A65AC",
"N  c #4F6BAF",
"B  c #4E69AB",
"V  c #526AA6",
"C  c #546BA7",
"Z  c #536BA6",
"A  c #5067AB",
"S  c #516AA9",
"D  c #566DAA",
"F  c #536CAC",
"G  c #586EAD",
"H  c #5A72A7",
"J  c #5670AC",
"K  c #5972AD",
"L  c #5C74AD",
"P  c #4562B1",
"I  c #4B66B1",
"U  c #4D69B2",
"Y  c #536DB2",
"T  c #586DB0",
"R  c #556EB8",
"E  c #5671B3",
"W  c #5B74B0",
"Q  c #5C74B2",
"!  c #5F79B3",
"~  c #5C76B9",
"^  c #5F79BB",
"/  c #6579A1",
"(  c #6177AC",
")  c #6579AB",
"_  c #667BAF",
"`  c #677DAF",
"'  c #6379AE",
"]  c #687CAD",
"[  c #6076B1",
"{  c #647BB4",
"}  c #697EB5",
"|  c #637BB9",
" . c #687EBA",
".. c #264FC1",
"X. c #294FC0",
"o. c #264FC8",
"O. c #2750C0",
"+. c #2751C1",
"@. c #2751C1",
"#. c #2850C0",
"$. c #2851C0",
"%. c #2951C0",
"&. c #2850C1",
"*. c #2851C1",
"=. c #2951C1",
"-. c #2A50C0",
";. c #2952C0",
":. c #2951C1",
">. c #6781B7",
",. c #6D81B2",
"<. c #6D83B4",
"1. c #6C84B7",
"2. c #6A82B6",
"3. c #6781B9",
"4. c #6C84BA",
"5. c #6F88BC",
"6. c #7286B6",
"7. c #7084B4",
"8. c #768AB7",
"9. c #798CB5",
"0. c #7186BB",
"q. c #748BBC",
"w. c #798FBE",
"e. c #7F92B7",
"r. c #7A91BE",
"t. c #6C85C1",
"y. c #778EC1",
"u. c #7791C5",
"i. c #7B93C1",
"p. c #7B94CA",
"a. c #7F98C8",
"s. c #8192B6",
"d. c #8D9EBD",
"f. c #8196C2",
"g. c #859AC5",
"h. c #869CCC",
"j. c #98A7C7",
"k. c #9EACC6",
"l. c #95A6CC",
"z. c #96A9CE",
"x. c #99AACD",
"c. c #9FB0CF",
"v. c #94A7D1",
"b. c #96AAD1",
"n. c #9BADD1",
"m. c #9CAFD9",
"M. c #9DB0D2",
"N. c #9DB2D9",
"B. c #A4B2CC",
"V. c #A1B2D3",
"C. c #A0B4DE",
"Z. c #A4B8DB",
"A. c #B0BED5",
"S. c #B7C2D5",
"D. c #B7C4D8",
"F. c #BAC7DD",
"G. c #BBC9DE",
"H. c #BBC9E1",
"J. c #C3CEE4",
"K. c #C6D2E5",
"L. c #CAD5E4",
"P. c #CED8E5",
"I. c #C3D2EA",
"U. c #C9D4E8",
"Y. c #CDDAEB",
"T. c #D3DBE5",
"R. c #D5DDEA",
"E. c #D8DFE9",
"W. c #CAD9F1",
"Q. c #D7E0E7",
"!. c #D7E0EB",
"~. c #DCE2EA",
"^. c #D7E2F0",
"/. c #DBE5F3",
"(. c #DFEAF5",
"). c #DAE6F8",
"_. c #DCE9FA",
"`. c #E1E6EC",
"'. c #E6EAEF",
"]. c #E8EBEF",
"[. c #E6EAF1",
"{. c #EBEDF2",
"}. c #E3EEF9",
"|. c #E8EFF9",
" X c #EEF1F5",
".X c #E6F1FA",
"XX c #ECF3FB",
"oX c #F2F3F6",
"OX c #F6F8F7",
"+X c #F4F5F9",
"@X c #F8F7F9",
"#X c #F6F9FB",
"$X c #FBFBFC",
/* pixels */
"                                                                                                                                                                                                                                                                                                                                                                                                                                                                                                                                ",
"                                                                                                                                                                                                                                                                                                                                                                                                                                                                                                                                ",
"                                                                                                                                                                                                                                                                                                                                                                                                                                                                                                                                ",
"                                                                                                                                                                                                                                                                                                                                                                                                                                                                                                                                ",
"                                                                                                                                                                                                                                      ` ' K K B m m c g 3 3 2 2 3 3 2 3 2 3 3 n m m S L L } 6.                                                                                                                                                                                                                                  ",
"                                                                                                                                                                                                                      ,.` D S b c 2 2 < < < 9 9 9 9 9 9 8 8 q q q q q 8 8 8 8 8 8 9 9 9 < < 2 2 3 n M W Q 2.8.                                                                                                                                                                                                                  ",
"                                                                                                                                                                                                            ,.L S b g ; < - * - 9 9 8 8 q q q q q q q q q q q q 0 0 0 0 0 0 0 0 8 8 q q q 8 8 8 8 8 9 9 - < 2 n B K { 6.                                                                                                                                                                                                        ",
"                                                                                                                                                                                                    ( C k , < < 9 9 9 8 8 8 8 8 8 8 8 8 8 q q 8 q q q q q 0 0 0 0 0 $.0 0 0 0 0 0 0 0 0 0 0 8 0 0 8 8 8 8 8 8 8 5 * - > 3 k W 1.                                                                                                                                                                                                ",
"                                                                                                                                                                                              L m , < 5 4 8 0 0 0 8 8 8 0 0 q 0 0 0 0 0 0 0 0 0 0 0 0 0 0 0 0 0 0 $.$.$.0 0 0 0 0 0 0 0 0 0 0 0 0 0 0 0 0 0 0 0 8 0 7 7 4 4 5 < 3 N { q.                                                                                                                                                                                        ",
"                                                                                                                                                                                      _ D k : - 5 4 7 6 $.0 0 0 8 8 8 0 0 $.$.$.0 $.0 0 $.$.$.$.$.$.$.$.0 0 0 0 $.$.$.$.$.$.$.0 0 O.$.0 O.O.$.O.0 $.0 0 0 0 $.0 0 0 0 6 6 6 6 7 4 8 9 3 m K <.                                                                                                                                                                                  ",
"                                                                                                                                                                                ) C d ; - * 9 8 0 0 0 0 0 0 0 8 0 0 0 0 0 $.$.$.$.$.$.$.$.$.$.$.$.$.$.$.$.0 $.$.$.$.$.$.$.$.$.$.0 O.O.$.0 0 O.O.0 0 0 0 $.$.$.0 0 0 0 0 6 0 6 6 0 8 8 8 5 - ; f V _                                                                                                                                                                             ",
"                                                                                                                                                                          ) V d ; % * 9 9 q q 8 0 0 0 0 0 0 0 0 $.$.0 0 0 $.$.$.$.$.$.$.$.$.$.$.0 0 $.$.$.$.$.$.$.$.$.$.$.$.$.$.0 0 O.0 0 0 O.O.$.$.$.$.O.$.0 0 0 0 0 0 0 0 0 0 0 0 8 8 8 7 4 * * ; f K <.                                                                                                                                                                      ",
"                                                                                                                                                                      ( k ; * 4 4 4 8 8 8 0 0 0 0 0 0 0 0 0 0 0 0 $.0 0 0 0 0 0 $.$.$.$.$.O.$.0 0 0 0 $.$.$.$.$.$.$.$.$.$.$.$.0 0 0 0 0 0 0 0 $.$.$.$.$.O.0 0 0 0 0 8 0 0 0 0 0 0 0 0 8 7 7 7 7 4 4 & * ; m [                                                                                                                                                                   ",
"                                                                                                                                                                  V d ; 5 4 7 6 7 0 8 7 0 0 0 0 0 0 0 0 0 0 0 0 0 0 0 0 0 0 0 0 $.$.$.$.$.$.$.0 0 0 0 $.$.$.$.$.$.$.$.0 $.$.$.$.O.O.O.O.0 0 0 0 $.$.O.O.0 0 0 0 0 0 0 0 0 8 8 8 0 8 8 8 8 7 7 7 7 4 7 4 4 5 < g J                                                                                                                                                               ",
"                                                                                                                                                            ( z > - - 8 8 0 0 7 0 0 0 0 0 0 0 0 0 0 0 $.0 0 0 $.$.$.$.$.0 0 $.$.$.$.$.$.$.$.$.0 0 0 0 $.$.$.$.$.$.0 0 $.$.$.$.$.O.O.O.0 0 0 0 0 $.$.$.O.0 0 0 0 0 $.$.0 0 0 0 6 6 q q 8 7 7 4 4 7 7 7 7 0 8 8 5 % > z {                                                                                                                                                         ",
"                                                                                                                                                        H s ; - 9 8 8 8 0 0 0 0 0 0 0 0 0 0 0 $.0 $.$.$.0 0 0 $.$.$.$.$.$.0 $.$.$.$.$.$.$.$.0 0 0 0 $.0 $.$.$.$.$.$.$.$.$.$.O.O.O.O.O.O.0 0 0 0 $.$.$.$.O.O.O.O.0 $.$.$.$.0 0 0 6 8 8 8 7 7 8 7 0 0 0 0 0 7 7 7 4 4 * ; k '                                                                                                                                                     ",
"                                                                                                                                                    C d = - 9 8 8 8 0 0 0 0 0 0 0 0 0 0 0 0 0 $.0 $.$.0 $.$.0 $.$.$.$.$.0 0 0 0 $.0 0 $.0 0 0 $.$.$.$.$.$.$.$.$.$.0 0 $.0 0 0 0 O.O.O.O.0 0 0 0 O.O.O.O.O.O.O.O.0 0 0 $.$.0 $.0 6 6 0 0 0 0 0 0 0 0 0 0 0 6 6 7 7 7 4 4 & = n [                                                                                                                                                 ",
"                                                                                                                                                D , % * 8 8 8 0 0 0 0 0 0 $.$.0 0 $.$.0 0 0 0 0 0 O.0 0 $.$.$.$.$.$.$.0 0 0 0 0 $.$.0 $.0 $.0 $.$.$.$.$.$.$.$.$.$.0 0 0 0 O.0 0 O.O.O.O.0 0 0 0 O.O.O.O.O.O.O.O.0 0 O.O.$.0 0 0 0 $.6 6 0 0 0 0 0 0 0 0 6 0 X.0 0 7 7 7 4 4 4 - n }                                                                                                                                             ",
"                                                                                                                                            L g < 9 9 8 8 8 0 0 0 0 0 0 0 $.$.$.0 $.$.$.0 0 0 0 $.$.0 $.$.$.$.$.$.$.$.O.0 O.0 0 0 0 0 $.0 $.0 O.O.$.$.$.$.$.$.$.$.$.$.$.O.O.O.0 O.O.O.O.0 0 O.O.O.O.O.O.O.O.O.O.0 0 O.O.O.O.O.O.X.X.$.O.0 $.$.0 0 0 0 0 0 0 0 0 0 0 0 6 6 7 7 4 5 > b {                                                                                                                                         ",
"                                                                                                                                        ' z > 9 q q q 8 0 0 0 0 0 0 0 0 0 $.$.$.$.$.$.$.0 0 $.0 $.$.0 0 $.$.$.$.$.O.O.O.O.O.0 0 0 0 0 O.O.$.$.O.O.$.$.$.O.O.$.$.O.O.O.O.O.O.O.0 O.O.O.O.O.O.O.O.O.O.O.O.O.O.O.O.O.O.O.O.O.O.O.O.O.O.O.$.0 0 0 $.0 0 0 0 0 0 0 0 0 0 0 6 O.0 6 7 8 9 * > B 2.                                                                                                                                    ",
"                                                                                                                                    ] z 2 9 9 8 q q 0 0 0 0 0 0 6 6 6 0 0 $.O.0 0 $.$.$.O.O.0 0 0 $.0 0 0 $.0 0 $.$.$.$.$.$.$.$.$.$.O.O.O.$.O.O.O.0 0 0 O.O.O.O.O.O.O.O.O.O.O.O.O.O.O.O.O.O.O.O.O.O.O.O.O.O.O.O.O.O.O.O.O.O.0 0 O.O.O.O.0 0 0 $.$.0 0 0 0 0 0 0 0 0 0 0 O.O.$.0 8 8 8 8 - , G                                                                                                                                   ",
"                                                                                                                                  S : * 8 q 8 q q q q q $.0 0 0 6 6 0 0 O.$.O.0 0 $.$.$.$.$.$.$.0 $.$.$.$.0 0 0 $.0 $.$.$.$.$.O.O.O.O.O.O.O.O.O.0 0 0 0 O.O.O.O.O.O.O.O.O.O.O.X.O.O.O.O.O.O.O.O.O.O.O.X.X.O.O.O.O.O.O.O.O.O.0 0 O.0 0 O.0 0 0 0 O.O.O.O.0 0 0 0 0 0 0 0 $.$.$.0 0 0 0 8 q 8 - f L                                                                                                                               ",
"                                                                                                                              L f % * 9 0 0 q 0 0 0 0 0 0 0 $.0 6 0 0 0 0 O.O.O.$.$.$.$.$.$.$.$.0 $.$.$.$.0 0 0 $.$.$.$.$.$.$.O.O.O.O.O.O.O.O.0 0 0 0 O.O.O.O.O.O.O.O.O.X.X.X.O.O.O.O.O.O.O.O.O.O.O.X.X.X.O.O.O.0 O.0 0 O.O.O.O.0 0 0 0 0 0 0 0 0 O.O.O.0 0 O.0 0 0 0 0 O.$.$.$.0 0 0 0 0 8 8 * = b <.                                                                                                                          ",
"                                                                                                                            z < * 4 8 8 8 0 0 0 0 0 0 0 0 0 $.0 0 6 6 0 0 O.O.O.$.$.$.$.$.$.$.$.$.$.$.$.$.$.$.$.$.$.$.$.$.$.$.$.$.$.$.$.O.O.O.0 0 0 0 0 O.O.O.O.O.O.O.O.X.X.X.O.O.O.O.O.O.O.O.O.X.X.X.X.O.O.O.O.O.O.0 O.O.O.O.O.0 0 O.0 O.$.0 $.0 O.O.O.O.0 O.O.0 0 0 0 $.$.$.$.0 0 0 8 0 8 7 4 * * > Q                                                                                                                         ",
"                                                                                                                        Q 3 - 4 4 7 8 0 0 0 0 0 0 0 0 0 0 O.O.O.0 0 0 0 O.O.O.O.O.$.$.$.$.$.$.$.$.$.O.O.$.$.$.$.$.$.$.$.$.$.$.O.O.O.O.O.$.O.O.O.0 O.O.O.O.O.O.O.O.O.O.O.O.O.O.O.O.$.$.$.O.O.O.O.O.O.O.X.X.X.O.O.O.O.X.X.O.O.O.O.O.O.O.O.O.$.$.O.O.O.O.O.O.O.O.O.O.O.0 0 $.$.0 0 0 6 0 0 0 0 6 7 7 7 4 - m 0.                                                                                                                    ",
"                                                                                                                      N < 8 7 7 8 8 0 0 0 $.$.0 0 0 6 0 O.O.O.O.0 0 0 O.O.O.O.O.$.$.$.$.$.$.$.$.$.$.O.O.$.$.$.$.$.$.$.$.$.$.$.O.O.O.O.O.O.O.O.O.$.$.$.O.O.O.O.O.O.O.$.O.$.$.O.O.$.$.$.$.O.O.O.O.O.O.O.O.O.O.O.O.O.O.O.O.O.O.@.O.O.O.O.$.$.$.O.O.O.O.O.O.O.O.O.O.0 O.O.O.$.$.0 0 $.$.0 $.0 0 X.0 6 6 6 7 * > Q                                                                                                                   ",
"                                                                                                                  [ , - 0 0 7 8 8 0 0 0 0 0 0 0 6 0 0 0 O.O.O.O.0 0 0 O.O.O.O.0 $.$.$.$.$.$.$.$.O.O.O.$.$.$.$.$.$.$.$.$.$.$.$.O.0 O.O.O.O.O.O.O.O.O.$.O.O.O.O.O.O.O.:.O.$.$.$.O.O.$.$.O.O.O.O.O.O.O.O.O.O.X.O.O.O.O.O.O.O.@.O.O.O.O.O.O.$.$.O.O.O.O.O.O.O.O.O.O.0 $.$.$.$.$.$.0 $.$.$.6 0 0 $.0 6 6 7 7 8 5 - m                                                                                                                 ",
"                                                                                                                B ; - 8 8 8 8 8 8 0 0 0 0 0 0 0 0 O.O.0 O.O.O.O.0 0 0 0 O.O.O.O.O.$.$.$.$.$.$.$.O.O.O.$.O.$.$.$.$.$.$.$.$.$.$.O.0 0 O.O.O.O.O.O.O.O.O.O.O.O.O.O.O.:.:.:.$.$.$.O.O.O.O.O.O.O.O.O.O.O.O.O.O.O.O.O.O.O.O.O.O.O.O.O.O.O.$.O.O.$.O.$.O.O.O.O.O.O.O.O.0 O.$.$.0 O.0 $.0 O.$.0 $.0 0 0 7 7 7 7 7 7 4 * , [                                                                                                             ",
"                                                                                                            _ g 9 9 9 9 9 7 6 0 0 0 0 0 0 0 0 0 $.0 0 0 O.O.0 O.0 6 6 0 0 $.$.$.$.$.$.$.$.$.$.$.O.O.O.O.O.$.O.$.$.$.$.$.$.$.$.$.0 0 0 0 O.O.O.O.O.O.O.O.O.$.$.$.O.O.$.$.$.$.$.$.O.O.O.O.O.O.O.O.O.O.O.O.O.O.O.$.O.O.O.O.O.O.O.O.O.$.$.$.O.$.$.$.O.O.O.O.O.O.O.O.$.O.O.O.$.$.0 $.O.O.0 0 0 6 7 8 6 6 6 6 6 6 6 7 5 > F                                                                                                           ",
"                                                                                                          D : * 8 8 9 9 q 7 X.0 $.$.0 0 0 0 0 0 0 0 $.0 O.O.0 O.6 6 6 6 $.0 $.$.$.$.$.$.$.$.$.$.O.O.O.O.$.$.O.$.$.$.$.$.O.$.$.$.0 0 0 0 0 O.O.O.O.O.O.O.$.$.$.$.$.$.$.$.$.$.0 $.O.O.O.O.O.O.O.O.O.O.O.O.$.O.$.$.O.O.O.O.O.O.O.O.$.$.$.$.O.$.$.$.X.O.O.O.O.O.O.O.O.O.0 0 $.$.0 0 $.$.0 0 0 0 8 0 6 6 6 X.6 6 6 6 8 4 - n 4.                                                                                                      ",
"                                                                                                        S ; - 9 q q q q q 7 0 0 $.$.$.$.0 0 0 0 0 0 X.0 0 O.O.O.0 6 0 0 $.$.$.$.$.$.$.$.$.$.$.$.O.O.O.O.$.$.$.$.$.$.$.$.$.O.O.O.O.0 0 0 0 O.O.O.O.O.O.O.$.$.$.$.$.$.O.O.$.0 $.$.O.O.O.O.O.O.O.O.O.O.O.O.$.O.O.O.O.O.O.O.O.O.O.O.$.$.O.$.$.$.$.$.O.O.O.O.O.O.O.O.O.$.O.0 0 0 0 0 0 0 $.0 0 0 0 0 0 8 8 7 7 7 7 7 7 7 4 * , {                                                                                                     ",
"                                                                                                      d - 8 8 9 q q q q 8 8 8 8 0 $.$.$.0 0 0 0 0 $.$.0 O.O.O.O.0 0 O.0 $.$.$.$.$.$.$.$.$.$.$.$.O.O.O.O.$.$.$.$.$.$.$.$.$.$.O.$.0 0 0 0 O.$.O.O.O.O.O.$.$.$.$.$.$.$.$.O.$.$.$.$.O.O.$.O.O.$.O.O.O.O.O.O.$.$.$.O.O.O.O.O.O.O.O.O.O.$.$.$.$.O.$.$.O.O.O.O.O.O.O.O.$.$.$.0 0 $.0 0 0 0 0 0 0 0 0 0 0 8 8 8 8 7 8 7 6 7 7 4 * > W                                                                                                   ",
"                                                                                                  ' , * 8 8 9 9 q 8 q 8 8 0 0 0 0 0 $.0 0 0 0 $.6 X.$.0 0 0 0 $.0 0 O.$.$.$.0 $.$.$.$.$.$.$.$.$.$.$.$.$.$.$.$.$.$.$.$.$.$.$.0 $.0 0 0 0 $.$.0 0 O.O.$.$.$.$.$.$.O.$.$.$.O.O.O.O.$.$.$.$.$.O.O.O.O.O.$.O.O.$.$.$.O.O.$.$.O.O.O.O.O.O.O.O.O.$.$.$.O.$.$.$.$.:.$.$.$.$.$.0 $.0 0 $.0 $.0 0 0 0 0 0 0 0 0 0 0 0 0 0 6 6 6 6 7 4 < G                                                                                                 ",
"                                                                                                Q 2 - 8 8 9 9 9 q 8 q 0 0 0 0 0 0 0 0 0 0 0 $.0 0 0 0 0 $.0 0 $.$.0 0 $.$.$.$.$.$.$.$.$.$.:.:.:.:.:.$.$.$.$.$.$.$.$.$.$.$.$.$.$.0 $.$.$.$.$.$.$.$.$.$.$.$.$.$.$.$.$.$.$.O.O.O.O.O.$.$.O.O.O.O.O.O.$.$.O.$.$.$.$.$.$.$.:.O.O.$.O.$.O.$.$.$.$.$.$.$.$.$.$.$.:.$.$.$.$.$.0 $.$.$.$.$.$.$.0 0 0 0 0 0 0 0 0 $.$.0 0 $.$.0 0 0 7 4 < m                                                                                               ",
"                                                                                              F < 8 8 8 q q 9 q 8 8 0 0 0 0 0 $.0 0 0 $.$.$.$.0 0 0 0 0 $.$.0 $.0 $.$.$.$.$.$.0 $.$.$.$.:.:.:.:.$.:.$.$.$.$.$.$.$.$.$.$.$.0 $.0 $.$.$.$.$.$.$.$.$.$.$.$.$.$.$.$.$.$.$.$.$.O.O.$.$.O.O.O.O.$.$.$.$.$.$.$.$.$.$.:.$.$.$.$.O.$.$.O.O.$.$.$.$.$.$.$.$.:.$.$.$.$.$.$.$.$.$.$.$.0 $.$.$.$.0 $.0 0 0 0 0 0 0 0 $.$.$.$.$.$.0 0 0 7 7 7 * f 6.                                                                                          ",
"                                                                                            F < q 8 0 q 8 8 8 0 0 0 0 0 0 0 0 0 $.0 $.$.$.$.$.0 0 0 0 0 $.$.0 $.0 $.$.$.0 0 0 0 $.$.$.$.$.:.:.:.$.$.$.$.$.$.$.$.$.$.$.$.$.$.$.$.$.$.$.0 $.$.$.$.$.$.$.$.$.$.$.$.$.$.$.$.$.O.$.$.$.O.$.O.$.$.$.O.$.$.$.$.$.$.$.$.$.$.$.$.$.$.O.O.O.$.$.$.$.$.$.$.$.$.$.$.$.$.$.$.$.$.$.0 0 $.$.$.$.0 0 0 0 0 0 0 0 0 0 0 $.$.$.$.$.$.0 0 0 0 6 7 4 & > {                                                                                         ",
"                                                                                          z = 8 q 0 7 q q 8 0 0 0 0 0 0 0 0 0 0 0 $.$.$.0 0 0 0 $.0 0 0 0 0 0 0 0 $.$.$.$.$.$.$.$.$.$.$.:.$.$.$.$.$.$.:.$.$.$.$.0 0 0 0 $.$.$.$.0 0 $.0 $.$.$.$.$.$.$.$.$.$.$.$.O.O.$.$.$.$.$.$.$.$.$.$.$.$.$.O.$.$.$.$.O.O.O.$.$.$.$.O.O.O.O.O.O.$.$.$.$.$.$.$.$.$.:.:.$.$.$.$.0 0 0 0 0 0 $.$.0 0 0 0 0 0 0 0 0 0 0 0 0 0 $.$.$.$.0 0 $.0 6 7 8 7 5 2 {                                                                                       ",
"                                                                                        z % 4 8 q q 7 q 0 8 0 8 0 0 w 0 0 0 0 0 $.$.$.$.$.$.0 0 $.0 0 0 0 0 0 $.$.$.0 $.$.$.0 $.$.:.:.:.:.:.:.$.:.$.$.$.$.$.$.$.0 0 0 0 0 $.$.$.0 0 0 0 0 $.O.O.$.$.$.$.$.$.$.$.O.O.$.$.$.$.$.$.$.$.$.$.$.O.$.O.$.$.$.$.O.$.$.$.$.$.$.$.0 O.0 O.O.$.$.$.$.$.:.$.$.:.:.$.$.$.$.$.0 0 0 0 0 0 $.$.0 0 0 0 0 0 0 0 0 0 0 0 0 0 0 $.$.0 0 0 0 0 6 6 7 7 7 4 ; [                                                                                     ",
"                                                                                      d * 4 7 0 $.0 0 0 0 0 q 0 0 0 0 0 0 0 0 $.$.$.$.$.0 0 $.0 0 0 0 0 0 0 0 $.0 0 $.$.$.$.$.$.$.$.$.$.:.:.:.:.:.:.$.$.$.$.$.$.0 0 0 0 0 $.$.0 0 0 0 0 0 0 O.O.$.$.$.$.$.$.$.$.O.O.O.$.$.$.$.$.$.$.$.$.$.O.$.O.$.$.$.$.O.$.$.O.$.$.$.$.0 0 0 $.$.$.$.$.$.$.$.$.:.:.:.:.$.$.$.0 0 0 0 0 0 0 0 0 0 0 0 0 0 0 0 0 0 0 0 0 0 0 0 $.$.0 0 0 0 0 6 6 7 7 7 7 5 > Q                                                                                   ",
"                                                                                    , * 4 7 7 6 0 0 0 0 0 0 0 0 $.$.0 0 0 $.$.$.$.$.$.$.$.$.$.$.0 0 0 $.0 0 0 $.0 0 $.$.$.$.$.$.$.$.$.$.:.$.:.:.$.$.$.$.$.$.$.$.0 0 0 0 0 $.0 0 $.0 0 0 $.O.O.O.$.$.$.$.$.$.$.$.$.O.O.$.:.:.$.$.$.$.$.$.$.$.$.$.$.$.$.$.O.O.$.O.$.$.$.0 0 0 0 $.$.$.$.$.$.$.$.$.$.$.$.$.$.$.$.$.0 0 0 0 0 0 0 0 0 0 0 0 0 0 0 0 0 0 0 0 0 0 0 $.$.$.0 $.$.0 0 0 6 6 7 7 8 4 < W                                                                                 ",
"                                                                                  , * 4 0 6 0 O.0 0 0 0 $.$.0 0 $.0 0 $.$.$.$.$.$.$.O.0 0 $.$.$.0 0 0 0 0 $.$.0 0 0 0 0 $.$.$.$.$.$.$.0 $.$.$.$.$.$.:.$.$.$.$.$.$.$.$.0 0 0 0 $.$.$.$.$.$.$.$.$.O.O.O.$.$.$.$.$.$.$.$.$.$.$.$.$.$.$.O.$.$.$.0 0 $.$.$.$.O.O.O.O.0 0 0 0 $.$.$.$.$.$.$.$.$.0 0 0 0 0 $.0 0 0 0 0 0 0 0 0 0 0 $.0 0 $.0 0 0 0 0 0 0 0 0 0 0 0 0 0 $.$.$.$.0 0 0 0 0 0 0 0 0 8 7 < F                                                                               ",
"                                                                                c & 8 0 0 6 0 0 0 0 0 0 0 $.$.0 $.$.$.$.$.$.$.O.0 0 0 0 0 $.$.$.$.0 0 0 $.$.0 0 0 0 0 0 $.$.$.$.$.$.$.$.$.$.$.$.:.:.:.:.:.$.$.$.$.$.$.$.0 0 0 0 $.$.$.$.0 $.$.$.O.O.O.O.$.$.$.$.$.$.$.$.$.$.$.$.0 0 0 O.$.$.0 0 0 $.$.$.$.$.$.$.0 0 0 0 $.O.0 $.$.$.$.0 0 $.0 0 0 0 0 0 0 0 0 0 0 0 0 0 0 0 $.0 0 $.0 0 0 0 0 0 0 $.$.$.0 0 $.$.$.$.$.$.0 0 0 0 0 $.0 0 0 0 0 4 < S                                                                             ",
"                                                                              f 9 0 0 0 $.$.0 $.0 0 $.$.0 $.0 0 $.$.0 $.$.$.$.0 0 0 0 0 0 0 $.$.$.0 0 0 $.$.$.0 0 0 0 0 0 $.$.0 $.$.:.:.$.$.$.$.:.$.$.:.$.$.$.$.$.$.$.$.0 0 0 0 $.$.$.$.0 0 $.$.O.O.O.O.$.$.$.$.$.$.0 0 $.$.$.$.0 0 0 $.$.0 0 0 0 $.$.$.$.$.O.0 0 0 0 0 O.O.$.$.$.$.0 $.0 $.0 0 0 0 0 0 0 0 0 0 0 0 0 0 0 0 0 0 0 0 0 0 0 0 0 0 $.$.$.0 0 0 0 $.$.0 0 0 0 0 0 0 X.$.$.0 0 0 0 8 4 ; F                                                                           ",
"                                                                            d * 8 0 0 0 $.0 0 0 0 0 0 $.0 0 0 0 0 $.0 $.O.O.0 0 0 0 0 0 0 0 0 $.$.$.0 0 $.$.$.0 0 0 0 0 0 0 0 0 $.$.:.:.$.$.$.$.:.$.:.$.$.$.$.:.$.$.$.0 0 0 0 0 0 $.$.$.0 0 0 $.$.$.O.O.$.$.$.$.$.$.$.$.$.$.$.$.0 0 0 0 $.0 0 0 $.$.$.$.O.$.$.O.0 0 $.0 $.0 0 $.0 0 0 0 0 0 0 0 0 0 0 0 0 0 0 0 0 0 0 0 0 0 0 0 0 $.0 0 0 0 0 0 $.$.$.$.0 $.0 0 0 0 0 0 0 0 0 6 $.$.$.0 0 0 6 0 4 5 ; Q                                                                         ",
"                                                                          k * 4 8 0 0 0 $.0 0 0 0 0 0 0 $.0 0 0 $.$.0 $.0 0 0 0 0 $.$.0 0 0 $.$.$.0 0 0 0 0 0 0 0 0 0 0 0 0 0 0 0 0 0 0 0 0 0 0 0 0 0 0 0 0 0 0 w 0 0 0 0 0 0 0 0 0 $.0 0 0 0 0 $.$.$.$.O.$.$.$.$.$.$.$.$.$.$.$.0 0 0 0 0 0 0 0 0 0 $.0 O.$.0 0 0 0 $.$.0 0 0 $.0 0 0 0 0 0 0 0 0 0 0 0 0 0 0 0 0 0 0 0 0 $.$.$.$.$.0 $.0 0 0 0 0 $.$.$.0 $.$.0 0 0 0 0 $.$.0 0 0 0 0 0 0 0 0 0 0 4 5 > {                                                                       ",
"                                                                        B * 4 7 0 0 0 6 0 0 0 $.$.0 $.$.$.0 0 0 0 0 $.$.$.$.$.$.0 0 $.0 0 $.$.0 0 0 0 0 0 0 0 0 0 0 0 0 0 0 0 0 0 0 0 0 0 0 0 0 0 0 0 0 0 0 0 0 0 0 0 0 0 0 0 0 0 0 0 0 0 0 0 0 $.$.$.$.$.$.$.$.$.$.$.$.$.$.$.$.0 0 0 0 0 0 0 0 0 0 0 0 O.O.0 0 $.0 0 $.0 $.0 0 $.0 0 0 0 0 0 0 0 0 0 0 0 0 0 0 0 0 0 0 0 0 $.$.0 $.0 0 0 0 0 0 0 $.$.$.$.$.0 0 0 0 0 $.$.$.0 0 0 0 0 0 $.0 0 0 7 7 7 5 2 }                                                                     ",
"                                                                      V < 4 8 7 6 6 0 6 0 0 $.$.$.$.$.$.$.0 0 0 $.0 $.$.$.$.$.0 0 $.$.$.$.$.$.0 0 0 0 0 0 0 0 0 0 0 0 0 0 0 0 0 0 0 0 0 0 0 8 0 0 0 0 0 0 0 0 0 0 0 0 0 0 0 0 0 0 0 0 0 0 0 0 0 $.$.$.$.$.$.$.$.$.$.$.$.0 0 $.0 0 0 0 0 0 0 $.$.0 0 0 0 0 0 6 6 $.0 $.$.$.0 $.0 0 0 0 0 0 0 0 0 0 0 0 0 0 0 0 0 0 0 0 0 0 0 $.$.0 0 0 0 0 0 0 0 0 $.$.$.$.$.$.$.$.0 0 $.$.$.0 0 0 0 0 0 $.$.0 0 8 7 7 4 5 g 0.                                                                  ",
"                                                                    D < 9 7 7 7 6 0 6 0 0 0 O.$.$.$.$.$.$.$.0 $.$.$.$.$.$.$.$.0 0 $.$.0 0 0 0 0 0 0 0 0 0 0 0 0 0 0 0 0 0 0 0 0 0 0 0 0 0 0 0 0 0 0 0 0 0 0 0 0 0 0 0 0 0 0 0 0 0 0 0 0 0 0 0 0 $.$.$.$.$.$.$.$.$.$.$.$.$.$.0 0 0 0 0 0 0 0 $.$.0 0 0 0 $.$.0 0 0 $.$.$.$.0 0 $.0 0 0 0 0 0 0 0 0 0 0 0 0 0 0 0 0 0 0 0 0 0 $.0 0 0 0 0 0 0 0 0 0 0 0 0 $.$.0 $.0 $.0 0 0 0 $.0 0 0 0 0 0 0 0 0 0 6 7 7 4 5 n                                                                   ",
"                                                                  K < 4 8 0 6 8 0 0 0 0 $.0 0 0 $.$.$.$.$.$.$.O.0 0 $.X.$.$.0 $.0 0 0 0 0 0 0 0 0 0 0 0 0 0 0 0 0 0 0 0 $.$.0 0 0 0 0 0 0 0 0 0 0 0 $.0 $.$.$.$.0 $.0 0 $.$.$.$.0 0 $.0 $.$.$.$.$.$.$.$.$.$.0 0 0 $.$.$.O.$.$.0 0 0 0 $.$.$.$.O.$.$.O.$.$.$.0 0 $.$.$.$.0 0 0 $.$.0 0 0 0 $.$.$.$.$.0 0 $.0 0 0 0 0 0 6 0 $.$.0 $.$.$.$.0 0 0 0 0 0 0 0 $.$.$.$.$.$.$.$.0 $.$.0 0 0 0 0 0 0 0 0 0 q 0 0 8 7 5 M                                                                 ",
"                                                                <.> 4 7 0 0 0 0 0 0 0 $.$.$.$.0 $.$.$.$.$.$.$.$.0 $.$.$.$.$.0 $.0 $.$.0 0 0 0 $.0 0 0 8 0 0 0 0 0 0 0 0 0 0 0 0 0 0 0 0 0 0 0 0 0 6 0 0 0 0 0 0 6 0 0 0 $.$.$.0 0 0 0 0 0 0 0 0 0 0 0 0 0 0 0 0 $.$.X.X.6 $.0 0 O.O.O.$.0 0 $.O.O.O.O.$.O.$.$.0 $.0 0 0 0 0 0 0 0 0 0 0 0 0 $.$.$.$.0 0 0 0 0 0 0 0 0 0 0 0 0 0 0 0 $.0 0 0 0 0 0 0 0 0 0 0 0 $.$.$.$.$.0 $.$.0 0 0 0 0 0 0 0 0 0 0 $.q q 7 4 * m                                                               ",
"                                                                f * 8 8 0 q 0 0 0 $.$.$.0 $.$.$.$.$.$.$.0 0 $.0 O.X.O.$.$.$.$.$.0 $.$.0 0 0 0 0 0 0 8 8 8 8 8 8 8 8 8 8 8 7 8 8 4 8 7 4 8 8 8 8 7 7 6 7 7 7 8 8 7 8 7 7 7 8 8 8 7 7 8 7 8 8 8 8 7 7 7 7 7 7 7 7 8 0 8 7 7 7 7 7 7 7 8 8 8 8 8 8 6 6 6 6 6 6 8 8 6 7 7 7 8 8 8 7 7 8 8 7 7 7 8 8 7 8 8 8 8 8 8 q 8 8 7 7 8 8 8 8 0 0 0 0 0 0 0 0 0 0 0 0 0 0 0 0 $.$.$.$.0 $.$.$.0 0 0 0 0 0 0 0 0 $.$.0 7 7 7 4 % G                                                             ",
"                                                              k * 7 8 7 0 0 0 0 0 $.$.$.0 $.$.$.$.$.$.$.$.$.$.$.$.$.O.O.$.$.$.$.0 $.$.0 0 0 0 0 0 0 9 y n c g g g g g c g g g g g g g g g g c c g g g g g g g g g g g h g g g g g g g g g g c c g g g g g g g g c g c g g g g g g 3 3 g g g g g g 3 h h 3 h g g g 3 g g g 3 3 3 g g g g g g g g 3 3 3 3 g g g g 3 , , , , 3 r 9 8 0 0 0 0 0 0 0 0 0 0 0 0 0 0 0 $.$.$.$.$.$.$.0 0 0 0 0 0 0 0 0 0 0 $.0 6 6 7 7 4 < |                                                           ",
"                                                            V % 4 7 7 7 0 0 0 0 0 0 $.$.$.$.$.$.$.$.$.$.$.$.$.$.$.$.$.$.$.$.$.$.0 0 0 0 0 0 0 0 0 0 9 t.I.U.K.K.K.K.K.L.K.K.K.K.K.K.K.K.K.K.K.K.K.K.K.K.K.K.K.K.K.K.K.K.K.K.K.K.K.K.K.K.K.K.K.K.K.K.K.K.K.K.K.K.L.K.L.L.K.K.K.K.K.K.K.K.K.K.K.K.K.J.J.K.K.K.K.K.K.K.K.J.J.J.J.J.J.J.J.J.J.J.J.J.J.J.J.J.J.J.J.J.J.J.J.J.H.H.h.< 8 8 0 0 0 0 0 0 0 0 $.0 0 0 0 0 $.$.$.$.$.$.$.$.0 $.0 0 0 0 0 0 0 0 0 0 0 0 q 0 8 8 j y.                                                        ",
"                                                          L ; 4 7 6 6 7 0 $.$.$.0 0 $.$.$.$.$.$.$.$.$.$.$.$.$.$.$.$.$.$.$.$.$.$.0 0 0 0 $.0 0 0 0 8 - f.$X$X$X$X$X$X$X$X$X$X$X$X$X$X$X$X$X$X$X$X$X$X$X$X$X$X$X$X$X$X$X$X$X$X$X$X$X$X$X$X$X$X$X$X$X$X$X$X$X$X$X$X$X$X$X$X$X$X$X$X$X$X$X$X$X$X$X$X$X$X$X$X$X$X$X$X$X$X$X$X$X$X$X$X$X$X$X$X$X$X$X$X$X$X$X$X$X$X$X$X$X$X$X$X$X#XV.; 8 0 0 0 0 0 0 $.$.$.$.0 $.0 0 0 $.$.$.:.$.$.$.$.$.$.0 0 0 $.$.0 0 0 0 0 0 0 0 0 0 8 9 U                                                         ",
"                                                        } , * 7 7 6 7 8 0 $.$.$.0 0 $.$.$.$.$.$.$.$.$.$.:.:.$.$.$.$.$.$.$.$.$.$.0 0 0 0 $.$.0 0 8 8 - i.#X$X$X$X$X$X$X$X$X$X$X$X$X$X$X$X$X$X$X$X$X$X$X$X$X$X$X$X$X$X$X$X$X$X$X$X$X$X$X$X$X$X$X$X$X$X$X$X$X$X$X$X$X$X$X$X$X$X$X$X$X$X$X$X$X$X$X$X$X$X$X$X$X$X$X$X$X$X$X$X$X$X$X$X$X$X$X$X$X$X$X$X$X$X$X$X$X$X$X$X$X$X$X$X@X`.j.; 8 0 0 0 0 0 0 $.$.$.0 $.0 0 0 0 :.:.$.$.$.$.$.$.0 $.0 0 $.$.$.$.0 0 0 0 0 0 0 0 0 0 8 < G                                                       ",
"                                                        n 5 7 7 6 6 6 0 0 $.$.$.0 0 $.$.$.$.$.$.$.$.$.$.:.:.:.$.:.$.$.$.$.$.$.$.0 0 0 0 $.$.w w 0 8 - i.#X$X$X$X$X$X$X$X$X$X$X$X$X$X$X$X$X$X$X$X$X$X$X$X$X$X$X$X$X$X$X$X$X$X$X$X$X$X$X$X$X$X$X$X$X$X$X$X$X$X$X$X$X$X$X$X$X$X$X$X$X$X$X$X$X$X$X$X$X$X$X$X$X$X$X$X$X$X$X$X$X$X$X$X$X$X$X$X$X$X$X$X$X$X$X$X$X$X$X$X$X$X$X@X'.R.l.; 8 0 0 0 0 $.$.$.$.0 0 $.0 0 0 0 $.$.$.$.$.$.$.$.$.$.0 $.$.$.$.$.0 0 0 0 0 0 $.0 0 0 8 4 > [                                                     ",
"                                                      B 9 8 0 0 0 0 0 0 0 $.:.$.$.0 0 $.$.$.$.$.$.$.$.$.:.:.:.:.:.:.:.:.$.$.$.$.0 $.0 0 :.:.:.:.0 w - i.#X$X$X$X$X$X$X$X$X$X$X$X$X$X$X$X$X$X$X$X$X$X$X$X$X$X$X$X$X$X$X$X$X$X$X$X$X$X$X$X$X$X$X$X$X$X$X$X$X$X$X$X$X$X$X#X#X$X#X#X#X#X#X@X@X+X@X@X@X#X@X@X@X+X@X+X+X@X+X+X+X@X@X@X@X@XoX+X+X@X@X@X@X@X@X@X+X+X+X+X+X+X+X X`.T.j.: 8 0 0 0 0 $.$.O.0 0 0 $.$.0 $.$.$.:.$.$.$.$.$.$.$.0 $.$.$.$.0 0 $.$.$.$.$.$.$.$.$.0 8 8 5 g                                                     ",
"                                                    D < 8 0 0 0 0 0 0 0 $.$.$.$.$.0 $.$.$.$.$.$.$.$.$.$.:.:.:.:.:.:.:.:.$.$.$.$.$.$.0 0 :.:.:.w w q - i.#X$X$X$X$X$X$X$X$X$X$X$X$X$X$X$X$X$X$X$X$X$X$X$X$X$X$X$X$X$X$X$X$X$X$X$X$X$X$X$X$X$X$X$X$X$X$X$X$X$X$X#X#X#X#X#X$X$X$X$X$X$X$X$X@X@X#X#X$X$X@X@X@X@X#X@X+X+X+X+X@X@X@X@X+X@X@X@X@X@X@X+X@X@X@X@X+X+X+XoX@X@X+X X~.T.l.> 8 0 0 0 0 $.$.$.0 0 0 0 $.$.$.$.$.:.:.:.$.$.$.$.$.$.$.$.O.$.0 0 $.$.$.$.$.$.$.0 0 0 0 8 4 * M                                                   ",
"                                                    : & 8 q q 8 0 0 $.$.$.:.:.$.0 0 $.$.$.$.$.$.$.$.$.$.$.$.$.O.:.:.:.:.$.$.:.$.0 0 0 0 :.:.:.:.;.q - i.#X$X$X$X$X$X$X$X$X$X$X$X$X$X$X$X$X$X$X$X$X$X$X$X$X$X$X$X$X$X$X$X$X$X$X$X$X$X$X$X$X$X$X$X$X$X$X$X$X#X#X#X#X#X#X$X$X$X$X$X$X$X#X$X$X$X$X$X$X$X#X@X@X@X@X@X+X+X+X+X@X+X+X@X+X+X+X+X@X+X+X+X@X@X@X@X+X+X+X@X@X+X+X{.~.T.l.2 0 0 0 0 0 X.O.0 0 0 0 $.$.$.$.$.:.:.$.$.$.$.$.$.$.$.$.$.$.$.$.$.$.$.$.$.:.$.$.$.0 w 0 8 4 4 < Q                                                 ",
"                                                  z % 4 0 0 8 0 $.$.$.$.$.:.:.$.$.0 $.$.$.$.$.$.$.$.$.$.:.$.$.$.$.$.:.$.$.$.:.$.$.0 0 $.:.:.$.$.;.q < f.#X$X$X$X$X$X$X$X$X$X$X$X$X$X$X$X$X$X$X$X$X$X$X$X#X#X$X#X#X#X$X$X$X#X$X$X$X$X$X$X$X$X$X$X$X$X$X$X$X$X#X#X#X#X#X$X$X$X$X$X$X$X#X#X$X$X$X$X$X#X#X@X+X+X@X@X+X+X+X+X@X@X+X+X+X@X+X+X+X@X+X@X@X@X@X@X+X+X+X+X+XoXoX{.~.T.x.2 0 0 0 0 $.X.$.O.0 0 0 $.$.$.$.$.:.$.$.$.$.$.$.$.$.$.$.$.$.$.$.$.$.$.$.$.:.$.$.$.0 0 0 8 7 4 4 1 2.                                              ",
"                                                H ; 5 7 6 $.0 0 $.$.$.$.0 0 0 0 $.$.$.$.$.$.$.$.$.:.:.:.:.$.$.$.$.$.$.$.$.$.$.$.:.$.:.$.$.$.$.$.0 w < f.#X$X$X$X$X$X$X$X$X$X$X$X$X$X$X$X$X$X$X$X$X$X$X$X#X#X$X$X$X#X#X#X#X#X#X$X$X$X$X$X$X$X$X$X#X#X#X#X#X#X#X#X#X#X#X$X$X$X$X$X$X#X#X$X#X#X#X@X@X@X@X@X@X@X@X@X+X+X+X+X+X+X+X+X+X+X+X+X+X+X@X@X+X+X+X@X+X+X+X+X+XoXoX{.`.R.x.1 8 0 0 0 0 $.$.$.$.0 0 $.$.$.$.$.$.$.$.$.$.$.$.$.$.$.$.$.$.$.$.$.$.:.$.$.:.$.$.$.0 0 0 8 8 8 0 4 M                                               ",
"                                                , & 8 0 $.$.0 0 $.$.$.$.0 0 $.0 $.$.$.$.$.$.$.$.:.:.:.:.:.:.:.:.$.:.$.$.$.$.$.$.:.:.:.:.$.:.$.$.$.w < f.#X$X$X$X$X$X$X$X$X$X$X$X$X$X$X$X$X$X$X$X$X$X$X$X#X#X$X$X$X$X#X#X#X#X#X#X$X$X$X$X$X$X$X$X#X#X#X#X#X#X#X#X#X#X#X$X$X$X$X$X$X#X#X$X$X#X#X@X@X@X@X@X@X@X@X@X+X+X+X+X+X+X+X+X+X+X+X+X+X+X@X+X+X+X+X+X+X+X+X+X+XoXoX{.`.R.z.; 8 0 0 0 0 $.$.$.0 0 0 $.$.$.$.$.$.$.$.$.$.$.$.$.$.$.$.$.$.$.$.$.:.:.:.:.:.:.$.$.0 0 0 q 0 0 0 8 - E                                             ",
"                                              V - 8 0 0 $.$.0 0 $.$.$.$.0 0 0 0 $.$.$.$.$.0 $.$.$.:.:.:.:.:.:.$.$.$.$.$.$.$.$.$.:.:.:.:.$.$.$.$.$.0 < f.#X$X$X$X$X$X$X$X$X$X$X$X$X$X$X$X$X$X$X$X$X#X$X#X$X$X$X$X$X$X$X$X$X$X#X#X$X$X$X$X$X$X$X$X#X#X#X#X#X#X$X#X#X#X#X$X$X$X$X$X$X#X#X+X#X#X#X#X@X@X@X@X@X@X@X@X@X+X+X+X+X+X+X+X+X+X+X+X+X@X@X+X+X+X@X+X@X@X+X+X+XoXoX{.`.R.z.; 8 0 0 0 0 $.$.$.0 0 0 $.$.$.$.$.$.$.$.$.$.$.$.$.$.$.$.$.$.$.$.$.:.:.:.:.:.$.$.$.0 0 $.0 0 q 0 8 4 3 2.                                          ",
"                                            [ > 8 0 0 0 $.$.$.$.$.$.$.$.0 0 0 0 $.$.$.$.$.$.$.$.:.:.:.:.$.$.$.$.$.$.$.$.$.$.$.$.:.:.:.:.$.$.$.$.0 0 < f.#X$X$X$X$X$X$X$X$X$X$X$X$X$X$X$X$X$X$X$X$X$X$X$X$X$X$X$X$X$X$X$X$X$X#X$X$X$X$X$X$X$X$X#X#X#X#X#X#X#X$X$X#X$X$X$X$X#X$X$X#XOXOX+X@X@X#X#X@X@X@X@X@X@X@X@X+X+X+X+X+X+X+X+X+X+X+X+X+X+X@X@X+X+X@X@X@X+X+X+XoXoXoX X`.R.x.; 0 0 0 $.$.$.$.$.0 $.$.$.$.$.$.$.$.$.$.$.$.$.$.$.$.$.$.$.$.$.$.:.:.:.:.:.:.:.$.$.$.:.$.$.$.q 0 0 8 9 M                                           ",
"                                            n * 8 0 0 0 0 $.0 $.$.$.$.$.0 0 $.$.$.$.$.$.$.$.$.$.:.$.$.$.$.$.$.$.$.:.:.$.$.$.$.$.$.$.:.:.$.$.$.$.0 0 < f.#X$X$X$X$X$X$X$X$X$X$X$X$X$X$X$X$X$X$X$X$X#X#X#X$X#X$X$X#X#X$X$X$X$X$X$X$X$X$X$X$X$X$X#X#X#X#X$X$X$X$X$X$X$X$X$X$X@X@X$X#X$X#XOX@X@X@X@X@X@X@X@X@X@X@X@X+X+X+X+X+X+X+X+X+X+X+X+X@X@XoX+XoXoX@X@X@X+XoXoXoXoXoX{.`.R.x.; 6 6 0 0 $.$.$.$.0 $.$.$.$.$.$.$.$.$.$.$.$.$.$.$.:.$.$.:.:.:.:.:.:.:.:.$.$.$.$.$.$.$.$.$.$.$.$.$.0 0 r |                                         ",
"                                          L ; 8 0 0 -.q $.$.$.$.$.$.$.$.$.$.$.$.$.$.$.$.$.$.$.$.:.$.$.$.$.$.0 $.:.:.:.:.$.$.$.$.:.$.:.$.$.$.$.$.0 0 < f.#X$X$X$X$X$X$X$X$X$X$X$X$X$X$X$X$X$X$X$X$X$X$X#X$X$X#X#X#X#X$X$X$X$X$X$X$X$X$X$X$X$X$X#X#X#X#X$X$X$X$X$X$X$X$X$X@X#X#X#X#X#X#X#X@X@X@X@X@X@X@X@X@X@X@X@X+X+X+X+X+X+X+X+X+X+X+X+X@X@XoXoX+XoX@X@X+X+XoXoXoXoXoX{.`.R.x.: 7 0 0 0 $.$.$.$.0 $.$.$.$.$.$.$.$.$.$.$.$.$.$.$.:.$.$.$.:.:.:.:.:.:.:.$.$.$.$.$.$.$.$.$.$.$.$.$.$.$.8 P                                         ",
"                                          f * 8 0 0 q q $.$.$.$.$.$.$.$.$.$.$.$.$.$.$.$.$.$.$.$.$.:.$.$.$.$.$.$.$.$.$.$.$.$.$.$.:.:.:.$.$.$.$.$.0 0 < f.#X$X$X$X$X$X$X$X$X$X$X$X$X$X$X$X$X$X$X$X$X$X$X$X$X$X$X$X#X#X#X$X$X$X$X$X$X$X$X$X$X$X$X#X#X#X#X$X$X$X$X$X@X$X$X$X@XOXOX#X#XOX#X#X@X@X@X@X@X@X@X@X@X@X@X@X+X+X+X+X+X+X+X+X+X+X+X+X@X@X@X@XoXoXoX+XoXoXoXoXoXoXoX{.`.R.x.: 7 6 0 0 $.$.$.$.0 0 $.$.$.$.$.$.$.$.$.$.$.$.$.$.:.:.:.:.:.:.:.:.:.:.:.$.$.$.$.$.$.$.$.$.$.$.$.-.$.-.0 r T                                       ",
"                                        S - 4 8 0 0 q 0 $.$.$.$.$.$.$.$.$.$.$.$.$.$.$.$.$.$.$.$.:.:.$.$.$.$.$.$.$.$.$.$.$.$.$.$.$.:.:.$.$.$.$.$.0 q < f.#X$X$X$X$X$X$X$X$X$X$X$X$X$X$X$X$X$X$X$X#X$X$X$X$X$X$X$X$X#X$X$X$X$X$X$X$X$X$X$X$X$X$X$X#X#X#X$X$X$X$X#X$X$X$X$X#X#X#X@X@X@X@X@X@X@X@X@X@X@X@X@X@X@X@X@X+X+X+X+X+X+X+X+X+X+X+X@X@X@X@X@X@X+X+X+XoXoXoXoXoXoXoX{.`.R.x.: 6 0 0 0 $.$.$.0 0 $.$.$.$.$.$.$.$.$.$.$.$.$.$.$.:.:.:.:.:.:.:.:.:.:.:.:.$.$.$.$.$.$.$.$.$.$.-.-.-.q $.8 2                                       ",
"                                      [ > 8 0 q 0 0 0 0 $.$.$.$.$.$.$.$.0 0 $.$.$.$.$.$.$.$.$.$.:.:.:.$.$.$.$.$.$.$.$.$.$.$.$.$.$.$.$.$.$.$.$.$.0 0 - r.#X$X$X$X$X$X$X$X$X$X$X$X$X$X$X$X$X$X$X$X$X$X$X$X$X$X$X$X$X$X$X$X#X$X$X$X$X$X$X$X$X$X$X$X#X#X#X$X#X@X#X@X$X$X$X#X$X$X#X@X@X@X@X@X@X@X@X@X+XOX+X+X@X+X@X+X+X+X+X+X+X+X+X+X+X@X@X@X@X+XoX@X@X@XoXoXoXoXoXoXoXoXoX{.~.R.x.: 6 $.6 0 $.0 $.$.0 0 $.$.$.$.$.$.$.$.$.$.$.$.$.$.:.:.:.:.:.$.$.$.:.:.:.:.:.:.$.$.$.$.$.$.$.$.-.-.-.$.$.q r Y                                     ",
"                                      f 5 8 0 q $.-.$.$.$.$.$.$.$.$.$.$.0 0 $.$.$.$.$.$.$.$.$.$.:.:.:.$.$.$.$.$.$.$.$.$.$.$.$.$.$.$.$.$.$.$.$.0 0 0 - r.#X$X$X$X$X$X$X$X$X$X$X$X$X$X$X$X$X$X$X$X$X$X$X$X$X$X$X$X$X$X$X$X$X$X$X$X$X$X$X#X#X$X$X#X#X#X#X$X@X@X@X@X#X$XOXOX#X#X#X@X@X@X@X@X@X@X@X@X+XOXOX+X@X+X+X+X+X+X+X+X+X+X+X+X+X@X@X@X+X+XoXoX@X@XoXoXoXoXoXoXoXoXoX{.~.R.x.; 6 $.0 0 0 0 $.$.0 0 0 $.$.$.$.$.$.$.$.$.$.$.$.$.:.:.:.:.$.$.$.$.:.:.:.:.:.:.$.$.$.$.$.$.$.$.$.-.-.$.-.8 q < 4.                                  ",
"                                    L ; 8 0 -.q -.-.$.$.$.$.$.$.$.$.$.$.$.$.$.$.$.$.$.$.$.$.$.$.:.:.:.$.$.$.$.$.$.$.0 $.0 0 0 $.$.$.$.$.$.$.$.$.0 0 - i.#X$X$X$X#X$X$X$X$X$X$X$X$X$X$X$X$X$X$X$X$X$X$X$X$X$X$X$X$X$X$X$X$X$X$X$X$X$X$X#X#X#X$X#X#X#X#X$X#X#X@X@X#XOX#X#X#X@X@X@X@X@X@X@X@X@X@X@X+XOX+X+X+X+X+X+X+X+X+X+X+X+X+X+X+X@X@X@X+X+XoXoX@X+XoXoXoXoXoXoXoXoXoX{.~.R.x.: 6 0 0 0 0 0 $.0 0 0 0 $.$.$.$.$.$.$.$.$.$.$.;.:.:.:.:.:.:.:.:.:.:.:.:.:.$.$.:.:.$.$.$.$.$.$.$.$.-.-.-.8 q 9 U                                   ",
"                                    s * 8 0 q q $.$.$.$.$.$.$.$.$.$.$.$.$.$.$.$.$.$.$.$.$.$.$.$.:.$.$.$.$.$.$.$.0 0 0 $.0 0 0 0 $.$.$.$.$.$.$.$.0 0 - i.#X$X$X$X#X$X$X$X$X$X$X$X$X$X$X$X$X$X$X$X$X$X$X$X$X$X$X$X$X$X$X#X#X#X$X$X$X$X#X#X#X#X#X#X#X#X#X$X#X@X@X@X#X#X#X#X@X@X@X@X@X+X@X@X+X@X@X+X+X+X+X+X+X+X+X+X+X+X+X+X+X+X+X+X+X@X@X@X+X+XoXoX+X+XoXoXoXoXoXoXoXoXoX[.~.R.x.; 0 0 0 0 0 0 0 0 0 0 0 $.$.$.$.$.$.$.$.$.:.-.;.-.-.$.:.:.:.:.:.:.:.:.:.:.:.:.:.:.$.$.$.$.$.$.$.$.$.$.0 0 0 8 < {                                 ",
"                                  L = 5 0 0 0 0 $.$.$.$.$.$.$.$.$.$.$.$.$.$.$.$.$.$.$.$.$.0 $.$.$.$.$.$.$.$.$.$.0 0 0 0 0 0 0 0 $.$.$.$.$.0 $.$.0 q - r.#X$X$X$X$X$X$X$X$X$X$X$X$X$X$X$X$X$X$X$X#X#X#X$X$X$X$X$X$X$X#X#X$X$X$X$X#X#X$X$X#X#X#X#X#X#X$X$X$X#X#XOX#X#X#X#X#X@X@X+X#X#X@X+X+X+X+X+X+X+X@X@X@X+X+X+X+X+X+X+X+X@X@X@XoXoX+X+X@X@X@X@X+XoXoXoXoXoXoXoXoXoXoX{.~.R.x.: 0 0 0 0 $.0 $.0 0 $.$.$.$.$.$.$.$.$.$.$.$.$.$.$.$.$.$.:.:.:.:.:.:.:.:.:.:.:.:.:.:.:.$.$.$.$.$.$.$.0 0 $.0 q 9 M                                 ",
"                                  k * 8 0 0 0 0 0 $.$.$.$.$.$.$.$.$.$.$.$.$.$.$.$.$.$.$.$.0 0 $.$.$.$.$.$.$.$.$.0 0 0 0 0 0 0 0 $.$.$.$.$.0 0 $.0 8 - r.#X$X$X$X$X$X$X$X$X$X$X$X$X$X$X$X$X$X$X$X#X#X#X#X$X$X#X#X#X#X#X#X#X#X#X#X#X#X$X$X#X#X$XOX#X$X$X$X$X#X#XOXOX#X#X#X#X#X#X#X#X#X@X@X@X@X@X@X+X@X@X@X@X@X+X+X+X+X+X+X+X+X@X@X+X+X+X+X@X@X@X@XoXoXoXoXoXoXoXoXoXoXoX[.~.R.x.; 8 0 0 0 $.$.$.$.0 $.$.$.$.$.$.$.$.$.$.$.$.$.$.$.$.$.:.:.:.:.:.:.:.:.:.:.:.:.:.:.$.:.$.$.$.$.$.$.$.0 $.$.$.q 8 r {                               ",
"                                _ ; 9 8 q q 0 q 0 $.$.$.$.$.0 $.$.$.$.$.$.$.$.$.$.$.$.$.$.$.$.$.$.$.$.$.$.$.$.$.0 0 0 0 0 0 0 0 $.$.$.$.$.0 0 0 0 8 - i.#X$X$X$X#X$X#X#X#X#X#X#X$X#X#X#X#X#X$X$X$X$X#X#X$X$X#X#X#X#X#X#X#X#X#X#X#X#X$X$X#X#X#X#X#X#X#X#X@X@X@X@X+X+X@X@X@X@X@X@X@X+X@X+X+X+X+X+X+X+X+X+X+X+X+X+X+X+X+X+X+X+XoXoXoX+X+X+X@X@X+XoXoXoXoXoXoXoXoXoXoXoXoX[.~.R.x.; 8 0 0 0 0 $.$.$.0 $.$.$.$.$.$.$.$.$.:.:.$.$.$.$.$.:.:.:.:.:.:.:.:.:.:.:.:.:.:.:.$.:.$.$.$.$.$.$.$.$.$.$.-.-.q 9 U                               ",
"                                b - 8 8 q -.$.$.$.$.$.$.$.$.$.$.$.:.$.$.$.$.$.$.$.$.$.$.$.$.$.$.$.$.$.$.$.$.$.$.0 w w 0 0 0 0 0 $.$.$.$.$.$.0 0 0 8 - i.#X$X+X X{.{.{.{.{.{.{. X{.{.{.{.{. X X+X$X$X$X$X$X$X#X#X#X#X#X#X#X#X#X#X#X$X$X#XoX X{.[.[.{.{.[.[.[.[.[.[.[.[.[.[.[.[.[.[.[.[.[.[.[.[.[.[.[.[.[.[.[.[.[.[.[.{.+X+X+XoX+X+X@X@X+X@X+XoXoXoXoXoXoXoXoXoXoXoXoXoX[.~.R.x.; 8 0 0 0 0 $.$.$.0 0 $.$.$.$.$.$.$.$.:.:.$.$.$.$.$.$.:.:.:.:.:.:.:.:.:.:.:.:.:.:.$.$.$.$.$.$.$.$.$.$.$.$.-.-.-.q u  .                            ",
"                                1 9 q q q $.$.$.$.$.-.$.$.$.$.$.:.:.:.:.$.$.$.$.$.$.$.0 $.$.$.$.0 $.$.$.0 0 0 0 $.w 0 0 0 0 0 0 0 0 $.$.$.$.$.$.0 8 - i.XX X'.~.~.~.~.~.~.~.~.~.~.~.~.~.~.`.[.+X$X$X$X#X#X#X#X#X#X#X#X#X#X#X#X$X$X#X$X@X[.`.~.~.~.~.~.~.~.~.~.~.~.~.~.~.~.~.~.E.E.E.~.~.E.E.R.R.E.~.~.~.R.Q.Q.E.~.`.[.@X#X@X@X+X+X@X@X@X+X+XXXoXoXoXoXoXoXoXoXoXoXoX X[.`.R.x.; 8 0 0 0 0 0 0 0 0 0 0 0 $.$.$.-.-.$.$.$.$.$.$.$.$.$.:.:.:.:.:.:.:.:.:.:.:.:.:.$.$.$.$.$.$.$.$.$.0 0 0 -.-.-.$.$.9 Y                             ",
"                              B 9 q q q q $.$.$.$.$.-.$.$.$.$.$.:.:.:.$.$.$.$.$.$.$.$.0 $.$.$.$.0 0 $.$.0 0 0 0 0 $.$.0 0 0 0 0 0 0 0 $.0 $.$.$.0 8 - u._.^.R.Y.P.P.P.P.P.Y.P.P.P.P.P.Y.R.!.{.#X$X$X$X#X#X#X#X#X#X#X$X#X#X#X$X$X$X#X#X@X[.~.T.P.L.L.L.L.L.L.L.L.L.L.L.L.L.L.L.L.L.L.L.L.L.L.L.L.L.L.L.L.L.K.K.L.T.~.+X$X#X@X+X+X+X+XoX+XXXXXXXXXoXoXoXoXoXoXoXoX XoXoX[.`.R.x.; 8 0 0 0 0 0 0 0 0 0 0 0 0 $.$.-.$.$.$.$.$.$.$.$.$.$.:.:.:.:.:.:.:.:.:.:.:.:.:.$.$.$.$.$.$.$.-.$.$.-.-.-.-.-.-.$.q t                             ",
"                              2 q -.q q -.$.$.$.$.$.$.$.$.$.$.:.:.:.:.$.$.$.$.$.$.$.$.0 $.$.$.$.0 $.$.0 0 0 0 0 0 $.$.0 0 0 0 0 0 0 0 0 0 $.$.$.0 q r E a.i.r.r.i.i.i.i.i.i.i.r.r.r.r.r.e.B.XX$X$X$X$X#X#X#X#X#X#X#X#X#X#X$X$X$X#X$X@X+X[.R.A.e.8.q.q.w.r.r.r.i.i.i.i.w.w.w.w.r.r.r.r.i.r.r.r.r.r.r.r.w.q.q.q.r.d.R.#X$X$X@X@X+X+XXX X X XXX X XoXoXoXoXoXoXoXoXoXoXoX[.~.R.x.; 0 $.$.$.0 0 0 0 0 0 0 0 0 $.$.-.-.-.$.$.$.$.$.$.$.$.:.:.:.:.:.:.:.:.:.:.:.:.:.:.$.$.$.$.$.-.-.-.-.-.-.-.-.-.$.0 q 9 Y                           ",
"                            S - 0 -.q q -.$.$.$.-.$.$.$.$.0 0 $.$.$.$.$.$.$.$.$.$.$.$.$.$.$.$.$.$.$.$.0 0 0 0 0 0 0 $.0 0 0 0 0 0 0 0 0 0 $.0 0 0 8 q - - - = < < ; ; < < - < < = = = = @ 9.XX$X$X$X$X#X#X#X#X#X#X#X#X#X#X$X$X#X@X@X@X+X'.R.j.+ X % = = < < - < - - - - - - - - - - - - < < < < - - = = = = = ; a P.$X$X$X@X@X@X+X X X X X X X XoXoXoXoXoXoXoXoXoXoXoX[.~.R.x.1 0 0 0 0 0 0 0 0 0 0 0 0 $.$.-.$.$.-.-.$.$.$.$.$.$.$.:.:.:.:.:.:.:.:.:.:.:.:.:.$.$.$.$.$.$.$.-.-.-.-.-.-.$.-.$.0 0 8 3                           ",
"                            , 9 0 $.6 0 $.$.$.$.$.$.$.$.$.0 0 0 $.$.$.$.$.$.$.$.$.$.$.$.$.$.$.$.$.$.$.$.$.$.$.0 0 0 0 0 0 0 0 0 0 0 0 0 0 $.0 0 0 0 0 8 8 0 8 8 8 q 9 q 8 8 8 8 8 8 4 4 * w.#X$X$X$X$X#X#X#X#X#X#X#X$X$X#X$X#X@X@X@X@XoX`.R.z.> 5 4 4 8 8 8 8 8 8 8 8 8 8 8 8 8 8 8 8 8 0 8 8 8 0 0 8 8 8 8 8 - B R.$X$X#X+X+X+X+X X X XoXoXoXoXoXoXoXoXoXoXoXoXoXoX{.[.~.R.z.; 7 0 0 0 0 0 0 0 0 0 0 $.$.$.$.$.$.$.$.$.$.$.$.$.$.$.$.$.$.$.:.:.:.:.:.:.:.:.$.$.$.$.$.$.$.$.$.$.$.$.$.$.$.$.$.X.0 8 r Y                         ",
"                          K - 8 0 0 $.$.$.$.-.$.$.$.$.$.0 $.0 $.$.$.$.$.$.$.$.$.$.$.$.$.$.$.$.$.$.$.$.$.$.$.$.$.0 0 0 0 0 0 0 0 0 0 0 0 $.0 0 0 0 0 0 0 8 8 8 8 8 0 8 0 0 0 0 0 0 0 0 8 * y.#X$X$X$X#X#X#X#X#X#X$X#X#X$X#X$X@X@X@X@X@XoX`.R.b.2 7 6 7 0 0 8 0 0 0 0 0 0 0 0 0 0 0 0 0 0 0 $.0 0 0 0 0 0 8 8 8 9 B R.$X$X#X+X+X+XoX X X XoXoXoXoXoXoXoXoX XoXoXoXoXoX{.[.~.R.z.; 7 0 q q 0 0 $.$.0 $.$.$.$.$.$.$.$.$.$.$.$.$.$.$.$.$.$.$.$.$.:.:.:.:.:.:.$.$.$.$.$.$.$.$.$.$.$.$.$.$.:.:.$.$.$.$.0 8 5 h                         ",
"                          n & 8 0 0 0 $.$.-.-.-.0 0 0 0 0 $.$.$.$.$.$.$.$.$.$.$.$.$.$.$.$.$.$.$.$.$.$.$.$.$.$.$.$.0 0 0 0 0 0 0 0 0 0 0 0 0 0 0 0 0 0 8 0 0 8 8 8 0 0 0 0 0 0 0 0 0 0 0 * i.#X$X$X@X#X#X#X$X$X$X$X#X$X$X#X@X@X@X@X@X#XoX`.R.n.3 8 0 7 0 8 0 0 0 0 0 0 0 0 0 0 0 0 0 0 0 0 0 0 0 0 0 0 8 8 8 8 9 N R.$X$X$X@X+XoXXXXXXXoXoXoXoXoXoXoX XoXoX X XoXoX X X[.`.R.z.; 6 0 q q $.$.$.$.$.$.$.$.$.$.$.$.$.$.$.$.-.$.-.$.$.$.$.$.$.$.$.:.:.:.:.:.$.$.$.$.$.$.$.-.$.$.$.$.:.:.:.:.$.$.$.$.0 0 7 < [                       ",
"                        } ; 4 7 0 0 0 0 $.-.-.-.0 $.0 0 0 $.$.$.$.$.$.$.$.$.$.$.$.$.$.$.$.$.$.$.$.$.$.$.$.$.$.$.$.0 0 0 0 0 0 0 0 0 0 0 0 0 0 0 0 0 0 0 8 0 0 8 0 8 0 0 0 0 0 0 0 0 0 0 * i.#X$X$X@X#X#X$X$X#X#X#X#X@X@X@X@X@X@X@X@X@XoX`.R.n.3 0 0 7 7 8 6 0 0 0 0 0 0 0 0 0 0 0 0 0 0 0 0 0 0 0 0 0 8 8 8 8 9 A R.$X$X$X@X+XoXoXoXoXoXoXoXoXoX XoX X XoX X X XoX X X[.`.R.x.; 6 0 q -.$.$.$.$.$.$.$.$.$.$.$.$.$.$.$.$.0 0 -.$.$.$.$.$.$.$.$.$.:.:.:.:.$.:.$.$.$.$.$.$.$.$.$.$.$.:.$.$.$.$.$.$.$.0 8 5 Y                       ",
"                        N * 4 0 0 $.$.$.$.$.$.$.0 $.0 0 0 $.$.$.$.$.$.$.$.$.$.$.$.$.$.$.$.$.$.$.$.$.$.$.$.$.0 $.$.$.0 0 0 0 0 0 0 0 0 0 0 0 0 0 0 0 0 0 0 0 0 0 0 0 0 0 0 0 0 0 0 0 0 6 5 i.#X$X$X$X#X$X$X$X#X@X@X@X@X@X#X#X@X@X@X@X@XoX`.R.b.2 8 0 0 0 0 0 0 0 0 8 0 0 0 0 0 0 0 0 0 0 8 8 8 0 8 0 8 0 8 8 8 8 B R.$X$X$X@X+XoXoXoXXXoXXXXXXXXXoXoXoX XoXoXoXoXoX XoX[.`.R.x.; 8 0 q 0 0 0 0 0 0 0 0 0 0 0 0 $.0 0 0 0 $.$.$.$.$.$.$.$.$.$.$.$.$.:.$.$.$.$.$.$.$.$.$.$.$.$.$.$.$.$.0 -.$.$.$.$.0 0 0 7 3                       ",
"                        3 4 7 0 $.$.$.0 0 $.$.$.0 0 0 0 0 $.$.$.$.$.$.$.$.$.$.$.$.$.$.$.$.$.0 $.$.$.$.$.$.$.0 0 $.$.$.$.0 0 0 0 0 0 0 0 0 0 0 0 0 0 0 0 0 0 0 0 0 0 0 0 0 0 8 0 0 0 0 0 5 i.#X$X$X#X#X#XOX@X@X@X@X@X#X#X#X#X@X@X@X@X@XoX`.R.z.> 8 0 0 0 0 0 0 0 0 0 0 0 0 0 0 0 0 0 0 0 0 8 8 8 q q q q 8 0 0 8 B R.$X$X$X@X+XoXoXXXXXoXXXXXoXoXoXoXoXoX X X X X X X X[.~.R.x.; 8 0 q 0 0 0 0 0 0 0 0 0 0 0 0 0 0 0 0 0 $.$.$.$.$.$.$.$.$.$.$.$.$.$.$.$.$.$.$.$.$.$.$.$.$.-.-.$.0 0 0 -.$.$.$.0 0 0 $.0 r Q                     ",
"                      { < 8 0 0 $.X.$.$.0 $.$.$.0 0 0 0 0 $.$.$.$.$.$.$.$.$.$.$.$.$.$.$.$.$.0 $.$.$.$.$.$.$.0 0 $.$.$.0 0 0 0 0 0 0 0 0 0 0 0 0 0 0 0 0 0 0 0 0 0 0 0 0 0 0 0 0 0 0 0 0 9 i.#X$X$X$X#X#XOX+X@X@X@X@X#X#X#X#X@X@X@X@X@XoX`.R.l.> 8 $.0 0 0 0 0 0 0 q 0 0 0 0 0 0 0 0 0 0 0 0 0 q q q q q 0 0 0 8 B Y.$X$X$X@X+XoXoXoXoXoXoXoXoXoXoXoXoXoX X X X X X X X[.~.R.z.; 8 0 0 0 0 0 0 0 0 0 0 0 0 0 0 0 0 0 0 0 $.$.$.$.$.$.$.$.$.$.$.$.$.$.$.$.$.$.$.$.$.$.$.$.$.-.-.$.0 0 0 0 $.$.$.0 0 0 $.0 9 I                     ",
"                      S 9 0 0 0 X.X.X.X.0 $.$.$.0 0 0 0 $.$.$.$.$.$.$.$.$.$.$.$.$.$.$.$.$.0 0 0 $.$.0 0 $.0 0 0 $.$.0 0 0 0 0 0 0 0 0 0 0 0 0 0 0 0 0 0 0 0 0 0 0 0 0 0 0 0 0 0 0 $.$.0 9 i.#X$X$X#X@X#XOX@X@X@X@X@X@X#X#X@X@X+X@X@X@XoX`.R.l.; 8 $.0 0 0 0 0 0 0 0 0 0 0 0 0 0 0 0 0 0 0 q q q q q q q 0 0 0 8 B Y.$X$X$X@XoXoXoXoXoXoXoXoXoXoXoXoXoXoX X X X X X X X[.~.R.z.; 8 0 0 0 0 0 0 0 0 0 0 0 0 0 0 0 0 0 0 0 $.$.$.$.$.$.$.$.$.$.$.$.$.$.$.$.$.$.$.$.$.$.$.$.$.-.q q 0 0 0 0 $.$.$.0 0 0 $.0 q 3 0.                  ",
"                      , 8 0 0 $.X.X.X.$.$.0 $.0 0 0 0 0 $.$.$.$.$.$.$.$.$.$.$.$.$.$.$.$.$.$.$.0 0 0 0 0 $.$.$.$.0 0 0 0 0 0 0 0 0 0 0 0 0 0 0 0 0 0 0 0 0 0 0 0 0 0 0 0 0 0 0 0 0 0 0 0 - i.#X$X$X#X#X@X+X+X+X@X@X@X@X@X#X@X@X@X@X+X@XoX`.R.l.; 8 0 0 $.$.$.$.$.0 $.$.0 0 0 $.$.$.0 0 0 0 q q q 0 0 0 0 0 0 0 8 m Y.$X$X#X+XoXoXoXoXoXoXoXoXoXoX X X XoXoX X X X X X X[.~.R.x.; 8 0 0 0 0 0 w 0 0 0 0 0 0 0 0 0 0 0 0 0 0 $.$.$.$.$.$.$.$.$.$.$.$.$.$.$.$.$.$.$.$.$.$.$.$.$.0 0 0 0 0 0 0 $.$.$.$.$.$.0 0 r Q                   ",
"                    L < 8 0 0 $.$.$.$.$.$.$.$.0 0 0 0 0 $.$.$.$.$.$.$.$.$.$.0 0 $.$.$.$.$.$.0 0 0 0 0 0 $.$.$.$.0 0 w 0 0 0 0 0 0 0 0 0 0 0 0 0 0 0 0 0 $.q 0 0 0 0 0 0 0 0 0 0 $.0 0 0 - i.#X$X$X$X@X#X+X+X+X@X@X@X+X+X@X@X@X@X@X@X@XoX`.R.l.; 8 0 0 $.$.$.$.0 0 0 0 0 0 $.$.$.$.0 0 0 0 q 0 0 0 0 0 0 0 $.0 8 b Y.$X$X#X+XoXoXoXoXoXoXoXoXoXoXoX XoXoXoXoXoXoX X X{.[.~.R.x.: 8 0 0 0 0 0 0 $.0 $.$.0 0 0 0 0 0 0 0 0 0 $.$.$.$.$.$.$.$.$.$.$.$.$.$.$.$.$.$.$.$.$.$.$.$.$.0 0 0 0 0 0 0 $.$.$.$.$.$.0 0 4 n                   ",
"                    z * 8 0 0 $.$.$.$.$.$.$.$.$.0 0 0 $.$.$.$.$.$.$.$.$.$.$.0 0 $.$.$.$.0 $.0 0 0 0 0 0 $.$.$.$.0 0 w w 0 0 w 0 0 0 0 0 0 0 0 0 0 0 w w q q 0 w 0 0 0 q 0 0 0 0 0 6 0 0 - i.#X$X$X$X@X#X#X@X@X@X@X@X+X+X@X@X@X@X@X@X@XoX`.R.l.; 8 0 $.$.0 0 0 0 0 0 0 0 0 $.$.$.$.0 0 0 0 0 0 0 0 0 0 0 0 0 0 9 b Y.$X$X#X+XoXoXoXoXoXoXoXoXoXoXoXoXoXoXoXoX X X X X X[.~.R.z.: 8 0 0 0 0 0 0 0 0 0 $.0 0 0 0 0 0 0 0 0 0 0 0 $.$.$.$.$.$.$.$.$.$.$.$.$.$.$.$.$.$.:.:.$.$.$.0 0 0 0 0 0 0 $.$.$.$.$.$.0 0 8 < 4.                ",
"                    , * 8 0 0 $.$.$.$.$.$.0 0 $.0 0 0 $.$.$.$.$.$.$.$.$.0 $.$.0 $.$.0 0 0 0 0 0 0 0 0 0 $.$.$.$.w 0 0 w w 0 0 0 0 0 0 0 0 0 0 0 0 0 w w q q q w 0 0 q 0 0 0 0 0 $.6 0 0 - i.#X$X$X$X@X#X#X+X@X@X@X@X+X+X@X@X@X@X@X@X@XoX`.R.l.; 8 0 0 $.0 0 0 0 0 0 w w $.$.0 0 0 0 0 0 0 0 0 0 0 0 0 0 0 0 8 9 b Y.$X$X#XoX+XoXoXoX X XoXoXoXoX X X X XoX X X X X X X[.~.R.l.: 8 0 8 0 0 0 0 0 0 $.0 0 0 0 0 0 0 0 0 0 0 0 0 $.$.$.$.$.$.$.$.$.$.$.$.$.$.$.$.$.$.$.:.w 0 0 0 $.0 0 0 0 0 0 0 $.$.$.$.0 0 8 * G                 ",
"                  { ; 5 8 0 0 0 $.$.$.$.$.0 0 0 0 0 0 0 $.$.$.$.$.$.$.$.$.$.0 $.$.0 0 0 0 0 0 0 0 0 0 0 $.$.$.$.w w 0 w 0 0 0 0 0 0 0 0 0 0 0 0 0 w q q :.-.q 0 w q q q 0 q 0 0 $.0 6 0 * i.#X$X$X$X+X+X@X@X@X@X+X+X+X+X@X@X@X@X@X@X@X X'.R.z.> 8 0 0 0 0 0 0 0 0 0 0 0 0 0 $.0 0 0 0 0 0 0 0 0 w 0 0 0 8 8 8 5 c Y.$X$X@XoXoXoXoX X X X X X X X X X X X X X X{. X X X X~.Y.l.; 8 0 0 0 0 0 q q 0 0 0 0 0 0 0 0 0 0 0 0 $.0 0 $.$.$.$.$.$.$.$.$.$.0 $.$.$.$.$.$.w 0 0 0 0 0 $.$.q q 0 0 0 w w $.$.$.$.0 8 9 * n                 ",
"                  S % 4 8 q q q $.$.$.$.$.$.$.0 0 0 0 0 $.$.$.$.$.$.$.$.$.$.$.$.0 0 0 0 0 0 0 0 0 0 0 0 $.$.$.$.0 0 0 w 0 0 0 0 0 0 0 0 0 q 0 0 w q q q :.-.q 0 w q q q q -.$.0 $.0 0 0 * r.#X$X$X$X+X+X@X@X+X+X+X+X+X+X@X@X@X@X@X@X@X X'.R.z.> 8 0 q 0 0 0 0 0 0 0 0 0 $.$.$.0 0 0 0 0 0 0 0 0 $.$.0 0 8 8 8 9 b Y.$X#X X[.[.[.[.[.[.[.[.[.[.[.[.[.[.[.[.[.[.[.[.[.[.[.~.R.l.; 8 0 0 0 0 0 0 0 0 0 0 0 0 0 0 0 0 0 0 0 $.$.$.0 $.$.$.0 $.$.$.$.$.0 $.$.0 $.$.0 0 0 0 0 0 0 $.0 0 q q 0 0 w 0 $.$.$.$.0 8 4 4 < 2.              ",
"                  f 5 7 0 q q q $.$.$.$.0 $.$.0 0 0 0 0 $.$.$.$.$.$.$.$.$.$.$.0 0 0 0 0 0 0 0 0 0 0 0 0 0 0 0 0 0 0 w 0 0 0 0 0 0 0 0 0 0 q 0 q q 0 q q ;.-.$.0 0 0 q q q -.$.0 0 0 0 0 * r.#X$X$X#X+X+X+X+X+X@X+X+X@X@X@X@X@X@X@X@X@X X'.R.z.> 8 0 q 0 0 0 0 0 0 0 0 0 $.$.$.0 0 0 0 0 0 0 0 0 0 $.0 0 8 8 8 5 b U.+X'.~.~.~.~.R.R.R.R.R.R.R.!.R.R.R.R.R.R.R.R.R.R.R.R.R.P.j.; 4 8 0 q 0 0 0 0 0 0 0 0 0 0 0 0 0 0 0 0 $.$.$.0 $.$.$.0 $.$.$.$.0 $.$.$.0 0 0 0 0 0 0 0 0 0 0 0 q q q 0 0 w w :.$.$.0 $.0 7 7 r Q               ",
"                ' ; 4 8 0 0 q q $.$.$.$.0 0 0 0 0 0 0 0 $.$.$.$.$.$.$.$.$.$.$.0 0 0 0 0 0 0 0 0 0 0 0 0 0 0 0 0 0 0 0 0 0 0 0 0 0 0 0 0 0 0 w 0 0 q 0 0 $.$.0 0 0 0 0 0 -.-.-.0 0 0 $.0 * i.#X$X$X#X@X+X+X+X+X@X@X@X+X@X@X@X@X@X@X@X@X X'.!.b.2 8 8 0 0 0 0 0 0 0 0 0 0 $.$.$.0 0 0 0 0 0 0 0 0 $.$.0 0 8 0 8 4 c I.}.R.T.P.P.P.L.L.L.L.L.L.L.L.L.L.L.K.L.K.K.K.K.K.K.K.L.Y.b.; 8 8 0 q q 0 0 0 0 0 0 0 0 0 0 0 0 0 0 0 $.0 0 $.$.$.0 0 0 $.$.$.0 0 $.0 0 0 0 0 0 0 0 0 0 0 0 0 q q q q 0 0 w 0 $.$.$.0 0 6 0 9 M               ",
"                K - 8 0 0 0 $.-.$.$.$.$.0 0 0 0 0 0 0 0 $.$.$.$.$.$.$.$.$.$.$.$.0 0 0 0 0 0 0 0 0 0 0 0 0 w 0 0 w 0 0 0 0 0 0 0 0 0 0 0 0 w w w w q w w 0 0 0 0 $.$.0 q q q q 0 0 0 0 0 * i.#X$X$X#X@X+X+X+X+X+X@X@X@X+X+X+X+X+X+X@X@XoX`.!.b.; 8 0 q q 0 0 0 0 0 0 0 0 0 0 0 0 $.$.$.$.0 q 0 q $.0 0 8 8 0 8 8 u v.Z.Z.M.M.M.n.n.n.b.z.b.z.b.n.n.n.b.b.b.b.b.b.b.b.b.b.n.N.p.< 8 0 0 q q q 0 0 0 0 0 w w 0 w 0 0 0 0 0 0 0 0 0 $.0 0 0 0 $.$.$.0 0 0 0 0 0 0 0 0 0 0 0 0 0 0 0 q q q q q 0 0 -.$.$.0 0 $.0 0 8 3               ",
"                m 9 8 0 0 $.$.$.$.$.$.0 0 0 0 0 $.0 0 0 $.$.$.$.$.$.$.$.$.$.0 $.0 0 0 0 0 0 0 0 0 0 0 0 0 0 0 0 0 0 0 0 0 0 0 0 0 0 0 0 0 w w 0 0 0 0 0 0 q 0 0 0 $.-.-.q q q q 0 0 0 0 * r.#X$X$X@X+X@X+X@X@X@X@X@X@X+X+X+X+X@X+X@X@XoX`.E.b.; 8 0 q q 0 0 0 0 0 0 0 0 0 0 0 0 $.$.$.$.0 0 0 0 $.0 0 0 0 0 0 8 9 2 2 2 2 , 3 3 3 3 2 2 2 2 2 2 2 2 2 2 3 3 3 2 2 2 2 2 > 3 y 9 0 0 0 q q q q 0 0 0 0 0 0 0 w 0 0 0 0 0 0 0 0 0 $.$.0 0 0 0 0 0 0 0 0 0 0 0 0 0 0 0 0 0 0 0 0 q q q q q q q -.-.$.$.0 0 $.$.$.0 < 2.            ",
"                h 8 8 0 0 $.$.$.$.$.0 0 0 0 0 0 0 0 0 0 0 $.$.$.$.$.$.$.$.$.$.$.0 0 0 0 0 0 0 0 0 0 0 0 w 0 0 0 0 0 0 0 0 0 0 0 0 0 0 0 0 0 w q 0 w 0 0 0 0 0 0 0 q -.-.q q q 0 $.0 O.0 * i.#X$X$XOX+X@X+X+X@X+X@X+X@X@X+X+X@X+X+X+X@XoX`.R.b.; 8 0 0 q 0 0 0 0 0 0 0 0 0 0 0 0 0 0 0 0 0 0 0 0 0 0 0 $.0 0 0 0 8 8 4 8 9 q q 8 q q q q 8 8 8 8 8 8 q q 8 8 8 8 8 8 8 8 8 8 8 8 0 0 q q q q q 0 0 0 0 0 0 0 q 0 0 0 0 0 0 0 0 0 $.$.0 0 0 0 0 0 0 0 0 0 0 0 0 0 0 0 0 0 0 0 0 0 -.;.q :.w 0 q q $.$.$.0 $.-.-.6 9 W             ",
"              2.3 8 0 0 0 $.$.$.$.$.$.0 0 0 0 0 $.0 0 0 0 $.$.$.$.$.$.$.$.$.0 $.0 0 0 0 0 0 0 0 0 0 0 0 0 0 0 0 0 0 0 0 0 0 0 0 0 0 0 0 0 w 0 0 0 0 0 0 0 0 0 0 0 0 -.-.-.$.0 0 $.0 O.0 * i.#X$X$X#X@X@X+X+X+X+X@X@X@X@X+X+X+X+X+X+X@XoX`.!.v.; 8 0 0 q 0 0 0 0 0 0 0 0 $.0 0 $.$.0 0 0 0 0 0 0 0 0 $.$.$.0 $.0 0 8 8 8 8 8 0 0 w w w 0 0 8 8 8 8 8 8 8 0 0 w 0 0 0 0 0 0 0 q q q q -.q q q 0 0 0 0 0 0 0 0 0 0 0 0 0 0 0 0 0 0 0 $.0 0 0 0 0 0 0 0 0 0 0 0 0 0 0 0 0 0 0 0 0 0 0 -.:.:.0 0 q 0 $.$.0 0 0 $.q 0 5 M             ",
"              K - 8 0 0 $.$.$.$.$.$.$.$.$.$.$.$.$.$.0 $.0 0 0 $.$.$.$.$.$.$.$.$.0 0 0 0 0 0 0 0 0 0 0 0 0 0 0 0 0 0 0 0 0 0 0 0 0 0 0 0 0 0 0 0 0 0 0 0 0 0 0 0 0 0 0 0 0 0 0 0 $.O.O.0 * i.#X$X$X@X+X+X+X+X+X+X@X@X@X+X+X+X+X+X+X+X@XoX`.!.v.; 8 0 $.q 0 w 0 0 0 0 0 0 $.$.-.$.$.$.0 0 0 0 0 0 0 $.$.$.$.$.$.0 0 8 8 8 8 8 0 0 w 0 0 0 0 0 0 8 8 8 8 8 0 0 0 0 0 0 0 0 0 0 0 q q q q q q 0 0 0 0 0 0 0 0 0 0 0 0 0 0 0 0 0 0 0 0 0 0 0 0 0 0 0 0 0 0 0 0 0 0 0 0 0 0 0 0 0 0 q $.$.0 0 0 0 0 0 $.$.0 0 0 0 $.6 4 3             ",
"              z * 0 $.q $.$.$.$.$.$.$.$.$.$.$.$.$.$.$.$.0 0 0 0 $.$.$.0 $.$.0 0 0 0 0 0 0 0 0 0 0 0 0 0 0 0 0 0 0 0 0 0 0 0 0 0 0 q 0 0 0 0 0 0 0 0 0 0 0 0 0 0 0 0 0 0 0 0 0 0 $.O.0 0 * r.#X$X$X@X+X+X+X+X@X@X@X@X@X+X+X+X+X+XoXoX+XoX`.!.z.; 8 q q 0 0 0 0 0 0 0 0 0 $.$.$.$.$.$.0 0 8 8 0 0 0 $.$.$.0 0 0 0 0 8 q 0 8 6 0 0 $.$.0 0 q q 0 0 8 0 0 0 0 0 0 0 0 0 0 0 0 0 0 q q q q q q 0 0 0 0 0 0 0 0 0 0 0 0 0 0 0 0 0 0 0 0 0 0 0 0 0 0 0 0 0 0 0 0 0 0 0 0 0 0 0 0 0 0 q 0 $.$.$.$.0 0 0 0 $.0 0 0 0 0 6 7 < {           ",
"              , 4 8 0 q $.$.$.$.$.$.$.$.$.$.$.$.$.$.$.$.0 $.0 0 $.$.$.$.$.0 0 0 0 0 0 0 0 0 0 0 0 0 0 0 0 0 0 0 0 0 0 0 0 0 0 0 q 0 0 0 0 0 0 0 0 0 0 0 0 0 0 0 0 0 0 0 0 0 0 0 $.O.0 6 * i.#X$X$X@X+X+X+X+X@X@X@X@X+X@XoXoX@X@XoXoXoXoX'.!.l.; 8 q 0 0 0 0 0 0 0 0 0 0 $.$.$.$.0 -.6 7 8 7 0 8 0 0 0 0 0 0 0 0 0 q q 7 8 8 0 0 $.0 0 0 q q 0 0 0 0 0 0 0 0 0 0 $.$.0 0 0 0 0 0 q 0 q q q 0 0 0 0 0 0 0 0 0 0 0 0 0 0 0 0 0 0 0 0 0 0 0 0 0 0 0 0 0 0 0 0 0 0 0 0 0 0 0 0 0 q q 0 0 -.$.$.$.0 0 0 0 $.0 0 0 0 6 8 9 E           ",
"              ; 8 0 0 0 $.$.$.$.$.$.$.$.$.$.$.0 0 $.0 $.$.$.0 $.$.$.0 0 0 0 0 0 0 0 0 0 0 0 0 0 0 0 0 0 0 0 0 0 0 0 0 0 0 0 0 0 q q q 0 0 0 0 0 0 0 0 0 0 0 0 0 0 0 0 0 0 0 0 0 $.O.O.0 * w.#X$X$X+X+X+X+X+X@X@X+X@X+X+XoXoXoXoXoXoXoXoX'.!.l.; 8 0 0 0 0 0 0 0 0 0 0 0 $.$.0 0 0 0 8 8 8 7 7 7 8 0 8 8 8 8 8 8 8 q 8 8 8 8 0 8 8 8 8 0 0 $.0 0 0 0 0 0 0 0 0 0 $.$.$.0 0 0 0 0 0 q q q 0 0 0 0 0 0 0 0 0 0 0 0 0 0 0 0 0 0 0 0 0 0 0 0 0 0 0 0 0 0 0 0 0 0 0 0 0 0 0 $.0 0 q q 0 q $.$.$.$.0 0 0 $.$.0 0 0 0 6 8 9 M           ",
"            ' = 4 7 0 0 $.$.$.$.$.$.$.$.$.$.$.$.0 $.$.$.$.$.$.$.0 0 0 0 0 0 $.$.0 0 0 0 0 0 0 0 0 0 0 0 0 0 0 0 0 0 0 0 0 0 q 0 0 0 $.0 0 0 0 0 0 0 0 0 0 0 0 0 0 0 0 0 q q q $.$.$.$.0 * r.#X$X$X@X+X+X+X+X+X+X@X+X+XoXoXoXoX@X+X+X@X X`.R.x.; 8 0 0 q 0 0 0 0 0 0 0 0 0 0 8 8 4 5 * * * * * * 5 * * * * * * * 5 - 5 5 * * * * * * * 4 0 0 0 $.0 0 0 0 0 0 0 0 0 0 0 0 0 0 0 q 0 0 0 0 0 0 0 0 0 0 0 0 0 0 0 0 0 0 0 0 0 0 0 0 0 0 0 0 $.$.$.$.$.$.$.$.0 0 0 0 0 0 0 0 $.$.$.$.$.$.$.$.$.$.$.$.$.$.$.0 0 0 $.6 8 4 g           ",
"            D % 4 8 0 0 $.$.$.$.$.$.$.$.$.:.:.$.$.$.$.$.$.$.$.$.0 0 0 0 0 0 $.$.0 0 0 0 0 0 0 0 0 0 0 0 0 0 0 0 0 0 0 0 0 q q -.q q q 0 0 0 -.0 0 0 0 0 0 0 0 0 0 0 q q q 0 q 0 $.$.$.0 * w.#X$X$X@X+X+X@X@X+X+X+X+XoXoXoXoX+X@X@X+X@X X`.R.x.> 8 0 q q 0 0 0 0 0 0 0 0 0 8 8 8 < ~ } } } { } } { { { { { [ { } } } } | } } { [ [ Q Q P 8 0 0 $.0 0 0 0 0 0 0 0 0 0 q 0 0 0 0 0 0 0 0 0 0 0 0 0 0 0 0 0 0 0 0 0 0 0 0 0 0 0 0 0 0 0 0 0 $.$.$.$.$.-.$.$.0 0 0 0 0 0 0 0 $.$.$.-.$.$.$.$.$.$.$.$.$.$.$.0 0 0 0 0 q 8 1           ",
"            z * 8 8 0 0 $.$.$.$.$.$.$.$.$.$.$.$.0 $.$.$.$.$.$.$.0 0 0 0 $.$.0 0 0 0 0 0 0 0 0 0 0 0 0 0 0 0 0 0 0 0 0 0 0 q q 0 q q q 0 q q -.0 0 0 0 0 0 0 0 0 0 0 q q q 0 -.0 O.$.O.0 * w.#X$X$X+X+X@X@X@X+X+X+X+X+X+X+X+X@X+X@X+X+X X`.R.n.2 8 0 q q 0 0 0 0 0 0 0 0 q 8 8 * N Y..XXX X{. X X{.{.{.{.{.{.[.}.{. X XXX.X X{.[.}./.W.t.9 0 0 0 0 0 0 w 0 0 0 0 0 0 q 0 0 0 0 0 0 0 0 0 0 q 0 0 0 0 0 0 0 0 0 0 0 0 0 0 0 0 0 0 0 0 0 $.$.$.$.$.$.$.$.$.0 0 0 0 0 0 0 $.$.$.-.-.$.$.$.$.$.$.$.$.$.$.$.0 0 0 0 0 q q < {         ",
"            k * 8 0 0 0 $.$.$.$.$.$.$.$.$.$.$.$.$.$.$.$.$.$.$.$.$.0 0 0 $.$.$.0 0 0 0 0 0 w 0 0 0 0 0 0 0 0 0 0 0 0 0 0 0 q q 0 q q q -.q q q 0 0 0 0 0 0 0 0 0 0 0 0 0 0 0 q $.$.O.O.0 * r.#X$X$X+X+X@X+X+X+X+X+X+X+X+X+XoX+X+X@X@X+X X`.R.n.2 8 0 q 7 0 8 8 0 0 0 0 0 q q q * H /.$X$X$X$X$X$X$X$X$X$X$X$X$X$X$X$X$X$X$X$X$X$X$X XR.2.- q 0 0 0 0 0 $.0 0 0 0 0 0 0 0 0 0 0 0 0 0 0 0 0 0 0 0 0 0 0 0 0 0 0 0 0 0 0 0 0 0 0 0 0 $.$.$.$.$.$.$.$.$.$.$.0 0 0 0 0 0 0 $.$.$.$.$.$.$.$.$.-.-.$.$.$.$.0 0 0 0 0 0 -.0 r Q         ",
"            f 5 8 0 $.0 $.$.$.$.$.$.$.$.$.$.$.:.:.$.:.:.$.$.$.$.$.$.0 0 $.$.0 w 0 0 0 0 0 0 0 0 0 0 0 0 0 0 0 0 0 0 0 0 w w 0 0 q q q q 0 0 0 0 0 0 0 0 0 0 0 0 0 0 0 0 0 0 0 0 6 6 O.0 * r.#X$X$X+X+X@X+X+X+X+X+X+X+X+X+X+X+X+X@X@X+X{.`.R.b.> 8 q q 6 0 q q 0 0 0 0 0 0 0 q - H /.$X$X$X$X$X$X$X$X$X$X$X$X$X$X$X$X$X$X$X$X$X$X+X~.K.>.- 0 q q 0 0 $.$.$.-.-.-.0 0 0 0 0 0 0 0 0 0 0 0 0 0 0 0 0 0 0 0 0 0 0 0 0 0 0 0 0 0 0 0 $.$.$.$.$.$.$.$.$.0 $.$.0 0 0 0 $.$.$.$.$.$.$.$.$.$.$.$.$.$.$.$.0 q 0 $.$.$.0 0 -.q 9 A         ",
"            > 5 8 q $.$.0 $.$.$.$.$.$.$.$.$.:.:.:.:.:.:.$.$.$.$.$.$.$.0 $.$.0 0 0 0 0 0 0 0 0 0 0 0 0 0 0 0 0 0 0 0 0 0 0 w 0 0 q q q q 0 0 0 0 0 0 0 0 0 w 0 8 q 0 0 0 0 0 0 0 0 0 0 0 - r.#X$X$X+X+X+X+X@X+X+X+X+X+X+X+X+X+X+X@X@XoX{.`.R.b.> 8 0 q 0 0 0 q 0 0 0 0 q 0 0 q - J /.$X$X$X@X+X+X+X+X+X+X+X+X+X+X X+XoXoXoXoXoXoX[.~.K.} * 0 0 0 0 $.$.$.$.-.-.-.0 0 0 0 0 0 0 0 0 0 0 0 0 0 0 0 0 0 0 0 0 0 0 0 0 0 0 0 0 0 0 0 $.$.$.$.$.$.$.$.$.0 $.$.0 0 0 0 $.$.0 $.:.:.:.$.$.$.$.$.$.$.$.$.0 0 0 0 $.$.0 0 q -.9 M         ",
"          { ; 8 0 q 0 0 $.$.$.$.$.$.$.$.$.$.$.$.$.:.:.$.$.$.$.$.$.$.$.$.$.0 0 0 w w w 0 0 0 0 0 0 0 0 0 0 0 0 0 0 0 0 0 w 0 0 0 -.-.q q 0 0 0 0 0 0 0 0 w w 8 8 w 0 0 0 0 0 0 0 0 6 0 0 - i.#X$X$X+X@X@X@X+X+X+X+X+X+X@X+X+X+X@XoX+X+X{.`.R.b.> 8 0 6 0 0 0 0 0 0 8 0 0 0 0 0 9 L (.$X$X@XoX X X X XoX X X X X X X X X X X X{. X[.~.K.} * 8 0 0 0 $.$.$.$.;.$.$.0 0 0 0 0 0 w 0 w w 0 w 0 0 0 0 0 0 0 0 0 0 0 0 0 0 0 w w w 0 0 $.$.$.$.$.$.$.$.$.0 0 0 0 0 0 $.$.$.$.$.$.:.$.$.$.$.$.$.:.$.$.$.0 0 q q $.$.$.0 q q q n         ",
"          _ ; 8 0 -.$.$.$.$.$.$.$.$.$.$.$.$.$.$.$.$.$.$.$.$.$.$.$.$.$.$.$.0 0 0 0 0 0 0 0 0 0 0 0 0 0 0 0 0 0 0 0 0 0 0 0 0 0 0 $.-.q q 0 0 0 0 0 0 0 0 0 0 0 0 0 0 0 0 0 0 0 0 0 6 6 0 * r.#X$X$X+X@X@X@X+X+X+X+X+X@X@X+X+XoX+X+X+X+X{.`.R.z.; 7 0 0 0 0 0 0 0 8 8 8 8 8 0 0 9 W [.$X$X@X X X X X XoXoX X X X X X X X X{. X{. X[.~.L.2.* 8 0 0 0 0 $.$.$.;.$.$.0 0 0 $.0 0 0 0 0 0 0 0 0 0 0 0 0 0 0 0 $.-.$.$.0 0 0 0 0 w 0 0 $.$.$.0 $.$.$.$.0 0 0 0 0 0 $.$.$.$.$.$.:.:.$.$.$.:.$.$.$.$.$.$.0 0 q q -.$.$.0 q q q 3         ",
"          D - 8 0 -.$.$.$.$.$.$.$.$.$.$.$.$.$.$.$.$.$.$.$.:.$.$.$.$.$.$.$.$.0 0 w w 0 q 0 0 0 0 0 0 0 q q 0 0 0 0 0 0 0 0 0 0 0 0 0 0 0 0 0 0 0 0 0 0 0 0 0 0 0 0 0 0 0 0 0 0 0 0 7 7 7 * r.#X$X$X@X+X+X@X@X@X+X+X+X@X@X+X+X+X+X+X+X+X X`.!.z.; 4 8 0 0 0 0 q q 6 6 8 8 8 q 8 9 Q [.$X$X+X X X X X XoXoXoXoX X X X X X X X{. X X[.~.L.4.* 0 0 0 0 $.0 0 $.:.$.$.$.$.$.$.$.$.$.$.0 0 w 0 0 0 0 0 0 0 0 0 0 -.-.0 0 w w w w 0 0 0 0 0 0 0 $.0 0 $.0 $.0 0 0 $.$.$.$.$.$.$.:.:.$.:.$.$.$.$.$.$.$.$.0 0 q q -.-.-.q -.q 0 u         ",
"          S - 8 q -.$.$.$.$.$.$.$.$.$.$.$.$.$.O.$.$.$.$.$.$.$.$.$.$.$.$.$.$.$.0 0 0 0 q 0 0 0 0 0 0 0 q q 0 0 0 0 0 0 0 0 0 0 0 0 0 0 0 0 0 0 q 0 0 0 0 8 8 0 0 0 0 0 0 0 0 0 0 0 7 7 4 * w.#X$X$X+X+X+X@X@X@X@X+X+X+X@X+X+X+X+X+X@X@X X'.!.l.; 4 7 0 0 0 0 q 0 0 6 0 8 8 8 8 9 L }.$X$X+X X X X X XoXoXoXoX X X X X X{. X X[.{.[.~.L.4.- 0 q 0 0 0 0 0 $.;.$.$.$.$.$.$.$.:.:.$.0 0 0 0 0 0 0 0 0 0 0 0 0 $.-.$.0 0 0 0 0 0 0 0 0 0 0 0 0 $.$.$.$.$.0 $.$.$.$.$.$.$.$.$.:.:.:.:.:.$.$.$.$.$.$.-.$.q q q q -.-.0 -.q 0 y {       ",
"          b - 8 0 q $.$.$.$.$.$.$.$.$.$.$.$.$.$.$.$.$.$.$.$.$.$.$.$.$.$.$.$.$.0 :.q q 0 0 0 0 0 0 0 0 0 0 0 0 q 0 0 0 0 0 0 0 0 0 0 0 0 0 q q q 0 0 0 0 8 8 8 8 0 0 0 0 0 0 0 0 0 7 4 4 * w.#X$X$X@X+X+X@X+X+X+X+X+X@X@X+X@X+X+X@X@X+X X'.!.l.; 4 7 7 8 0 q q q 0 0 8 q 4 8 9 * L }.$X$X@X X X X X XoX X X X X X X X{.{.{. X X X[.~.L.4.9 0 q q 0 0 0 0 $.$.$.$.$.$.$.$.$.$.$.$.w 0 0 0 0 0 0 0 0 0 0 0 0 $.$.$.0 w 0 0 0 0 0 0 0 0 0 0 0 $.$.$.$.$.$.$.$.$.$.$.$.$.$.$.$.$.$.$.$.$.$.$.$.$.$.-.q -.q q -.-.-.0 0 -.q r W       ",
"          m 9 8 0 -.$.$.$.$.$.$.$.$.$.$.$.$.$.$.$.$.$.$.$.$.$.$.$.$.$.$.$.$.$.0 0 0 0 0 0 0 0 0 0 0 0 0 0 0 0 0 0 0 0 0 0 0 0 0 0 0 q q 0 q q q 0 0 0 8 4 5 5 5 4 4 8 8 8 8 4 4 4 5 5 * % q.#X$X$X@X+X+X+X+X+X+X+X+X@X+X+X+X+X@X@X@X+X{.'.!.x.@ * 4 4 4 4 4 4 5 4 8 5 9 * * * % H [.$X$X@XoX X X X X X X{.{. X X X X X X X X{.{.'.~.L.4.9 0 0 q 0 0 0 $.$.$.$.$.$.$.$.$.$.$.$.$.0 0 0 0 0 0 0 0 0 0 0 0 $.$.$.$.0 0 0 0 0 0 0 0 0 0 0 0 0 $.$.$.$.$.$.$.$.$.$.$.$.$.$.$.$.$.$.$.$.$.$.$.$.$.$.$.-.-.q q -.-.q 0 -.-.$.r |       ",
"          c 9 8 0 -.-.$.0 $.$.$.$.$.$.$.$.$.$.$.$.$.$.$.$.$.$.$.$.$.$.$.0 0 0 0 0 0 0 0 0 0 0 0 0 0 0 0 0 0 0 0 0 0 0 0 0 0 0 8 0 q q q q q -.-.0 0 9 1 g f f f f f g n k k f f k f d d i s.XX$X$X+X@X+X+X+X+X+X+X+X+X+X@X+X@X+X@X@X+X X'.~.B.p l k n n f f f f k M M b f f d $ / [.$X$X@XoX X X X X{.{.{.{.{. X X X X X{.[.[.[.[.~.K.4.9 0 q q $.$.$.$.$.$.$.$.$.:.:.:.$.$.$.$.$.$.0 0 0 0 0 0 0 0 0 0 0 0 0 0 0 0 0 0 0 0 0 0 0 0 0 0 $.$.$.$.$.$.:.$.$.$.$.$.$.$.$.$.$.$.$.$.:.:.:.:.:.:.:.$.$.-.q -.$.$.0 q -.-.$.q Y       ",
"          , 9 q 0 -.$.$.0 0 $.$.$.$.$.:.$.$.$.$.$.$.$.$.$.$.$.$.$.$.$.$.0 0 0 0 0 0 0 0 0 0 0 0 0 0 0 0 0 0 0 0 0 0 0 0 0 0 0 0 q q q q q q q q 0 q - q.I.J.J.J.J.K.I.K.K.K.K.K.K.K.K.K.K.!.$X$X$X+X+X+X+X+X+X+X+X+X@X@X+X@X+X+XoXoXoX{.'.`.R.K.L.U.U.U.K.K.K.K.L.P.P.P.L.K.K.J.P.+X$X$X@XoX X X X{.{.{.{.{.{.{. X X X X X X X[.[.~.K.4.9 0 q q $.$.$.$.$.$.:.:.$.:.:.:.$.$.$.$.-.-.q $.0 0 0 0 0 0 0 0 0 0 w 0 0 0 0 0 0 0 0 0 0 0 0 0 $.$.$.$.:.:.:.:.$.$.$.$.$.$.$.$.:.$.$.$.:.:.:.:.:.:.:.$.$.-.q -.0 $.-.q -.-.$.q I       ",
"          > 9 q 0 -.-.$.0 0 $.$.$.$.$.$.$.$.$.$.$.0 $.$.$.$.$.$.$.$.$.$.0 0 0 0 0 0 0 0 0 0 $.0 0 0 0 0 0 0 0 0 0 0 0 0 0 0 0 0 q q q q q q q q q 0 - g.#X$X$X$X$X$X$X$X$X$X$X$X$X$X$X$X$X$X$X$X$X+X+X+X+X+X+XoXoXoX+X+X+X+X+X+XoXoX X{.[.{.+X$X$X$X$X$X$X$X$X$X$X$X$X$X$X$X$X$X$X$X$X$X+X X X X X{.{.{.{.{.{. X X X X X X X X{.[.~.K.1.9 q q q 0 $.$.$.:.:.:.:.:.:.:.$.$.$.$.$.$.$.$.-.q q 0 0 0 0 0 0 0 0 0 0 0 0 0 0 0 0 0 0 0 0 0 $.$.$.$.$.:.:.:.:.$.$.$.$.$.$.-.$.:.:.$.$.:.:.:.:.:.:.:.$.q q q q -.$.q $.-.-.-.q U       ",
"          > 9 q 0 -.$.$.0 0 $.$.$.$.$.$.$.$.$.$.$.0 $.$.$.$.$.$.$.$.$.$.0 0 0 0 0 0 0 0 0 0 0 0 0 0 0 0 0 0 0 0 0 0 0 0 0 0 0 0 q q q q q q q q 0 0 % i.#X$X$X$X$X$X$X$X$X$X$X$X$X$X$X$X$X$X$X$X$X+X@X@X+X+X+X+X+XoX+X+X+X+X+XoX XoX X XoX@X$X$X$X$X$X$X$X$X$X$X$X$X$X$X$X$X$X$X$X$X$X$XoX X X X X{.{.{.{.{.{. X{.{. X X X X{.{.[.~.K.4.- q q q $.$.$.$.$.:.:.:.:.:.:.:.$.$.$.0 $.$.-.-.-.-.0 0 0 0 0 0 0 0 0 0 0 0 0 0 0 0 0 0 0 $.$.$.$.$.$.$.:.:.$.$.$.$.$.$.$.$.$.$.:.:.:.:.:.:.:.$.$.:.:.$.q q q q $.0 0 0 -.-.$.8 U       ",
"        _ ; 9 8 q -.0 0 0 0 $.$.$.$.$.$.$.$.$.$.$.$.:.:.$.$.$.$.$.$.$.0 0 0 0 0 0 0 0 0 0 0 0 0 0 w 0 0 0 0 0 0 0 q 0 0 0 q 0 0 q 0 q q -.q -.q q 0 - r.#X$X$X$X$X#X#X#X#X#X@X$X$X$X$X$X$X#X#X#X+X+XoXoX+X@X@X@X+XoXoX+X+X+X+XoXoXoXoXoXoX@X@X@X@X@X@X@X@X@X@X@X@X@X@X@X@X@X@X@X@X@XoXoX X X X X X X{.{.{.{.{. X X X X X X X X{.[.~.K.2.- q q q $.$.$.$.$.$.$.$.:.:.:.:.$.-.-.q 0 0 -.-.-.$.$.0 0 0 0 0 0 0 0 0 0 0 0 0 0 0 0 0 $.$.$.$.$.$.$.$.$.:.:.$.$.$.$.$.$.$.$.$.:.:.$.:.:.:.:.:.$.$.$.$.-.q -.q 0 0 0 0 -.-.$.0 P       ",
"          ; 9 8 q -.0 0 0 0 0 $.$.$.$.$.$.$.$.$.:.:.:.:.$.$.$.$.:.:.$.$.0 0 0 0 0 0 0 0 0 0 0 0 0 0 0 0 0 0 0 0 0 q 0 0 0 0 q 0 q q q q -.-.-.q q q < r.#X$X$X@X+X+X+X+X+X+XoXoX+X+X@X@X+X+X+X+X+X@X+X+XoX+X+X+X+X+XXX XXX XoXoXoXoXoXoXoXoXoXoXoXoXoXoXoXoXoX X{.{.{. X X X X X X X X{. X X X X X X X{.{.{.{.{. X X X X X X X{.[.~.K.2.* q q q 0 $.$.$.$.$.$.$.$.:.:.$.-.$.-.-.0 $.-.$.$.-.$.0 0 0 0 0 0 0 0 0 0 0 0 $.0 $.0 $.$.$.$.$.$.$.$.$.:.$.$.$.$.$.$.$.$.$.$.$.:.$.$.:.:.:.:.:.$.$.$.$.$.q -.-.0 0 0 $.-.-.$.0 3       ",
"        Z ; 9 8 0 $.0 0 q 0 0 $.$.$.$.$.$.$.$.$.$.$.$.:.$.$.$.$.$.$.$.$.$.0 0 0 0 0 0 0 0 0 0 0 0 0 0 0 0 0 0 0 q 0 0 0 0 0 0 0 0 0 q q -.-.-.q q q < r.#X$X$X@X+X+X+X+X+X+X@X@X@X@X+X@X+X+X@X@X+X+X+X+X+X@XoXoXoXoXoX X X XXXoXoXoXoXoXoXoXoXoXoXoX XoX X X X X X{. X X X X X XoXoX{.{. X X X X X X X X X X X X{. X{.{. X X X{.[.~.K.2.* q q q 0 $.$.$.$.$.$.:.$.$.$.$.$.$.-.$.-.$.-.-.-.-.-.$.0 0 0 0 0 0 0 0 0 0 0 $.0 $.0 $.0 $.$.$.$.$.$.$.$.$.$.$.$.$.$.$.$.$.$.$.:.:.$.:.:.:.:.:.$.$.$.$.$.$.-.-.0 0 0 0 $.-.$.0 j       ",
"        ( ; 9 8 0 $.0 0 0 0 0 $.$.$.$.$.$.$.$.$.$.$.$.$.$.$.$.$.$.$.$.$.0 0 0 0 0 0 0 0 0 0 0 0 0 0 0 0 0 0 0 0 q q q 0 0 0 0 0 0 0 q q q q q -.q q < r.#X$X$X@X+X#X#X+X@X@X@X@X@X+XoXoX@X+X+X+X+XoXoXoX+X+XoXoXoXoXoXoXXX XoXoXoXoXoXoX+XoXoXoXoXoXoXoX X X X X XoXoXoXoXoXoX X X X{.{. X X X X X X X X X X X X{.{.{.{.{. X X{.[.~.K.2.9 0 q q -.$.$.$.$.$.$.:.:.:.:.$.$.$.$.$.$.$.-.-.$.$.$.$.0 0 0 0 0 0 0 0 0 0 0 0 0 $.$.$.$.$.$.$.$.$.$.$.$.$.$.$.$.$.$.$.$.$.-.$.$.:.:.:.:.:.:.:.$.$.$.$.$.$.-.-.0 0 0 q $.-.$.6 P       ",
"        H < 9 q 0 -.0 0 q q q $.$.$.$.$.$.$.$.$.:.:.$.-.$.$.$.$.$.$.$.$.0 0 0 0 0 0 0 0 $.-.0 0 0 0 0 0 0 0 0 0 q q 0 0 0 0 0 0 -.-.-.-.q q q q q q - r.#X$X$X@X+X+X@X@X@X@X@X@X@XoXoXoX+X+X+XoXoXoXoXoX+XoXoXoXoXoXoXoXoXoXoXoXoXoXoXoXoXoXoXoXoXoXoXoX XoXoXoXoXoXoXoXoXoXoXoX{.{.{.{. X X X X{.{. X X X{.{.{. X{.[.[.{. X X{.[.~.L.2.9 0 0 q $.$.$.$.$.$.:.:.$.$.$.$.$.$.$.$.$.$.$.$.;.0 0 0 0 0 0 0 0 0 0 0 0 0 0 $.$.$.$.$.$.$.$.$.$.$.$.$.$.$.$.$.$.$.$.$.-.-.-.-.$.:.:.:.:.:.:.:.$.-.$.$.$.-.$.$.w w q q $.$.$.6 u       ",
"        x - 9 q 0 0 q q q q q $.$.$.$.$.:.:.$.$.$.:.$.:.$.$.$.$.$.$.$.$.0 0 0 0 0 0 0 0 q -.-.0 0 0 0 0 0 0 0 q q q 0 0 0 0 0 q -.-.q -.q q q q q 8 - r.#X$X$X@X+X@X@X@X+X@X@X+XoXoXoXoXoXoX+XoXoXoXoXoXoXoXoXoXoXoXoXoXoXoXoXoXoXoXoXoXoXoXoXoXoXoXoXoXoXoXoXoXoXoXoXoXoXoXoXoX{.{.{. X X X X X X{. X X X{.[.[.{.{.{.{.{.[.[.[.[.~.L.<.9 0 0 0 $.$.:.:.:.$.:.:.$.$.$.$.$.$.$.$.$.$.$.$.w q -.$.0 0 0 0 0 0 0 0 0 0 0 0 $.$.$.$.$.$.$.$.$.$.$.$.$.$.$.$.$.$.$.-.;.-.-.-.$.:.$.:.:.:.:.:.:.-.:.;.$.-.-.$.0 0 q q 0 $.-.0 u       ",
"        z - 9 q 0 0 0 0 q q q 0 $.$.$.$.$.:.:.$.$.:.:.:.$.:.$.$.$.$.$.$.0 0 0 0 0 w w 0 -.-.-.$.0 0 0 0 0 0 0 0 0 q 0 0 0 0 0 q q q q q q q q q q q - r.XX$X$X@XoX+X@X@X#X+XoXoXoXoXoXoXoXoXoXoXoXoXoXoXoXoXoXoXoXoXoXoXoXoXoXoXoXoXoX X X XoXoXoXoXoXoXoXoXoXoXoXoXoXoXoXoXoX{.{.{.{. X X X X X{.{. X X X X[.{. X X X{.{.{.[.{.[.~.U.2.9 0 0 $.$.:.:.:.:.:.:.:.$.$.$.$.$.$.$.$.$.$.$.$.w q -.$.$.$.0 0 0 0 0 0 0 0 0 0 $.$.$.$.$.$.$.$.$.$.$.$.$.$.$.$.$.$.$.-.-.-.-.-.$.:.$.:.:.:.:.:.$.:.:.:.$.-.$.$.0 0 q -.$.-.0 0 u       ",
"        z - 9 q 0 q $.0 -.q q 0 $.$.$.$.$.:.$.$.$.$.$.:.$.:.$.$.$.$.$.$.0 0 0 0 0 0 w 0 -.$.q 0 0 0 0 0 0 0 0 0 0 0 0 0 0 0 0 q q q q q q q q q q 0 - r.XX$X$X@XoXoX+X#X#X+XoXoXoXoXoXoXoXoXXXoXoXoXoXoXoXoXoXoXoXoXoXoXoXoXoXoXoXoX X XoXoXoXoXoXoXoXoXoXoXoXoX{.{. X{.{. XoX X{.{.{. X X X X X X X X X X X X{.{. X X{.{.{.{.{.'.~.L.2.9 0 $.$.$.:.:.:.:.:.:.$.$.$.$.$.0 $.$.$.$.$.$.$.$.w $.$.$.$.0 0 0 0 0 0 0 0 0 $.$.$.$.$.$.$.$.$.$.$.$.$.$.$.$.$.$.$.$.-.-.-.-.-.$.$.$.$.:.:.:.$.$.$.$.$.$.$.$.0 0 0 q -.0 0 0 0 u       ",
"        b - q q 0 0 0 0 0 0 0 0 0 $.$.0 :.:.$.0 $.0 $.$.$.$.0 $.$.$.$.$.$.$.$.$.:.0 w 0 $.0 0 0 0 0 0 0 0 0 q q 0 $.0 0 0 q q q q q q q q q q q q 0 - i.XX$X$X@XoX+X+X+X+X+XoX XXXoXoXoXoXoXoXoXoXoX+XoXoXoXoXoXoXoXoXoXoX+XoXoXoXoXoXoXoXoXoXoXoXoXoXoXoX X X X X X X{. XoXoX X X X X X X X X X X X{.{. X X X X{. X X{.{.{.{.[.'.~.L.2.9 0 0 $.$.$.$.$.$.-.$.$.$.$.$.$.$.$.$.$.$.$.:.$.$.-.-.-.$.$.$.0 0 0 0 q 0 $.$.$.:.$.:.:.$.$.$.$.$.$.$.$.$.$.$.$.;.q $.$.$.$.$.$.$.$.$.$.:.$.$.$.$.$.$.-.$.$.-.q 0 0 0 0 0 q 0 6 u       ",
"        m - q q 0 $.$.0 0 0 0 0 0 0 $.$.0 $.0 0 0 0 $.$.$.$.0 0 $.$.$.$.$.$.$.$.0 0 0 0 $.0 0 0 0 0 0 0 0 q q q 0 0 0 0 q q q q -.-.q q q q q q q 8 - r.XX$X$X+XoX+X+X+X+XXX XXXoXoXoXoXoXoXoXoXoXoXoXoXoXoXoXoXoXoXoXoXoXoXoXoXoXoXoXoXoXoXoX XoX X XoXoX X X X X X X{. XoX X X X X X X X X X X X X X{. X X{.{.{.{.{. X{.{.{.[.[.~.K.2.9 0 0 0 $.$.0 $.$.$.$.$.$.$.$.$.$.$.$.$.$.$.:.$.$.$.-.-.$.$.$.$.0 q -.w 0 0 $.$.$.$.:.:.$.$.$.$.$.$.$.:.-.$.-.-.q q :.;.$.$.-.$.$.$.$.$.$.$.$.$.$.$.:.$.$.$.q -.$.$.0 0 0 q 0 0 u       ",
"        m - q q 0 $.$.$.0 0 0 0 0 0 $.$.0 $.$.0 0 $.$.$.$.$.$.0 $.$.$.$.$.$.$.$.0 0 0 0 $.0 0 0 0 0 0 0 0 q q 0 0 0 0 q -.-.q q -.-.-.-.q q q q q q - r.XX$X$X+XXX+XoXoXoXoXXXXXoXoXoXoXoXoX+X+XoXoXoXoXoXoXoXoXoXoXoXoXoXoXoXoX X X XoXoXoX XoX X XoXoXoX X X X X X{. X X X X X X X X X X X X X X X{.{.{.{.{.{.[.{. X X{.{. X[.[.~.K.2.9 0 0 0 0 $.$.$.$.$.$.$.$.$.$.$.$.$.$.$.$.$.$.$.$.$.$.$.$.$.$.$.0 q q q 0 0 $.$.$.$.:.:.$.$.$.$.$.$.$.:.-.$.-.-.q q -.-.0 $.-.$.$.$.$.$.:.$.$.$.$.$.:.$.$.$.-.$.0 $.0 0 0 6 0 0 u       ",
"        B - q q 0 0 0 0 0 $.0 0 0 $.0 $.0 $.$.0 0 0 0 $.$.$.$.$.$.$.$.$.$.$.$.$.$.$.0 $.$.0 0 0 0 0 0 0 q 0 q 0 0 0 0 q q q q q -.-.-.-.q q q q 0 8 - i.XX$X$X+X X+XoXoXoXoXXXXXXXoXoXoXoX+XoXoXoXoXoXoXoXoXoXoXoXoXoXoXoXoXoXoX X X XoXoXoX X{.{.{.{. X X X X X X X X X X X X X X X{.{.{.{.{.{.{.{. X{.{.{.{.{.[.{.{.{.{. X X{.[.~.K.2.- 0 0 0 0 $.$.$.$.$.$.$.$.$.$.$.$.$.$.$.:.$.$.$.$.$.$.$.$.$.$.$.q q q q q 0 0 $.$.$.$.$.$.$.$.$.$.$.$.$.:.-.$.-.q q q -.0 $.$.$.$.$.$.$.:.$.$.$.$.$.$.$.0 -.-.$.$.$.0 0 0 7 0 0 u       ",
"        B - 9 q q 0 0 0 0 0 0 0 0 $.$.$.$.$.$.0 0 0 0 0 $.$.$.$.$.$.$.$.$.$.$.$.$.$.$.$.$.$.$.$.$.$.$.0 q q q q q q q q q -.q q q q q -.q q q q 0 q - r.#X$X$X+XoXoXoXoXoXoX XoXoX+X+XoX+X+XoXoX+XoXoXoXoXoXoXoXoX XoXoX X X X XoXoXoXoXoXoX X X{. X X X X X X X X X X X{.{.{.{. X{.[.{.{.{.{.{. X X X{.{.{.{.[.{.{. X X{.{.{. X'.~.K.2.* 0 q q $.$.$.$.$.$.$.$.$.$.$.$.$.$.$.:.:.:.:.$.$.-.$.$.$.$.$.$.$.$.$.$.0 0 0 $.$.$.$.$.$.$.$.$.$.$.$.$.-.$.$.$.$.-.$.-.0 0 $.$.$.$.$.$.:.:.$.:.$.$.$.$.q q q $.$.$.0 0 0 q 0 0 j       ",
"        K < 9 q q 0 0 0 0 0 0 0 0 -.$.$.$.$.$.0 0 0 0 0 $.$.$.$.$.$.$.$.$.$.$.0 $.$.$.$.$.:.:.$.$.$.$.$.q q -.q q q q q -.q q q q q -.-.q q q q 0 q < r.#X$X$X@XoXoXoXoXoXoXoXoXoX X+X+XoXoXoXoXoXoXoXoXoXoXoXoXoXoXoXoX XoX X XoXoXoX X X X X X X X X X X X X X X X X X X{.{.{. X{.{.{.[.[.{. X X X{.{. X{.{.{.{.{. X X{.{.{. X'.~.K.>.- 0 q q $.$.$.$.$.$.$.$.$.$.$.:.$.$.$.:.:.:.:.:.-.$.$.$.$.$.$.$.-.$.$.$.0 0 0 0 $.$.$.$.$.$.$.$.$.$.$.$.$.$.$.$.$.$.$.$.0 $.$.$.$.$.$.$.:.:.:.$.$.$.$.$.q q q -.$.$.$.0 q q 0 0 P       ",
"        G < 9 q q 0 0 0 0 q 0 0 $.$.$.$.$.$.$.$.0 0 0 0 $.$.$.$.$.$.$.$.$.$.$.$.$.$.$.$.$.:.:.:.$.$.$.$.q q q q q q q q q q q q q q -.-.q q q q q 8 - w.XX$X$X@XoXoXoXoXoXoXoXoXoXoXoXoXoXoXoXoXoXoXoXoXoXoXoXoX X XoXoXoXoX XoXoXoXoX X X X X X X X X X X X X X{.{.{.{.{.[.[.{. X X X{.{.[.{.{. X{. X X X X[.[.[.{.{.{.{.{.{. X'.~.K.2.- 0 0 0 0 $.$.$.$.$.$.$.$.$.$.$.:.:.$.:.:.:.:.:.$.$.$.$.$.$.$.$.$.$.$.$.0 0 0 0 $.$.$.$.$.$.$.$.-.-.-.-.$.$.$.-.$.-.-.$.$.$.$.$.$.$.$.$.:.:.:.:.$.$.$.$.q q q q $.-.$.0 q q 0 0 h       ",
"          < 9 q 0 0 0 0 0 -.-.$.$.$.$.$.$.$.$.$.0 0 0 $.$.$.$.$.$.$.$.$.$.$.$.$.$.$.$.$.$.:.:.$.$.$.$.$.q q q q q q q q -.q q q q q q q q 0 q 0 q 8 - w.XX$X$X@X+X+XoXoXoX X X XoXoXoX XoXoXoXoXoXoXoXoX XoXoXoX X XoXoXoXoXoXoXoXoXoX X XoXoX X X X X X X X X X{.{.{.{. X X{. X X X X X X{.{. X X X X X X X[.{.{.{.{. X{.{. X X[.~.K.2.* 0 0 0 0 $.$.$.$.$.$.$.$.$.$.$.:.:.:.:.:.:.:.:.$.$.$.$.$.$.$.$.$.$.$.$.$.$.$.0 $.$.$.$.$.$.$.$.-.-.-.$.$.$.$.$.$.-.$.$.$.$.$.$.$.$.$.$.:.:.:.$.$.$.$.$.0 0 q q -.-.0 0 0 q 0 0 h       ",
"        H > 9 q q -.$.$.0 0 -.-.0 $.-.$.$.$.$.$.$.$.$.$.$.$.$.$.$.$.$.$.$.$.0 0 $.$.$.$.$.$.:.:.$.$.$.$.q q q q q $.q 0 q q q q -.-.-.q q q q q 0 8 - w.XX$X#XoX X X{.{.{.{.{.{. X{.{. X{.{. X XoXoXoX XoXoXoXoXoXoXoXoXoXoXoXoXoXoX X X X{.[.[.[.[.[.[.[.[.[.[.[.[.[.[.[.[.[.[.[.[.[.[.[.[.[.[.[.[.[.[.[.[.[.[.[.[.[.[.[.[.[.[.`.!.K.2.- 0 q 0 0 0 0 0 $.$.$.$.$.:.$.$.$.$.$.$.$.:.:.$.$.$.$.$.$.$.$.$.$.$.$.$.$.$.$.$.$.$.$.$.$.$.$.$.$.$.$.$.$.$.$.$.$.$.$.$.$.$.$.$.$.$.$.$.:.:.$.$.$.$.$.$.q -.-.-.-.$.0 0 0 0 0 0 n       ",
"        _ 1 9 q q $.$.-.q q -.$.0 $.$.$.$.$.$.$.$.$.$.$.$.$.$.$.$.$.$.$.$.0 0 0 $.$.$.0 $.:.:.:.$.$.$.$.0 q q q q -.q q q q -.-.-.-.q q q q q q 0 q = w.XXoX[.`.~.!.~.~.~.~.~.~.~.~.~.~.~.`.'.{.oXoXoX XoXoXoXoXoXoXoX XoXoXoXoXoXoXoX X[.`.~.~.~.~.~.~.E.R.R.R.E.E.E.E.~.E.E.E.~.~.~.~.~.!.~.~.~.E.!.R.E.E.R.R.R.R.R.E.R.R.R.R.R.R.K.2.- 8 0 0 0 0 0 0 $.$.0 $.$.$.$.$.$.$.$.$.$.$.:.$.$.$.0 0 $.$.$.$.$.$.$.$.$.$.$.$.$.$.$.$.$.$.$.$.$.$.$.$.$.:.:.$.$.$.$.$.$.$.$.$.$.$.$.$.:.:.$.$.$.$.$.$.q q -.q q 0 0 0 0 0 0 8 P       ",
"          2 9 q -.$.$.-.-.-.-.$.$.$.$.$.$.$.$.$.$.$.$.$.$.$.$.$.$.$.$.$.0 0 0 0 $.$.$.0 $.:.:.$.$.$.$.$.0 -.q q -.-.q q -.-.-.-.-.-.q q q q q q 8 8 - 0.).E.T.P.L.K.L.L.P.P.L.L.L.P.P.P.P.R.`.{.+XoX{. XoXoXoXoX X X X X X XoX XoX X X{.'.R.P.K.K.L.L.L.K.K.K.K.K.K.K.K.L.K.L.L.L.L.L.L.L.L.L.L.L.L.L.K.K.L.K.L.K.K.K.K.K.K.L.L.L.L.J.4.9 q q q 0 0 0 q $.$.$.$.$.$.$.$.$.$.$.$.$.$.$.$.$.$.$.$.$.:.:.$.$.-.$.$.$.$.$.$.$.$.$.$.$.$.$.$.$.$.$.$.:.:.:.$.$.$.$.$.:.$.$.$.$.$.$.$.:.:.$.$.$.$.$.$.-.-.q q q 0 0 0 0 0 0 8 U       ",
"          , 9 q 0 $.$.-.-.$.-.$.$.$.$.$.$.$.$.$.$.$.$.$.$.$.$.$.$.$.$.$.0 0 0 0 $.$.0 0 $.$.$.$.$.$.$.$.0 $.q q -.-.q q -.-.-.-.-.-.q q q q q q 8 8 - | C.V.c.x.n.M.M.V.V.V.V.V.V.c.x.x.B.D.[.+X@XoX XoX X X X X X X X X X X{. XoX X X[.`.T.D.k.x.n.n.M.M.n.n.x.n.x.x.n.n.n.n.M.M.M.n.n.n.n.n.n.n.n.n.n.n.n.M.M.M.M.n.n.n.n.n.n.M.M.m.^ 9 q q q 0 0 0 0 $.$.$.$.$.$.$.$.$.$.$.$.$.$.$.$.0 $.$.$.$.:.$.$.$.$.:.$.$.$.$.$.$.$.$.$.$.$.$.$.$.$.$.$.$.$.$.$.$.$.$.$.$.$.$.$.$.$.$.$.$.$.$.$.$.$.$.$.q q q q q 0 0 0 0 q 0 8 I       ",
"          g 9 q q -.0 0 0 0 0 0 $.$.$.$.$.$.$.$.$.$.$.$.$.$.$.$.$.$.$.0 0 0 0 0 0 0 0 0 0 0 0 0 0 $.$.0 0 0 0 0 0 0 0 -.-.q q q q q q q q q q q 8 6 7 r 2 , , , , 3 g g g c g g f , , , $ s.{.#X#XoXoXoX X X X X X XoXoX X XoXoXoX X X[.`.R.x.i : , 3 3 g 3 g , , , , f , , , 3 , f f f , , , , , , , , , , g g g 3 3 , , , , , , 3 3 y q 0 q 0 0 0 $.$.$.$.$.$.$.$.$.$.$.$.$.$.$.$.$.$.0 0 0 $.$.:.$.$.:.:.:.:.$.$.$.$.$.$.$.$.$.$.$.$.$.$.$.$.$.$.$.$.$.$.$.$.$.$.$.$.$.$.$.$.$.$.$.$.0 $.0 q 0 0 0 0 0 0 0 0 q q 0 9 M       ",
"          n 9 q q $.0 0 0 0 0 0 $.$.$.$.$.$.$.$.$.$.:.:.$.$.$.$.$.$.$.0 0 0 0 0 0 0 0 0 0 q 0 0 0 0 0 0 0 0 0 0 0 0 0 0 -.-.q q q q q q 0 q q q 0 0 0 7 4 4 8 5 8 8 9 8 9 9 8 8 8 5 8 5 % q.XX$X#XoX X XoXoX X X X X XoXoXoXoXoX X X{.[.~.R.l.# * 4 8 8 q 9 q 9 9 9 9 9 9 9 9 9 9 9 9 9 9 9 9 8 9 9 9 9 8 8 9 9 8 8 9 9 8 9 9 9 9 9 8 8 0 0 q 0 0 $.$.$.$.$.$.$.$.$.$.$.$.$.$.$.$.$.$.$.$.$.0 $.$.:.:.:.:.:.:.:.$.$.$.$.$.0 $.$.$.$.$.$.$.$.$.$.$.$.$.$.$.$.$.$.:.$.:.:.:.:.:.:.$.$.$.$.$.0 0 q 0 0 0 0 0 0 q q q q q r E       ",
"          n 9 q 0 0 0 0 0 0 0 0 $.X.$.$.$.$.$.$.:.:.$.:.$.$.$.$.$.$.$.0 0 0 0 0 0 0 0 0 q 0 0 0 0 0 0 0 0 0 0 0 0 0 0 0 q q q q 0 q 0 0 0 0 0 q 0 0 0 7 8 8 8 q 0 0 0 q q q 8 8 8 8 8 8 * q.XX$X#X+X X X XoX XoX X X XoXoXoXoXoX X X X[.~.R.n.> 4 7 8 8 q q q q q q q q q q 8 8 q q q q 8 q 8 8 8 q q q q q q 8 q q q q q 8 8 8 8 8 8 8 8 0 0 0 0 0 0 $.$.$.$.$.$.$.$.O.$.$.$.$.$.$.$.$.$.-.$.$.$.:.:.:.:.:.$.$.$.$.$.$.$.0 0 0 $.$.$.$.$.$.0 0 $.$.$.$.$.$.$.$.$.:.:.:.:.:.:.:.:.:.$.$.0 0 0 0 0 0 0 0 0 q 0 0 0 0 q r {       ",
"          A 5 q 0 0 0 $.0 0 0 $.$.$.X.$.$.$.$.$.:.:.:.$.$.$.$.$.$.$.$.0 0 0 0 0 0 0 0 0 q q q 0 0 0 0 0 0 0 0 0 0 0 0 0 0 q q 0 0 0 0 0 0 0 0 q 0 0 6 8 8 8 q q q q q q q q q q 8 8 8 8 % 0.XX$X#X+X X X XoX XoXoX XoXoXoXoX X X X X X[.`.R.n.2 8 8 7 8 8 q q q 0 q q q 8 0 8 8 8 0 q q q 0 0 8 q q q q q q q q q q q q q q q 8 8 8 8 8 0 0 0 0 0 0 0 0 $.$.$.$.$.$.$.$.$.$.$.$.$.$.$.$.$.$.$.$.$.:.:.:.:.:.:.:.:.$.$.$.0 0 0 0 $.$.$.$.$.$.$.0 $.$.$.$.$.$.$.$.$.$.$.$.:.:.$.$.$.$.$.$.0 0 0 0 0 0 0 0 q q 0 0 0 q q r {       ",
"          B - 8 0 $.0 $.0 0 $.$.$.$.$.$.$.$.:.:.$.:.:.:.$.$.$.$.$.$.-.q 0 0 0 0 0 0 q q q q 0 0 0 0 0 0 0 0 0 0 0 q 0 q q q 0 0 0 0 q q 0 0 0 0 0 0 0 8 8 0 0 0 q q 0 0 0 0 8 8 0 7 6 7 * w.XX$X$X+X X X X XoX X XoXoXoXoX X X X X X X[.`.R.n.1 8 8 7 7 7 6 0 0 0 0 8 8 0 0 0 8 q q q q q q 0 q q q q q q q q q q q q q q q q 0 0 0 8 0 0 0 0 0 0 0 0 0 $.$.$.$.$.$.$.$.$.$.$.$.$.$.$.$.$.$.$.$.$.$.$.:.:.:.$.$.:.:.$.$.$.0 0 0 $.$.$.$.0 0 0 0 0 0 0 0 $.$.0 0 $.$.$.$.$.$.$.$.0 0 q -.$.q 0 0 0 0 q q q 0 0 0 q q 8 u         ",
"          L - 8 0 $.0 0 0 $.0 $.$.$.$.$.$.$.:.:.$.:.:.:.$.$.$.$.$.$.-.$.q q 0 0 0 0 0 q q q 0 0 0 0 0 0 0 0 0 0 q q q q q 0 0 0 0 0 q q 0 0 0 0 0 0 0 0 0 0 q q q 0 0 0 0 0 0 0 0 6 6 7 * w.XX$X#XoX X X X X X X X XoXoX XoX X X X X X[.`.R.n.; 8 0 6 6 0 0 0 0 0 0 0 0 0 0 0 0 q q q q q q q q q q q q q q q 0 q q q q q q q q 0 0 0 0 0 0 0 0 0 0 0 0 $.$.$.$.$.$.$.$.$.:.$.:.:.:.:.$.$.$.$.$.$.$.:.:.:.$.$.:.:.:.:.$.$.0 0 0 $.$.$.$.0 0 0 0 0 0 0 0 0 $.0 $.$.$.$.$.$.$.$.$.0 0 q q q q 0 0 q q q q 0 0 0 0 0 8 8 3         ",
"          H < 8 0 0 0 0 $.0 0 $.$.$.$.$.:.:.:.:.:.$.$.$.$.$.$.$.$.$.$.0 0 q q q 0 0 q q q q 0 0 0 0 0 0 0 0 0 0 0 0 0 q q 0 q 0 0 q 0 0 0 0 0 0 0 0 0 0 0 0 0 q 0 $.$.0 0 0 0 0 0 0 0 0 - y.XX$X$XoX X X X X X X X X X X X X X{. X X X[.`.R.z.; 8 0 0 0 $.0 0 0 0 $.$.0 0 0 0 0 0 0 0 0 q 0 0 0 q q q q 8 8 0 0 0 0 q 0 q 0 q q 0 0 0 0 0 0 0 0 0 0 0 0 $.$.$.$.$.$.$.$.$.$.$.:.:.:.:.:.:.:.$.$.$.$.$.$.$.$.$.$.$.:.:.$.$.$.0 $.$.$.$.$.0 0 0 0 0 0 0 0 0 $.$.$.$.$.$.$.$.$.$.$.0 0 q q q 0 w 0 q q q q 0 0 0 0 0 0 7 n         ",
"            > 4 0 0 0 0 $.$.0 $.$.$.$.$.:.:.:.:.$.$.:.$.$.$.$.$.0 0 0 0 0 q 0 0 0 0 0 0 q 0 0 0 0 0 0 0 0 0 0 0 0 0 0 q 0 0 0 0 q q q 0 0 0 0 0 0 0 0 0 0 0 0 q 0 0 0 0 0 0 0 0 0 0 0 0 - w.XX$X#XoX X X X{. X X XoX X X X X X X X X X[.`.R.z.; 8 0 0 0 $.0 0 0 0 0 0 0 0 0 0 0 0 0 0 0 q 0 0 0 q q q q 8 8 0 0 0 0 0 0 0 q q 0 0 0 0 0 0 0 0 0 0 0 0 0 0 $.$.$.$.$.$.$.$.$.$.$.$.$.:.:.:.:.:.$.$.$.$.$.$.$.$.$.$.$.$.$.$.$.$.$.$.$.$.$.0 0 0 0 0 0 0 0 $.$.$.$.$.$.$.$.0 0 $.$.0 0 q q q 0 0 q q q q q 0 0 0 0 0 0 8 n         ",
"            1 4 0 0 0 $.$.$.$.$.$.$.$.$.:.:.:.:.$.$.$.$.0 0 0 0 0 0 0 0 0 0 q q 0 0 0 0 0 0 0 0 0 0 0 0 0 0 0 w 0 0 0 0 0 0 0 0 0 0 0 0 0 0 0 0 0 0 0 0 0 0 0 q 0 0 0 0 6 0 0 6 6 6 6 0 * w.XX$X#XoX X X X X{.{. X X X X X X XoX X X X[.~.R.l.; 7 0 0 q q q q q q 0 0 8 0 0 0 0 0 q 0 0 0 0 0 0 0 0 0 0 0 0 q 0 0 0 0 0 0 0 0 0 0 0 0 w 0 0 0 w 0 0 0 0 0 $.$.$.$.$.$.$.$.$.$.$.$.$.$.$.$.$.$.$.$.0 $.$.$.$.$.$.$.$.$.$.$.$.$.$.$.$.$.$.$.$.0 0 0 0 0 0 0 0 0 $.$.0 0 0 0 0 0 0 0 0 0 0 0 0 0 0 q q q 0 0 0 0 0 0 8 8 M         ",
"            , 5 7 6 0 $.$.$.$.$.$.$.$.$.:.:.:.:.$.0 $.$.0 0 0 0 0 $.$.0 0 0 0 q q 0 0 0 0 0 0 0 0 q 0 0 0 0 0 w w 0 0 0 0 0 0 0 0 0 0 0 0 0 0 0 0 0 0 0 0 0 0 0 0 0 0 6 7 7 0 7 6 6 6 7 * w.XX#X#XoX X X X X{.{. X X X X X X XoX X X X[.`.R.l.; 7 0 0 q q q q q q q q 0 0 0 0 0 0 0 0 0 0 0 0 0 0 0 0 w 0 0 0 0 0 0 0 0 q 0 0 0 0 0 0 0 0 0 0 0 0 0 0 0 0 $.$.$.$.$.:.$.$.$.$.$.$.$.$.0 $.$.$.$.0 0 $.$.0 $.0 $.$.:.$.$.$.:.$.$.$.$.$.$.$.0 0 0 0 w w w 0 0 $.$.$.0 0 0 0 0 0 0 0 0 0 0 0 0 0 0 0 q q q 0 0 0 0 0 8 9 S         ",
"            f 5 6 0 0 0 $.$.$.$.$.$.$.$.:.:.:.$.0 0 $.$.0 0 0 0 $.$.$.0 q q q q 0 0 0 0 0 0 0 0 0 0 0 0 0 0 0 0 w 0 0 0 0 0 0 0 0 0 0 0 0 0 0 0 0 0 0 0 0 0 0 0 0 0 0 0 7 0 0 0 6 6 6 7 * q.XX#X#XoX X X X X X{. X X X X X{.oXoX{.{.{.[.~.R.l.; 7 0 0 0 0 q 0 q q q q q 0 0 0 0 0 0 0 0 0 0 0 0 0 0 0 0 0 $.0 0 0 0 0 0 0 0 0 0 0 0 0 0 0 0 0 0 0 0 0 0 0 $.$.$.$.$.:.$.$.$.$.$.$.$.$.0 $.$.$.$.0 $.$.$.0 0 0 0 $.$.$.$.$.$.$.$.$.$.$.$.$.0 0 0 0 0 w 0 0 $.$.$.$.$.0 0 0 0 0 0 0 0 0 0 0 0 0 0 0 q q q 0 0 0 0 8 8 - L         ",
"            z * 7 6 0 $.$.$.$.$.$.$.$.$.:.:.$.$.0 0 0 0 0 0 0 0 0 $.$.0 0 q q q 0 0 0 0 0 0 0 0 0 0 0 0 0 0 0 w 0 0 0 0 0 0 0 0 0 0 0 0 0 0 w 0 0 0 0 0 0 0 0 0 0 0 0 0 6 0 6 6 6 6 6 6 * q.XX#X#XoX X X X X X X X X X X{. XoXoX{.{. X[.`.R.l.; 7 0 0 0 0 q 0 0 0 q q q q q 0 0 0 0 0 0 0 0 0 0 0 0 0 0 0 0 0 0 0 0 0 0 0 0 0 0 0 0 w w w w w w 0 0 0 0 0 0 $.$.$.$.$.$.$.$.$.$.$.$.$.$.$.$.$.$.$.0 $.$.0 0 0 $.$.$.$.$.$.$.$.$.$.$.$.$.$.0 0 $.0 w w 0 0 $.0 $.$.$.0 0 0 0 0 0 0 0 0 0 0 0 0 0 0 q q 0 0 0 0 0 8 7 <           ",
"            S % 4 0 0 0 $.$.$.$.$.$.$.$.$.$.0 0 0 0 0 0 0 0 0 0 0 0 q 0 0 0 0 0 0 0 0 0 0 0 0 0 0 0 0 0 0 0 0 0 0 0 0 0 0 0 0 0 0 0 0 0 0 0 0 0 0 0 0 0 0 0 0 0 0 0 0 0 0 0 0 0 6 6 6 7 * q.XX#X#XoX X X X X X X X X X{. X X X{. X{. X[.`.R.x.; 7 6 6 0 0 0 q 0 0 0 0 0 0 0 0 8 0 0 0 0 0 0 0 0 0 0 0 0 0 0 0 0 0 0 0 0 0 0 0 0 0 0 0 0 0 0 0 0 0 0 0 0 0 0 0 0 0 0 0 0 0 0 0 0 $.$.$.$.0 0 0 0 0 0 0 0 0 0 0 0 $.$.$.$.$.$.$.$.$.$.$.$.$.$.$.$.0 0 0 $.0 0 0 0 $.0 0 $.0 0 0 0 0 0 0 0 0 0 0 0 0 0 0 0 0 0 0 0 8 4 2           ",
"              ; 4 0 0 0 $.$.$.$.$.$.$.$.$.$.0 0 0 0 0 0 0 0 0 0 0 q q q 0 0 0 0 0 0 0 0 0 0 0 0 0 0 0 $.0 0 0 0 0 0 0 0 0 0 0 0 0 0 0 0 0 0 q 0 0 0 0 q 0 6 6 0 0 0 0 0 0 0 0 0 6 6 6 6 * q.XX#X#XoX X X X X X X X X X{. X X X{.{. X X[.`.R.x.: 7 6 6 6 0 q 0 0 0 q 0 0 0 0 8 8 0 0 0 0 0 0 0 0 0 0 0 0 0 0 0 0 0 0 0 0 0 0 0 0 0 0 0 0 0 0 0 0 0 0 0 0 0 0 0 0 0 0 0 0 0 q 0 0 $.$.$.$.0 0 0 0 0 0 0 $.0 $.0 0 $.$.$.$.$.$.$.$.$.$.$.$.$.$.$.0 0 0 $.$.0 0 0 0 $.0 0 0 0 0 0 0 0 0 0 0 0 0 q 0 0 0 0 0 $.$.$.0 8 4 c           ",
"              , 4 0 0 0 $.$.$.$.$.$.$.$.$.$.0 0 0 0 0 0 0 0 0 0 0 q 0 q q 0 0 0 0 0 0 0 0 0 0 0 0 0 0 0 0 0 0 0 0 0 0 0 0 0 0 0 0 0 0 0 0 0 q 0 0 0 q q 0 6 0 0 0 $.$.$.0 0 0 0 0 6 6 6 * q.XX#X#XoX X X X X X X X X X{.{. X X{.{. X{.[.`.R.x.: 7 0 6 0 0 q q q q q 0 q 0 0 0 0 0 0 0 0 0 0 0 0 0 0 0 0 0 0 0 0 0 0 0 0 0 0 0 0 0 0 0 0 0 0 0 0 0 0 0 0 0 0 0 0 0 0 0 0 q q -.0 $.$.$.0 0 0 0 0 0 0 0 $.0 $.0 0 $.$.$.$.$.$.$.$.$.$.$.$.$.$.$.$.0 0 0 0 0 0 0 0 $.$.0 0 0 0 0 0 0 0 0 0 0 q q q 0 0 q -.$.$.$.0 7 & m           ",
"              h 9 8 0 0 $.$.$.0 0 $.$.$.$.$.0 q 0 0 0 0 0 0 0 0 0 q q 0 0 0 0 0 0 0 0 0 0 0 0 0 0 0 0 0 0 0 0 0 0 0 0 0 0 0 0 0 0 0 0 0 0 q q 0 q q 0 0 0 0 0 0 0 $.$.$.0 0 0 0 6 6 6 6 * w.XX#X#XoX X X X X X X X X X{.{.{.{.{.{.{.{.[.`.R.n.: 8 0 0 0 0 q q q 0 q 0 0 0 0 0 0 0 0 0 0 0 0 0 0 0 0 0 0 0 0 0 0 0 0 0 0 0 0 0 0 0 0 0 0 0 0 0 0 0 0 0 0 0 0 0 0 0 0 0 0 0 0 0 $.$.$.$.0 0 0 0 0 0 0 0 0 0 $.0 0 $.$.$.$.$.$.$.$.$.$.$.$.$.$.$.$.0 0 0 0 0 0 0 0 0 0 0 0 0 0 0 0 0 0 0 0 0 q q q 0 0 q -.$.$.0 0 7 - G           ",
"              A 9 8 8 8 $.$.$.$.$.$.$.0 0 0 0 0 0 0 0 0 0 0 q q 0 0 0 0 0 0 0 q 0 0 0 0 0 0 0 0 0 0 0 $.0 0 q q 0 0 0 0 0 0 0 0 0 0 0 0 0 0 q q q q $.0 0 0 0 0 0 0 0 0 0 0 0 0 6 6 6 6 * 0.XX$X#X X X X X X{.{.{.{.{. X X X{.{.{.{.{.[.`.R.x.; 8 0 0 0 0 0 q q q q 0 0 0 0 0 0 0 0 0 0 0 0 0 0 0 0 0 0 0 0 0 0 0 0 0 0 0 0 0 0 0 0 0 0 0 0 0 0 0 0 0 0 0 0 0 0 0 0 0 0 0 0 0 0 0 0 0 0 0 0 0 0 0 0 0 0 0 0 0 0 $.$.$.$.$.$.$.$.$.$.$.$.$.$.$.$.0 0 0 0 0 0 0 0 0 0 0 0 0 0 0 0 0 0 0 0 0 q q q 0 q q -.$.$.$.0 7 <             ",
"              W < 8 q 8 0 0 0 $.$.$.0 $.0 0 q 0 0 0 0 0 0 q q q 0 0 0 0 0 q q 0 0 0 0 0 0 0 0 0 0 0 0 q 0 q -.q q q 0 0 0 q q 0 0 0 0 0 0 0 q q 0 0 $.$.0 $.0 0 0 8 0 0 $.0 0 0 6 6 6 6 * 0.XX$X#X X X X X X{.{.{.{.{.{. X X{.{. X{.{.[.`.R.z.; 4 0 0 0 0 0 0 0 7 q q 0 0 0 0 0 0 0 0 0 0 0 0 0 0 0 0 0 0 0 0 0 0 0 0 q 0 q q 0 0 0 0 0 0 0 0 0 0 0 0 0 0 0 0 0 0 0 0 0 0 0 0 0 0 0 0 0 0 0 0 0 0 0 0 0 0 0 0 0 $.$.$.$.$.$.$.$.$.$.$.$.$.$.$.$.$.$.0 0 0 0 0 0 0 0 $.$.0 0 0 0 0 0 0 0 0 0 q q q -.-.q -.$.0 0 4 3             ",
"                3 4 q 8 0 0 0 $.$.0 0 0 0 0 q q 0 0 0 0 0 0 0 q 0 0 0 0 0 q 0 q 0 q $.$.0 0 0 0 q q -.0 0 q q 0 0 0 0 0 0 0 q 0 0 0 0 0 0 0 0 q 0 0 $.$.6 $.0 0 0 0 0 0 0 0 0 0 6 6 6 6 * 0.XX$X#X X X X X X{.{.{.[.{.{. X X X{. X{. X[.`.R.l.; 7 0 0 0 0 0 0 0 0 q q 0 0 0 0 0 0 0 0 0 0 0 q q 0 0 0 0 0 0 0 0 0 0 0 q q q 0 0 0 0 0 0 0 0 0 0 0 0 0 0 0 0 0 0 w 0 0 0 0 0 0 0 0 q q 0 0 0 0 0 0 0 0 0 0 0 0 0 $.$.$.$.$.$.$.$.$.$.$.$.$.$.$.$.0 $.0 $.0 0 0 0 $.$.$.$.0 0 0 0 0 0 0 0 0 0 q q 0 q -.0 $.$.0 0 8 M             ",
"                n 5 9 q 0 0 0 0 $.0 0 0 0 0 q 0 0 0 0 0 0 0 0 q 0 0 0 0 0 0 0 0 0 $.-.-.0 0 0 0 0 q q 0 0 0 q 0 0 0 0 0 q q 0 0 0 q 0 0 0 0 0 0 $.$.$.$.0 0 0 0 0 0 0 0 0 0 0 0 6 6 6 6 * 0.XX$X#X X X X X X X{.{.{.{.{. X X{.{.{.{. X[.`.R.l.; 7 6 0 0 0 0 0 0 q q q 0 0 0 0 0 0 0 0 0 0 0 q 0 0 0 0 0 0 0 0 0 0 0 0 0 q 0 0 0 0 0 0 0 0 0 0 0 0 0 0 0 0 0 0 0 0 0 0 0 0 0 0 0 q 0 q 0 0 0 0 0 0 0 0 0 0 0 0 0 $.$.$.$.$.$.$.$.$.$.$.$.$.$.$.$.$.$.0 $.$.$.0 $.$.$.$.$.0 0 $.$.0 0 0 0 0 0 0 q 0 0 q 0 $.$.0 6 9 Q             ",
"                B - 9 q 0 0 $.$.$.0 0 0 0 0 q q 0 0 0 0 0 0 0 0 0 0 q 0 0 0 0 0 0 0 0 0 0 0 0 0 0 0 0 0 0 0 0 0 0 0 0 0 0 0 $.0 0 0 0 0 0 0 0 0 0 0 0 0 $.$.0 0 0 0 $.0 0 0 0 6 6 6 6 6 * q.XX$X#X X X X X X{.{.{.{.{.{. X X X{.{.{.[.[.~.R.l.; 7 6 0 0 0 0 0 0 0 0 0 0 0 0 0 0 0 0 0 0 0 q q 0 0 0 0 0 0 0 0 0 0 0 0 0 0 0 0 0 0 0 0 0 0 0 0 0 0 0 0 0 0 0 0 0 0 0 0 0 0 0 0 0 $.$.$.0 0 0 0 0 0 $.0 0 0 0 0 0 0 0 0 0 0 0 0 $.$.$.$.$.$.$.$.$.$.$.0 0 $.$.0 $.$.$.$.$.$.$.$.$.$.$.0 0 0 0 0 0 0 0 0 $.0 0 0 6 3               ",
"                L > 9 q 0 0 $.0 $.0 0 0 0 0 0 0 0 0 0 0 0 0 0 0 0 0 0 0 0 0 0 0 0 q 0 0 0 0 q 0 0 0 0 0 0 0 0 0 0 q 0 0 0 0 $.q q q 0 0 0 0 0 0 0 0 0 0 $.$.0 0 0 0 $.$.0 0 0 6 6 6 6 6 * 0.XX#X#X X X X X X X X{.{.{.{. X X X{.{.[.[.].~.R.l.; 7 6 0 0 0 0 0 0 0 0 0 0 0 0 0 0 0 0 0 0 0 q 0 0 0 0 q 0 0 0 0 0 0 0 0 0 0 0 0 0 0 0 0 0 0 0 0 0 0 0 0 0 0 0 0 0 0 0 0 0 0 0 0 q $.$.$.$.0 0 0 0 0 $.0 0 0 0 0 0 0 0 0 0 0 0 0 0 $.$.$.$.$.$.$.$.$.$.0 0 $.$.$.$.:.$.$.$.0 $.$.$.0 0 $.0 0 0 0 0 $.0 0 0 0 0 0 8 n               ",
"                  g 4 8 0 0 0 0 $.0 0 0 0 0 0 0 0 0 0 0 0 0 q 0 0 0 0 0 0 0 0 0 q q q q q q q 0 0 0 0 0 0 0 0 0 0 q 0 0 0 0 0 q 0 0 $.0 0 0 0 0 0 0 0 0 $.$.0 0 0 0 0 0 0 0 0 0 6 6 6 7 * q..X#X#XoX X X X{. X X{.{.{.{. X X X{.{.[.[.[.~.R.l.; 7 6 6 6 0 $.0 0 0 0 0 0 0 0 0 0 0 0 0 0 0 0 0 0 0 0 q 0 0 0 0 0 0 0 0 0 0 0 0 0 0 0 0 0 0 0 0 0 0 0 0 0 0 0 0 0 0 0 0 0 0 0 0 q 0 $.$.$.0 0 0 0 0 0 0 0 0 0 0 0 0 0 0 0 0 0 0 0 $.$.$.$.$.$.$.$.$.$.$.$.$.$.$.$.:.:.$.$.0 0 $.$.$.0 $.$.0 0 0 0 $.0 0 0 0 0 0 9 Y               ",
"                  M 9 0 0 6 0 0 0 0 0 0 0 0 0 0 0 0 0 0 q q q q 0 0 0 0 0 0 0 q q q q q q q q q 0 0 0 0 0 0 0 0 0 0 0 0 0 0 0 0 0 0 0 0 0 0 0 0 0 0 0 0 0 0 0 0 0 0 0 0 0 0 0 0 6 6 X.6 & q..X#X#X X{. X{.{. X X X{.{.{. X X[.[.{.{.[.[.~.R.l.; 7 6 6 6 $.$.0 0 $.0 0 0 0 0 0 0 0 0 0 0 0 0 0 0 0 0 0 0 0 0 0 0 0 0 0 0 0 0 0 0 0 0 0 0 0 q q 0 0 0 0 0 0 0 0 0 0 0 0 0 0 0 0 0 0 $.$.0 0 0 0 0 0 0 0 0 0 0 0 0 0 0 0 0 0 0 0 0 $.$.$.$.$.$.$.$.$.$.$.$.$.$.$.$.:.:.$.$.$.0 $.$.0 0 $.$.$.0 0 0 $.0 0 0 0 0 7 r Q               ",
"                  G r 0 0 6 0 0 0 0 0 0 0 0 0 q q q q q q q q 0 0 0 0 0 q q q q q q 0 0 q q q 0 0 0 0 0 0 0 0 q 0 $.$.0 0 0 0 0 0 0 0 0 0 0 0 0 0 0 $.$.0 0 0 0 0 0 0 0 0 0 0 0 6 6 6 6 * q.XX#X@X X{.{. X{. X X X X X X{.{.{.{.{.{.{.[.~.R.z.; 7 6 6 6 $.$.$.$.$.$.$.0 0 0 0 0 0 0 0 0 0 0 0 0 0 0 0 0 0 0 0 0 0 0 0 0 0 0 0 0 0 0 0 0 $.$.$.$.0 0 0 0 0 0 0 0 0 0 0 0 0 0 q 0 0 0 0 0 0 0 0 0 0 0 0 0 0 0 0 0 0 0 0 w 0 0 0 $.$.$.$.$.$.$.$.$.$.$.$.$.$.$.$.$.:.:.:.:.$.$.$.$.$.$.$.0 0 $.$.0 $.0 0 6 7 7 4 2                 ",
"                    3 8 0 6 0 0 0 0 q 0 0 0 q q q q q q q q q 0 0 0 0 0 q q q q 0 0 q q q q q 0 0 0 0 0 0 0 q q $.$.$.0 0 0 0 0 0 0 0 0 0 $.$.0 0 0 $.$.$.0 0 0 0 0 0 0 0 0 0 6 6 6 6 6 * q.XX#X@X X{. X X{.{. X X X{. X{.{.{.{.{. X{.[.~.R.b.> 7 6 6 6 $.$.$.$.$.$.$.$.$.$.$.0 0 0 0 0 0 0 0 0 0 0 0 0 0 0 0 0 0 0 0 0 0 0 0 0 0 0 0 $.$.$.$.$.0 0 0 0 0 0 0 0 0 0 -.0 0 q q 0 0 0 0 -.0 0 0 $.0 0 0 0 0 0 0 0 0 0 0 w 0 0 0 $.$.:.:.:.$.$.$.$.$.:.:.$.$.:.:.:.:.:.:.:.$.$.$.$.$.0 $.$.$.$.$.$.$.0 $.6 7 7 4 M                 ",
"                    M 8 0 6 0 0 q q 0 0 0 0 0 0 0 q q q q 0 0 6 0 0 0 0 0 q q q 0 0 q q q q q 0 0 0 0 q 0 0 0 0 0 $.$.0 0 0 0 $.0 0 0 0 0 0 $.$.0 0 $.$.$.0 0 0 0 0 0 0 0 0 0 0 6 6 6 6 * q.XX#X+X X{.{.{.{.[.{.{.{.{.{.{.{.{.{.[.{.{.[.~.R.n.> 7 6 6 6 $.$.$.$.0 0 0 0 0 0 $.0 0 0 0 0 0 0 0 0 0 0 0 0 0 0 0 0 0 0 0 0 0 0 0 0 0 0 0 0 $.$.$.$.0 0 0 0 0 0 0 0 0 0 -.q 0 0 0 0 0 0 0 q $.$.0 0 0 0 0 0 0 0 0 0 0 0 0 w 0 0 0 $.$.$.:.:.:.:.$.$.$.$.$.$.$.:.:.:.:.:.:.:.$.$.$.$.$.$.$.$.0 $.$.0 0 $.$.6 6 7 - Q                 ",
"                    T 9 0 6 0 6 0 0 0 0 0 0 0 0 0 q q q q q 0 6 0 0 0 0 0 q q q 0 0 0 0 0 0 0 0 0 0 q q 0 0 0 0 0 $.$.0 0 0 0 0 0 0 0 0 0 0 0 0 0 0 $.$.$.0 0 0 0 0 0 0 0 0 0 0 6 6 6 6 * q.XX#X@X X{.{.{.[.[.[.[.{.{.{.{.{.{.{.[.{.{.[.~.R.n.; 7 6 6 6 $.$.$.$.0 0 0 0 0 0 $.$.0 0 0 0 0 0 0 0 0 0 0 0 0 0 q 0 0 0 0 0 0 0 0 0 0 0 0 $.$.$.$.$.0 0 0 0 0 0 0 0 0 0 0 0 0 0 0 0 0 0 0 0 0 $.$.0 0 0 0 0 0 0 0 0 0 0 0 0 0 $.0 $.$.$.$.$.:.:.$.$.$.$.$.$.$.:.:.:.:.:.:.:.$.$.$.$.$.$.$.$.0 0 0 0 0 $.0 6 6 7 3                   ",
"                      < 8 0 6 0 0 0 0 0 0 0 0 0 0 0 q q q q 6 6 0 0 q 0 0 q q q q 0 0 0 0 0 0 0 0 0 0 0 q q q 0 0 0 0 0 0 0 0 $.$.0 0 0 $.$.0 0 $.O.$.$.0 0 0 0 0 0 0 0 0 0 0 6 6 6 6 6 * q..X#X@X X{.{.[.[.[.[.{.[.[.{.{.{.[.[.[.[.{.[.`.R.l.; 7 6 6 6 $.$.$.$.$.$.0 0 $.$.$.$.0 0 0 0 0 0 0 0 0 0 0 0 q 0 0 0 0 0 0 0 0 0 0 0 0 0 0 0 0 0 0 $.0 0 0 0 0 0 0 0 0 0 0 0 0 0 0 0 0 0 0 0 0 0 0 0 0 0 $.0 0 0 $.0 0 0 0 0 $.$.$.$.$.:.$.$.:.:.:.:.:.:.:.$.$.$.$.$.$.$.$.$.$.$.$.$.$.$.$.$.0 0 0 0 $.$.O.O.6 4 M                   ",
"                      g 4 7 6 0 0 $.$.$.q 0 0 0 0 q q q q q 6 6 0 0 q q 0 -.-.-.q 0 q 0 0 0 0 q 0 0 0 $.q q q q 0 0 0 0 0 0 0 $.$.0 0 0 0 $.$.$.$.$.$.$.0 0 0 $.0 0 0 0 0 0 0 0 6 6 6 6 * q.XX#X@X X{.{.[.[.{.{.{.{.[.[.{.{.{.{.{.[.{.[.`.R.l.; 7 6 6 6 $.$.0 $.$.$.$.$.$.$.$.$.0 0 0 0 0 0 0 0 0 0 0 0 q q 0 0 0 0 0 0 0 0 0 0 0 0 0 0 0 0 0 0 0 0 0 0 0 0 0 0 0 0 0 0 0 0 0 0 0 0 0 0 0 0 0 0 $.$.$.0 $.0 0 0 0 0 0 0 $.$.$.$.$.$.$.$.:.:.:.:.:.:.:.:.$.$.$.$.$.:.:.$.$.O.$.$.$.$.$.$.0 0 0 0 0 $.$.O.6 9 E                   ",
"                      T * 7 7 0 0 0 0 0 0 0 0 0 0 0 7 q q q 7 0 0 0 0 0 0 q $.-.q 0 0 q 0 0 q q 0 0 0 0 q q q 0 0 0 0 0 $.0 $.$.$.0 0 0 0 $.$.$.$.$.$.$.0 0 $.$.$.$.0 $.0 0 0 0 6 6 6 6 & q.XX#X@X X{.{.{.{.{.{.{.{.{.{.{.{.{.{.{.{.{.[.~.R.l.; 7 6 6 6 $.$.0 $.$.$.0 0 $.$.$.$.0 0 0 0 0 0 q q 0 0 0 0 0 0 0 0 0 0 0 0 0 0 0 0 0 0 0 0 0 0 0 0 0 0 0 0 0 0 0 0 0 0 0 0 0 0 0 0 0 q q 0 0 0 0 0 $.0 $.$.0 0 0 0 0 0 0 0 $.$.$.$.:.:.$.:.:.:.:.:.:.$.$.$.$.$.$.$.$.$.$.$.$.$.$.$.$.$.$.$.0 0 $.0 0 $.0 O.7 t                     ",
"                        2 4 7 6 0 $.$.0 0 0 0 0 0 6 q 0 q q q 0 0 0 0 0 0 0 0 0 q q 0 q 0 0 0 0 0 0 q q q q 0 0 0 0 0 0 0 0 $.$.0 0 0 0 $.$.$.$.$.$.$.$.$.0 $.$.$.$.$.$.0 0 0 6 6 6 6 6 4 q.XX#X@X X{.{.{.{.{.{.{.{.{.{.{.{.{.{.{.{.{.[.~.R.l.; 4 6 6 6 $.$.$.$.$.$.0 0 $.X.X.$.0 0 0 0 0 q q 0 0 0 0 0 0 0 0 0 0 0 0 0 0 0 0 0 0 0 0 0 0 0 0 0 0 0 0 0 0 0 0 0 0 0 0 0 0 0 0 0 q 0 0 0 0 0 0 0 0 0 0 0 0 0 0 0 0 0 0 $.$.$.$.$.$.$.:.:.:.:.:.:.:.$.$.$.$.$.$.$.$.$.$.$.$.$.$.$.$.$.$.$.0 0 $.$.$.O.6 6 4 U                     ",
"                        c 4 7 6 0 0 $.$.0 0 0 0 0 0 0 q 0 $.0 0 q q 0 0 0 0 0 q q q 0 0 0 0 0 0 0 q q q q 0 0 0 0 0 0 0 $.0 $.$.$.$.$.$.$.$.$.$.$.0 $.$.$.$.$.$.$.$.$.$.X.6 6 6 6 6 6 6 & 4..X#X@X{.{.{.{.{. X{.[.{.{.{.{.{.{.{.{.[.[.[.~.R.l.; 7 6 6 0 0 0 0 0 0 0 0 0 0 0 0 0 0 0 0 q q q 0 0 0 q 0 0 0 0 0 q 0 0 0 0 0 0 0 0 0 0 0 0 0 0 0 0 0 0 0 0 0 0 0 0 0 0 q 0 0 0 0 0 0 0 0 0 0 0 0 0 0 0 0 0 0 0 $.0 0 0 0 0 $.$.$.$.$.:.:.:.:.:.$.$.$.$.$.$.$.$.$.$.$.$.$.$.$.$.$.$.$.$.0 0 0 0 $.X.X.X.6 6 r |                     ",
"                        E - 7 6 6 X.X.$.0 q 0 0 6 q 6 q q 0 0 0 0 0 0 0 0 0 0 0 q q 0 0 0 0 0 0 q q q q q 0 0 0 0 0 0 0 $.$.$.$.$.$.$.$.$.$.$.$.$.$.0 0 0 $.0 0 0 $.O.$.X.6 6 6 6 6 6 6 & 4..X#X@X X{.{.{. X X{.[.[.{.{.{.{.{.{.{.{.[.[.~.R.j.; 7 6 0 6 0 0 0 0 0 0 0 0 0 0 0 0 0 0 q q 0 q q q q 0 0 0 0 0 0 q 0 0 0 0 0 0 0 0 0 0 0 0 0 0 0 0 0 0 0 0 0 0 0 0 0 0 q 0 0 0 0 q 0 0 0 0 0 0 0 0 0 0 0 0 0 $.0 0 0 0 0 0 $.$.$.$.:.:.:.:.:.:.$.$.$.$.$.$.$.$.$.$.$.$.$.$.$.$.$.$.$.$.0 0 $.$.$.X.X.6 6 7 3                       ",
"                          u 4 6 6 6 X.0 0 6 6 0 6 0 6 q q q 0 0 q 0 0 0 0 0 0 0 0 0 q 0 0 0 0 q q q q q q 0 0 0 0 0 0 0 $.$.$.$.$.$.$.$.$.O.$.$.$.$.$.0 0 0 0 0 0 $.$.$.X.6 6 X.6 6 6 6 & 4..X#X@X X{.{.{. X{. X{.{.{.{.{.{.{.{.{.{.[.[.~.R.j.; 7 6 0 6 0 0 0 0 0 0 0 0 0 0 0 0 0 0 0 q 0 q q q 0 q 0 0 0 0 0 0 0 0 0 0 0 0 0 0 0 0 0 0 0 0 0 0 0 0 0 0 0 0 0 $.$.-.0 0 0 0 0 0 0 0 0 0 0 0 0 0 0 0 0 0 0 $.$.0 0 0 0 0 $.$.$.$.:.:.:.:.:.:.$.$.$.$.$.$.$.0 $.$.$.$.$.$.$.$.$.$.0 $.0 0 $.$.$.6 O.6 6 8 Y                       ",
"                          Y 5 6 6 6 $.0 q 6 6 0 6 0 0 q q q 0 0 q 0 0 0 0 0 0 0 0 0 0 0 0 0 0 -.$.0 q q 0 0 0 0 0 0 0 0 $.$.$.$.$.$.$.$.$.O.0 $.$.$.$.0 0 0 0 0 0 0 $.X.6 0 X.X.6 6 6 6 & 4..X#X+X X{.{.{.{.{.{.[.[.{.{.{.{.{.{.{.{.[.[.~.R.l.; 7 6 6 6 0 0 0 0 0 0 0 0 0 0 0 0 0 0 q q 0 0 0 0 0 q 0 0 0 0 0 0 0 0 0 0 0 0 0 0 0 0 0 0 0 0 0 0 0 0 0 0 0 0 0 0 0 $.0 0 0 0 q q 0 0 0 0 0 0 0 0 0 0 0 0 0 $.$.0 0 0 0 $.$.$.:.:.:.:.@.:.:.$.$.$.$.$.$.$.$.$.$.$.$.$.0 $.$.0 0 $.0 $.0 0 $.O.O.6 6 X.6 r                         ",
"                            < 7 6 0 $.0 0 0 0 0 0 0 0 0 q q q q q 0 0 0 0 0 0 0 0 0 0 0 0 0 0 $.$.$.$.$.0 0 0 0 0 6 0 $.0 $.$.$.0 0 0 0 $.0 0 0 0 $.0 0 0 0 0 0 0 0 0 0 6 6 6 6 6 6 6 7 & 4..X#X+X X{.{.{.[.[.{.{.{.{.{.{.{.{.{.[.[.[.].~.R.j.; 7 6 6 6 0 0 0 0 0 0 0 0 0 0 0 0 0 0 0 q 0 0 0 0 0 0 0 0 0 0 0 0 0 0 0 0 0 0 q 0 0 0 0 0 0 0 0 0 0 -.0 0 0 0 0 0 0 0 0 0 0 -.-.-.0 0 0 0 0 0 0 0 0 0 0 0 0 0 $.0 0 0 $.$.$.$.$.:.:.:.:.:.:.:.:.$.$.$.$.$.$.$.$.$.0 0 0 $.0 0 0 $.0 0 0 $.$.$.$.X.6 6 4 n                         ",
"                            M 5 0 6 $.$.0 0 0 0 0 0 0 q q q q q q 0 0 0 0 0 0 0 0 0 0 0 0 0 0 $.$.$.$.$.$.0 0 0 $.0 0 $.$.$.$.$.0 0 0 0 0 $.0 0 0 0 0 0 0 0 0 0 0 0 0 0 6 6 6 6 6 6 6 6 & 4..X#X@X X[.{.{.{.{.{.{.{.{.{.{.{.{.{.[.[.[.].~.R.l.; 7 6 6 6 6 6 0 0 0 0 0 0 0 0 0 q 0 0 q 0 0 0 0 0 0 0 0 0 0 0 0 0 0 0 0 0 0 q q 0 0 0 0 0 0 0 q q -.-.$.0 0 0 $.0 0 0 0 0 -.-.-.-.0 0 0 0 0 0 0 0 0 $.$.$.0 0 0 $.0 $.$.$.$.:.:.:.:.:.:.:.:.$.:.$.$.$.$.$.$.$.$.$.$.0 0 $.$.$.0 0 0 0 $.$.$.$.$.O.6 7 - E                         ",
"                            K < 7 0 0 0 0 0 0 0 0 0 0 q q q q q q 0 0 0 0 0 0 0 0 0 0 0 0 0 0 0 $.0 $.$.0 0 0 $.$.0 0 0 $.$.$.$.0 0 0 0 0 0 0 0 0 0 0 0 0 0 0 0 0 0 0 0 6 6 6 6 6 6 6 7 & 4..X#X+X X{.{. X{.[.[.[.{.{.{.{.{.{.{.[.{.[.'.~.R.j.; 7 6 7 7 7 7 6 6 q q 0 6 0 0 0 q q q q 0 0 0 0 0 0 0 6 0 0 0 0 0 0 0 0 0 0 q q q 0 0 0 0 0 0 0 q q 0 -.-.0 0 0 0 0 0 0 0 $.-.$.$.0 0 0 0 0 0 0 0 0 $.$.$.0 0 0 $.0 0 $.$.$.$.:.:.:.:.:.:.:.$.$.$.$.$.$.$.$.$.$.$.0 $.$.$.$.0 $.$.0 0 0 $.$.O.$.O.6 4 3                           ",
"                              3 4 0 O.0 0 0 0 0 0 0 0 0 0 q q 0 0 0 0 0 0 0 0 0 0 $.0 0 0 0 0 $.$.0 0 $.$.$.0 0 $.$.0 0 0 $.0 0 0 0 0 0 0 0 0 0 0 0 0 0 0 0 0 0 0 0 0 0 0 6 6 6 6 6 6 6 & 4..X#X+X X X X X[.[.[.[.[.{.{.{.{.{.{.[.{.{.[.~.R.j.; 4 6 7 7 6 6 6 6 q 0 0 0 0 0 0 0 q 0 0 0 0 0 0 0 0 0 0 0 0 0 0 0 0 0 0 0 0 0 0 0 0 0 0 0 0 0 0 0 0 0 0 0 0 0 0 0 0 0 0 0 -.-.0 0 0 0 0 0 0 0 0 0 0 $.$.$.0 0 0 $.0 0 $.$.$.$.:.:.:.:.:.:.:.$.$.$.$.$.$.$.$.$.$.0 $.$.0 0 0 0 0 0 0 0 $.$.$.$.O.X.6 9 T                           ",
"                              E 9 6 0 0 0 0 0 0 0 0 q -.q q 0 0 0 0 0 0 0 0 0 0 $.$.0 0 0 0 0 $.0 0 $.$.$.$.$.$.$.$.$.$.$.$.$.0 0 0 0 0 0 0 0 $.0 0 0 0 0 0 $.0 0 0 0 0 0 0 0 6 6 6 6 6 & 5..X#X+X X X X X[.{.{.{.{.{.{.{.{.{.{.{.[.{.[.~.R.j.; 4 7 7 7 6 6 6 0 0 0 $.0 0 0 0 0 0 0 0 0 0 0 0 0 0 0 0 0 0 0 0 0 0 0 0 $.0 0 0 $.$.0 0 0 0 0 q 0 0 0 0 0 0 0 0 0 0 0 0 0 0 0 0 q 0 0 0 0 0 0 0 0 0 0 $.$.$.$.$.$.$.$.$.$.:.:.:.:.:.:.:.:.$.$.$.$.$.$.$.$.0 0 $.$.0 $.$.0 $.$.0 0 $.$.$.O.$.X.X.X.7 u                             ",
"                                u 7 6 0 8 0 $.0 q 0 -.-.q q 0 0 0 0 0 0 0 0 $.$.$.$.0 0 0 0 0 0 $.$.$.$.$.$.O.O.$.$.$.$.$.$.$.$.$.$.$.0 0 0 $.0 $.$.$.0 0 0 0 0 0 0 0 0 0 0 0 6 6 6 6 6 & 5..X#X+X X X X X X X X{.{.[.[.{.{.{.{.{.{.{.].~.T.j.; 7 7 7 6 6 6 6 6 0 0 $.$.0 0 0 0 0 0 0 0 0 0 0 0 0 0 0 0 0 0 0 0 0 0 0 $.0 $.$.$.$.$.0 0 0 0 0 0 0 0 0 0 0 0 0 0 0 0 0 0 0 0 0 0 0 0 0 0 0 0 0 0 0 $.$.$.$.$.$.$.$.$.:.:.:.:.:.:.:.:.:.:.:.:.$.$.$.$.$.$.0 0 0 0 $.$.$.$.$.-.-.0 0 $.0 O.$.X.X.X.7 U                             ",
"                                U 9 6 6 8 0 0 0 -.$.q -.q q 0 0 q q 0 0 0 0 0 $.$.0 0 0 0 0 0 0 $.$.$.$.$.O.O.$.$.$.$.$.$.$.$.$.$.$.$.0 0 $.q q $.$.$.0 0 0 0 0 0 0 0 0 6 6 6 6 6 6 6 4 & 5..X#X+X X X X X X[.{.{.[.[.[.{.{.{.{.{.{.[.'.~.T.j.; 4 7 7 7 7 7 6 6 0 0 $.0 0 0 0 0 0 0 0 0 0 0 0 0 0 0 0 0 0 0 0 0 0 0 0 0 0 $.$.$.$.$.0 0 0 0 0 0 0 0 0 0 w 0 0 0 0 0 0 0 0 0 0 0 0 0 0 -.0 0 0 0 0 $.$.$.$.$.$.$.$.$.$.$.:.:.:.O.:.:.:.:.:.:.:.:.:.:.$.$.0 0 0 0 0 $.$.0 0 $.$.0 0 0 0 O.X.X.O.6 y                               ",
"                                  u 7 7 0 0 8 8 0 $.-.q 0 0 0 0 q 0 0 0 $.0 0 $.0 0 $.0 0 0 0 0 $.$.$.$.$.$.$.O.O.$.$.$.$.$.$.$.$.0 0 0 $.$.q q 0 $.$.0 0 0 0 0 0 0 0 0 6 6 6 6 6 6 4 7 * q..X#X+X X X X X X[.[.[.[.[.[.{.{.{.[.[.[.[.'.~.T.j.; 4 7 7 7 7 7 0 0 0 0 $.0 0 0 0 0 0 0 0 0 0 0 0 0 0 0 0 0 0 0 0 0 0 0 0 0 0 0 $.$.$.$.$.0 0 0 w 0 0 $.0 0 0 0 0 0 0 0 0 0 0 0 0 w w w 0 -.0 $.0 $.$.$.$.$.$.$.$.:.$.$.$.$.:.:.:.$.:.:.:.:.$.$.$.$.$.$.$.$.0 0 0 $.$.$.$.$.$.0 $.0 $.0 0 O.X.X.O.8 I                               ",
"                                  Y 5 7 6 6 7 0 $.$.$.0 $.$.$.$.$.$.$.$.0 0 $.$.$.0 0 0 $.$.$.0 $.$.$.$.$.$.$.$.$.$.$.$.$.$.$.$.0 0 0 0 0 0 q q 0 O.$.0 6 6 6 6 6 6 6 6 6 6 6 6 6 6 7 7 & 0..X#X+X X X X X{.{.{.{.{.[.[.[.[.[.[.[.[.[.].`.R.l.@ 5 4 7 7 7 0 0 0 6 0 0 6 6 7 7 7 7 6 6 6 0 0 0 0 0 0 0 0 0 0 0 0 0 0 0 0 0 $.$.$.$.$.$.0 0 0 0 0 0 0 0 0 0 0 0 0 0 0 0 0 0 0 0 0 w 0 0 0 $.$.$.$.$.$.$.$.$.$.:.:.$.$.:.:.:.:.$.$.$.$.$.$.$.$.$.$.$.$.$.$.0 0 0 $.$.0 0 0 $.$.$.0 $.$.0 X.X.X.6 y                                 ",
"                                    3 4 6 X.0 0 $.$.$.$.O.$.$.$.$.$.$.$.$.$.$.$.$.$.0 0 $.$.O.0 $.$.$.$.$.$.$.$.$.$.$.$.$.$.$.$.0 0 0 0 0 0 q q 0 $.O.0 7 6 6 6 6 6 6 6 6 6 6 6 6 7 7 7 * q..X#X+X X{.{.{.{.{.{.{.{.[.[.[.[.[.[.[.[.[.].~.R.j.@ 4 4 7 7 6 6 6 6 6 6 6 7 6 6 6 6 6 6 6 6 0 0 0 0 0 0 0 0 0 0 0 0 0 0 0 0 0 0 $.$.$.$.$.$.0 0 0 0 0 $.0 0 0 0 0 0 0 0 0 0 $.0 0 0 0 0 0 0 $.$.$.$.$.$.$.$.$.$.:.:.:.:.:.:.:.:.$.$.$.$.$.$.$.$.$.$.$.$.$.$.$.$.0 $.0 0 0 0 $.$.$.$.$.$.O.X.X.X.4 I                                 ",
"                                    A * 7 O.6 0 0 $.$.$.$.$.$.$.$.$.$.$.$.$.$.$.$.$.$.$.$.$.O.$.$.$.$.$.$.$.$.$.$.$.$.$.$.$.$.0 0 0 0 0 0 0 q 0 $.O.$.$.6 6 6 6 6 6 6 6 6 6 6 6 6 6 6 7 & 0.|.+X+X{.{.{.{.{.{.{.{.[.[.[.[.{.[.[.[.[.[.].`.R.j.O 4 7 7 6 6 6 6 6 6 6 6 7 6 7 7 7 6 6 6 6 0 0 0 0 0 0 0 0 0 0 0 0 0 0 0 0 0 0 0 $.$.$.$.0 0 0 0 0 0 0 0 0 0 0 0 0 0 0 0 0 0 0 0 0 0 0 0 0 $.$.$.$.$.$.$.$.$.$.$.:.:.:.:.:.:.:.$.$.$.$.$.$.$.$.$.$.$.$.$.$.$.$.$.0 0 0 0 0 $.$.$.$.$.O.O.0 6 6 <                                   ",
"                                      2 8 6 6 8 0 $.$.$.$.$.$.$.$.$.$.$.$.$.$.$.$.$.$.$.$.O.O.O.$.$.$.$.$.$.$.$.$.$.$.$.0 0 0 0 0 0 0 0 0 0 q q $.O.0 8 5 * & & & 5 5 5 * * * * 5 5 & & . 7.|.@X+X{.{.{.{.{.{.{.{.[.[.{.{.{.{.[.[.[.[.].`.R.j.o & & * 5 5 5 5 5 & & & & & & & & 5 7 6 7 0 0 0 0 0 0 0 0 0 0 0 0 0 0 0 0 0 0 0 0 $.$.$.0 0 0 0 0 0 $.$.$.0 0 0 $.0 0 0 0 0 0 0 0 0 0 0 $.$.$.$.$.$.$.$.$.$.$.:.:.$.:.:.:.:.$.$.$.$.$.$.$.$.$.$.$.$.$.$.$.$.$.0 0 $.0 0 $.$.$.$.$.$.$.O.X.6 4 U                                   ",
"                                      E r 0 $.0 0 $.$.$.$.$.$.$.0 $.$.$.O.O.$.$.$.$.$.$.$.$.$.$.$.$.$.$.$.$.$.$.$.$.0 0 0 0 0 0 0 0 0 0 0 0 0 0 0 0 4 n 4.0.4.4.4.4.4.4.0.0.0.0.0.q.0.4.7.k.XX#X+X[.[.{.{.{.{.{.{.[.{.{.[.{.{.[.[.[.[.].`.~.S.9.4.4.4.4.4.4.4.2.2.>.} } 2.2.2.2.Y - 7 6 0 0 0 0 0 0 0 0 0 0 0 0 0 0 0 0 0 $.$.0 0 $.$.0 $.$.$.$.0 $.0 $.0 0 0 0 0 0 0 0 0 0 0 0 0 0 0 $.$.$.$.$.$.$.$.$.:.:.:.:.:.:.:.$.:.:.$.$.$.$.$.$.$.$.$.$.$.$.$.$.$.$.$.$.$.$.$.$.$.$.$.$.$.O.X.6 7 y                                     ",
"                                        P 8 0 0 0 $.$.$.$.$.$.$.0 0 $.$.O.O.$.$.$.$.$.$.$.$.$.$.$.$.$.$.$.$.$.$.$.0 0 0 0 0 0 0 0 0 q 0 0 0 0 0 0 8 * 3.(.+XXXXX.X.X.X.XXXXXXXXXXXXXXXXX.XXX#X@XoX{.{.[.[.[.[.[.[.].].[.[.[.[.[.[.[.[.[.'.[.{.|..X.XXX.X|.|.}.}.}.}.}.}.}.}.}._.m.> 7 0 0 0 0 0 0 0 0 0 0 0 0 0 0 0 0 0 0 0 $.0 0 0 $.$.$.$.$.$.$.0 0 $.$.0 0 0 0 0 0 0 0 0 0 0 0 0 0 0 $.$.$.$.$.$.:.:.:.$.:.:.$.$.:.$.$.$.$.$.$.$.$.$.$.$.$.$.$.$.$.$.$.$.$.$.$.$.$.$.$.$.O.$.$.O.X.6 4 I                                     ",
"                                        Q y 8 0 $.$.0 0 $.$.$.$.0 $.$.$.0 O.$.$.$.$.$.$.$.$.$.$.$.$.$.$.$.$.$.$.$.0 0 0 0 0 0 0 0 0 0 0 0 0 0 0 0 8 * 1..X$X$X$X$X$X$X$X$X$X$X$X$X$X$X$X$X$X#X@X X{.[.[.[.[.[.[.{.{.[.{.[.[.[.[.[.[.[.[.[. X+X#X$X#X#X@X@X@X@X@X@X@X+X+X#X#X X/.n.> 8 0 0 0 0 0 0 0 0 0 0 q q 0 0 0 0 0 0 0 0 0 0 0 0 0 $.$.$.$.0 0 $.$.$.$.0 0 0 0 0 0 0 0 $.0 0 0 0 0 0 $.$.$.$.:.:.:.:.:.:.:.$.$.:.:.$.$.$.$.$.$.$.$.$.$.$.$.$.$.$.$.$.$.$.$.$.$.$.$.$.$.0 $.$.X.O.0 u                                       ",
"                                          I 9 0 0 0 8 0 $.$.$.$.$.$.$.$.O.O.$.$.$.$.$.$.$.$.$.$.O.$.$.$.$.$.$.$.$.0 0 0 0 0 0 0 0 0 0 0 0 0 0 0 0 0 * 1..X$X$X$X#X#X#X@X#X@X$X#X+X@X@X@X@X@X+XoX{.[.[.[.[.[.[.[.[.[.[.[.[.[.[.[.[.[.[.[.[. X+X+X+X+X+XoXoXoXoXoXoXoXoX+X+XoX'.R.n.; 4 0 0 0 0 0 0 0 0 0 0 q 0 0 0 0 0 0 0 0 0 0 0 0 0 0 $.$.$.$.$.$.$.$.$.$.0 0 0 $.$.0 0 0 $.$.0 0 0 0 0 0 $.$.$.:.:.:.:.:.:.:.$.$.$.$.$.$.$.$.$.$.$.$.$.$.$.$.$.$.$.$.$.$.$.$.$.$.$.6 $.$.$.$.O.O.O.r E                                       ",
"                                            < 4 6 6 0 0 6 X.$.$.$.$.$.$.O.O.O.X.$.$.$.$.$.$.$.$.$.$.$.$.$.$.$.0 0 0 0 0 0 0 0 0 0 0 0 0 0 0 0 0 0 0 * 1..X$X$XoX X X X X X X X X X X X{. X X{.[.[.[.[.[.[.[.[.[.[.[.[.[.[.[.[.[.[.[.[.{.[.[.[.[.[.[.[.[.[.{.{.[.[.[.{.{.[.].~.T.b.; 4 8 0 0 0 0 0 0 0 0 0 0 0 0 0 0 0 0 0 0 0 $.$.$.$.$.$.$.$.$.$.$.$.O.$.$.$.$.0 $.0 0 0 0 0 0 0 6 6 0 0 0 0 0 $.$.$.$.$.$.$.$.$.$.$.$.0 0 0 $.$.$.$.$.$.$.$.$.0 $.0 $.$.$.$.$.$.6 0 0 0 $.$.O.O.6 4 P                                         ",
"                                            N * 7 X.6 0 X.6 6 0 $.$.$.$.O.$.O.X.X.O.$.$.$.$.$.$.$.$.0 0 0 0 $.0 0 0 $.$.0 0 0 0 0 0 0 0 0 0 0 0 0 6 * 1..X$X@XoX[.[.[.[.{.{.{.{.[.[.[.{.[.[.[.[.[.[.[.[.[.[.[.[.[.[.[.[.[.[.[.[.{.[.[.[.[.[.].[.[.[.[.[.[.[.[.[.[.[.[.[.[.'.~.P.b.; 8 8 0 0 0 0 0 0 q q 0 0 0 0 0 0 0 0 0 0 0 $.$.$.$.$.$.$.$.$.$.$.$.$.$.$.$.$.0 0 $.$.$.$.0 0 0 $.0 0 $.0 0 0 $.$.$.$.$.$.$.$.$.$.$.$.0 0 0 $.$.$.$.$.$.$.$.$.0 $.$.$.$.$.$.$.$.0 0 0 $.$.$.O.6 7 <                                           ",
"                                              2 4 6 X.X.X.X.6 6 $.$.$.$.$.$.$.X.O.O.$.$.$.$.$.$.0 0 $.$.0 0 0 0 0 0 0 0 0 0 0 0 0 0 q 0 0 0 0 0 0 0 * 2.}.$X@X X[.[.{.{.{.{.{.[.[.[.[.{.{.[.[.[.[.[.[.[.[.[.[.[.[.[.[.[.[.[.[.[.{.[.[.[.[.[.[.[.[.[.[.[.[.[.[.[.[.[.[.{.[.'.~.P.b.; 8 0 0 0 0 0 0 0 q q 0 0 0 0 0 0 0 0 0 0 0 $.$.$.$.$.$.$.$.$.$.$.$.$.$.$.$.$.0 0 0 $.$.0 0 0 0 0 0 $.$.0 0 0 $.$.$.$.$.$.$.$.$.$.0 0 0 0 0 0 $.$.$.$.$.$.$.$.$.$.$.$.$.$.$.$.$.0 0 0 $.$.O.X.6 9 Y                                           ",
"                                              J < 7 6 6 6 X.6 0 $.$.$.$.$.$.$.$.$.$.$.$.$.$.$.$.0 0 $.$.0 0 0 $.q q q 0 0 0 0 0 0 0 0 0 0 0 0 0 0 0 5 2.}.$X@X X[.[.[.[.{.{.{.{.[.[.[.[.[.[.[.[.[.[.[.[.[.[.[.[.[.[.[.[.[.[.[.[.].].[.[.[.[.[.[.[.[.[.[.[.[.[.[.[.[.[.[.[.'.~.P.b.> 8 0 0 0 0 0 0 0 0 0 0 0 0 0 0 0 0 0 0 0 0 0 $.$.$.$.$.$.$.$.$.$.$.$.$.$.$.$.0 0 0 $.0 0 0 0 6 0 0 $.$.0 0 0 $.$.$.$.$.$.$.$.$.$.$.$.0 0 $.$.$.$.$.$.$.$.$.$.$.$.$.$.$.$.$.$.$.$.$.O.$.O.X.6 4 P                                             ",
"                                                c 5 7 7 6 X.0 0 X.O.$.$.6 $.$.0 $.$.$.0 0 0 $.$.0 0 0 $.$.0 0 0 0 0 $.0 0 0 0 0 0 0 0 0 6 6 6 0 0 8 * 2.}.#X@X X[.[.[.[.[.[.[.[.[.[.[.[.[.[.[.[.[.[.[.[.[.[.[.[.[.[.{.{.[.[.[.].].[.[.[.[.[.[.[.[.[.[.[.[.[.[.[.[.[.[.[.[.`.~.P.n.: 4 0 0 0 0 0 0 0 0 0 0 0 0 0 0 0 0 0 0 0 0 0 0 0 0 0 0 0 0 0 0 $.0 $.$.$.$.$.$.$.$.$.$.$.$.0 0 $.0 $.$.0 $.0 0 0 0 $.$.$.$.$.0 $.0 0 0 $.$.$.$.$.0 0 0 $.$.$.0 0 $.0 X.$.$.$.O.O.X.X.X.X.X.6 r ~                                             ",
"                                                  > 4 7 6 6 6 $.X.O.$.O.0 0 0 0 0 0 0 0 0 0 0 $.0 0 0 $.$.0 0 0 0 0 0 0 0 0 0 0 0 0 0 0 6 6 0 0 0 8 * 2.}.#X@X X[.{.{.{.{.[.[.[.[.[.[.[.[.[.[.[.[.[.[.[.[.[.[.[.[.[.{.{.[.[.].[.[.[.[.[.[.[.[.[.[.[.[.[.[.[.[.[.[.[.[.[.[.`.E.P.n.: 8 0 0 0 0 0 0 0 0 0 0 0 0 0 0 0 0 0 0 0 0 0 0 0 0 0 0 0 0 0 0 $.$.$.$.$.0 $.$.$.$.$.$.$.$.$.0 0 $.$.0 $.0 $.0 0 0 0 $.$.$.$.0 0 0 0 $.$.$.$.$.$.0 0 $.0 0 0 0 0 0 0 0 $.$.0 0 O.O.X.6 6 6 8 I                                               ",
"                                                  A * 7 $.X.6 6 $.$.$.$.0 0 0 0 $.O.0 0 0 0 0 $.$.$.$.$.0 0 0 0 0 0 0 0 0 0 0 0 0 0 0 0 6 0 0 0 0 8 * 3.}.#X@X X[.{.{.{.{.[.[.[.[.[.[.[.[.[.[.[.[.[.[.[.[.[.[.[.[.[.[.[.[.].[.[.[.[.[.[.{.].[.[.[.[.[.[.[.[.[.[.'.'.].[.[.`.~.P.x.1 8 8 0 -.0 0 0 0 0 0 q q 0 0 0 0 0 0 0 0 0 0 0 0 0 0 0 0 0 0 0 0 $.$.O.O.O.$.$.$.$.$.$.$.$.$.0 0 0 0 $.0 0 $.0 0 0 0 $.$.$.0 0 0 0 0 $.$.$.$.$.0 0 0 0 0 0 0 0 $.$.0 0 0 0 0 0 O.X.X.6 4 4 u                                                 ",
"                                                    n 4 7 6 6 6 O.$.$.$.0 0 0 $.$.$.$.$.0 0 0 0 0 0 0 0 $.0 $.0 0 0 $.0 0 0 0 q 0 0 0 0 6 0 0 0 0 8 * 2.}.$X@X X X{.{.{.{.{.[.[.[.[.[.[.[.[.[.[.[.[.[.[.[.[.[.[.[.[.[.[.[.[.[.[.[.[.[.[.{.{.{.{.[.[.[.[.[.'.[.[.'.[.'.[.[.`.E.P.x.1 9 8 0 $.0 0 0 0 0 0 0 q 0 0 0 0 0 0 0 0 0 0 0 0 0 0 0 0 0 0 0 0 $.$.$.$.$.$.$.$.$.$.0 $.$.$.0 0 0 0 0 0 0 $.0 0 0 0 0 0 0 0 0 0 0 0 0 $.$.$.$.$.0 0 0 0 0 0 0 $.0 $.$.$.$.$.O.O.X.X.6 4 < ^                                                 ",
"                                                      1 4 6 0 6 $.$.$.$.$.0 0 $.$.$.$.$.$.0 0 0 0 0 0 0 0 0 0 0 0 0 -.0 0 0 0 0 0 0 0 0 0 0 0 0 0 8 * 2.}.$X@X X[.{.{.[.{.[.[.[.[.[.[.[.[.[.[.{.[.[.[.[.[.[.].[.].].[.[.[.[.[.[.[.[.[.[.[.[.[.[.[.[.[.[.[.[.[.[.].'.'.[.[.`.R.L.x.1 8 0 0 0 0 0 0 0 0 0 0 0 0 0 0 0 0 0 0 0 0 0 0 0 0 0 0 0 0 $.$.$.$.$.$.$.$.$.$.$.$.$.$.$.$.0 0 0 0 0 0 0 0 0 0 0 0 0 0 0 0 0 0 0 0 0 0 0 0 0 $.$.0 0 0 0 $.$.0 0 0 $.$.$.O.$.O.O.X.6 6 4 P                                                   ",
"                                                      F - 7 0 0 $.$.$.$.O.O.0 O.$.$.$.$.0 0 0 0 0 0 0 $.0 0 0 0 0 0 q 0 0 0 0 0 0 0 0 0 0 6 8 0 0 8 * 2.}.$X#X X[.[.[.[.[.[.[.[.[.[.[.[.[.[.{.[.[.[.{.[.].].].].].].[.].[.[.[.[.[.[.[.[.[.[.[.[.[.[.[.[.[.[.[.[.'.'.'.[.[.`.R.P.n.2 8 0 0 $.$.$.$.0 0 0 w 0 0 0 0 0 w 0 0 0 0 0 0 0 0 $.$.0 $.$.$.$.$.$.$.$.$.$.$.$.$.$.$.$.$.0 0 0 0 0 $.$.$.0 0 0 0 $.0 0 0 0 0 0 0 0 0 0 0 -.$.$.$.0 0 0 $.0 $.0 0 $.$.$.O.O.O.X.X.6 6 2                                                     ",
"                                                        M 9 0 0 $.O.$.$.O.O.O.O.0 $.$.$.0 0 0 0 0 0 0 0 0 0 0 0 0 0 0 0 0 0 0 0 0 0 0 0 0 0 0 0 0 0 * 2.}.$X@X X[.[.[.[.[.[.[.[.[.[.[.[.[.[.[.[.].[.[.[.].].].].].[.[.].[.[.[.[.[.[.[.[.[.[.[.[.[.[.].].[.'.'.[.'.'.'.[.[.`.E.P.n.2 8 0 0 $.$.$.0 0 $.0 0 0 0 0 0 0 0 0 0 0 0 0 0 0 0 0 0 0 0 0 $.$.$.$.$.0 0 0 $.$.$.$.0 $.$.0 $.0 0 0 $.$.0 0 0 0 0 0 0 0 0 0 0 0 0 0 0 0 0 -.$.$.0 0 0 0 0 0 0 $.0 O.O.O.O.O.O.X.6 6 r                                                       ",
"                                                          h 4 7 O.O.$.$.O.O.O.O.O.$.$.$.0 $.0 0 0 0 0 0 0 0 0 0 0 0 0 0 q q q 0 0 0 0 0 0 0 0 0 0 0 * 2.}.$X@X X[.[.[.[.[.[.[.[.[.[.[.[.[.[.[.[.[.[.[.[.[.[.[.[.].].].[.[.[.[.[.[.[.[.[.[.'.'.[.].'.'.'.'.'.'.'.'.'.'.[.[.`.E.P.n.2 8 0 0 $.$.$.0 $.0 0 0 0 0 0 0 0 0 0 0 0 0 0 0 0 0 0 w 0 0 $.$.$.$.$.0 0 0 0 $.$.$.$.$.$.$.0 $.0 0 $.$.0 0 0 0 0 0 0 0 0 0 0 0 0 0 w 0 0 q $.$.$.0 0 0 0 0 0 0 0 0 $.O.O.O.0 O.X.0 9 Y                                                       ",
"                                                            2 4 6 O.O.$.O.O.O.O.O.O.O.0 0 0 0 0 0 0 0 q 0 0 0 0 0 0 0 0 0 0 0 0 0 0 0 0 0 0 0 0 0 0 5 2.}.$X@X X[.[.[.[.[.[.[.[.[.[.].].[.[.[.[.[.[.[.[.[.[.[.[.[.[.[.[.[.[.[.[.[.[.[.[.[.[.[.'.'.].'.'.'.'.'.'.'.'.'.[.[.`.E.P.n.1 7 6 0 0 0 0 0 0 0 w 0 0 0 0 0 0 0 0 0 0 0 0 0 0 0 0 0 0 0 0 0 0 0 0 0 0 0 0 0 0 0 $.$.$.0 0 $.$.$.0 0 0 0 0 0 0 $.0 0 0 0 0 0 0 0 0 0 q -.0 0 0 0 0 0 0 0 0 $.O.O.O.O.O.X.6 6 6 8 P                                                         ",
"                                                            Y - 7 6 O.O.O.O.O.0 0 O.0 0 0 0 0 0 0 0 0 0 q q 0 0 0 0 0 0 0 0 0 0 0 0 0 0 0 0 0 0 0 0 5 2.}.$X@X X[.[.[.[.[.[.[.[.].[.[.[.[.[.[.[.[.[.[.[.[.[.[.[.[.[.[.[.[.[.[.[.[.[.[.[.[.[.[.[.[.'.'.'.'.[.[.[.[.[.[.[.[.[.~.P.n.1 8 0 0 0 0 0 0 0 0 0 0 0 0 0 0 0 0 0 0 0 0 0 0 0 0 0 0 0 0 0 0 0 0 0 0 0 0 0 0 0 0 0 $.0 0 $.$.0 $.0 0 0 0 0 0 $.$.0 0 0 0 0 0 0 0 0 0 0 q 0 0 0 $.0 0 0 0 $.O.O.O.O.X.X.X.X.6 4 u                                                           ",
"                                                              n * 7 X.X.X.X.6 6 0 0 0 0 0 0 0 0 0 0 0 0 q 0 0 0 0 0 0 0 0 0 0 0 0 0 0 0 0 0 0 $.0 0 5 2.}.#X@X X[.[.[.[.[.[.[.[.[.[.[.[.[.[.[.[.[.[.[.[.[.[.[.[.[.[.[.[.[.[.[.'.].].[.[.[.[.[.[.[.[.[.[.[.[.[.[.[.[.[.[.'.`.~.P.x.1 8 0 0 0 0 0 0 0 0 0 0 0 0 0 0 0 0 0 0 0 0 0 0 0 0 0 0 0 0 0 0 0 0 0 0 0 $.0 0 0 0 0 $.$.$.$.$.0 0 0 0 0 0 0 0 $.$.$.0 0 0 0 0 0 0 0 0 0 0 0 0 0 $.0 0 0 $.O.O.O.O.X.X.X.6 6 6 r                                                             ",
"                                                                g 5 6 6 6 X.6 6 0 $.0 0 0 0 0 0 0 0 0 0 0 0 0 0 0 0 0 0 0 0 0 0 0 0 0 0 0 0 0 0 0 0 * 2.}.#X@X X{.{.{.{.[.[.[.[.[.[.[.[.[.[.[.[.[.[.[.[.[.[.[.[.[.[.[.[.[.[.[.'.'.'.'.'.'.[.[.[.[.[.[.[.[.[.[.[.[.[.[.[.[.'.E.P.x.: 8 8 0 0 0 0 0 0 0 0 0 0 0 0 $.$.0 0 0 0 0 0 0 0 0 0 0 0 0 0 0 0 0 0 0 0 0 0 0 0 0 0 0 0 $.$.0 0 0 0 0 0 0 0 0 $.$.$.0 0 0 0 0 0 0 0 0 0 0 0 0 0 $.0 0 $.$.O.O.X.X.X.X.6 6 6 9 U                                                             ",
"                                                                  3 8 6 X.X.6 6 O.0 0 0 0 0 0 0 0 0 0 0 0 0 0 0 0 0 0 q 0 0 6 0 0 0 0 0 0 $.$.0 0 0 * 3.}.#X@X{.{.[.{.[.[.[.[.[.].[.[.[.[.[.[.[.[.[.[.[.[.[.[.'.].[.[.].'.'.'.'.'.'.'.'.'.'.'.'.[.[.[.[.'.'.[.[.[.[.[.[.[.'.E.P.l.; 8 8 q 0 0 0 0 0 0 0 0 0 0 0 0 0 0 0 0 0 0 0 0 0 0 0 0 0 0 0 0 0 0 0 0 0 0 0 0 0 0 0 0 0 0 0 0 0 0 0 0 0 0 0 0 0 0 0 0 0 0 0 0 0 0 0 0 0 0 0 $.0 0 0 O.O.O.O.O.X.X.X.X.6 4 & P                                                               ",
"                                                                    3 7 6 X.6 X.X.0 0 0 0 0 0 0 0 0 0 0 q q q 0 0 0 q 0 0 0 0 0 0 0 0 0 $.0 $.$.0 0 * 3.}.#X+X{.{.{.[.[.[.[.[.[.[.[.[.[.[.[.[.[.[.[.[.[.].].].].'.].'.].].'.'.'.'.'.'.'.'.'.].].'.'.'.'.'.'.'.'.'.'.[.[.[.'.~.P.z.; 4 8 0 0 q 0 0 0 0 0 0 0 0 0 0 0 0 0 0 0 0 0 0 0 0 0 0 0 0 0 0 0 0 0 0 0 0 0 0 0 0 0 0 0 0 0 0 0 0 0 0 0 0 0 0 0 0 0 $.$.0 0 0 0 $.$.0 $.0 0 $.0 0 0 O.O.O.O.X.X.X.X.X.6 4 P                                                                 ",
"                                                                    E < 7 6 6 6 6 $.6 0 0 0 0 0 q q 0 0 0 0 0 0 0 0 0 0 0 0 0 0 0 0 0 0 $.$.$.$.0 6 * 3.}.#X@X{.[.{.[.[.[.[.[.[.[.[.[.[.[.[.[.[.[.[.[.].].].].].'.'.'.'.'.'.'.'.[.[.'.].].'.].'.'.'.'.'.'.'.'.'.'.'.[.[.'.`.~.P.x.; 8 8 q 0 0 0 0 0 0 0 0 0 0 0 0 0 0 0 0 0 0 0 0 0 0 0 0 0 0 0 0 0 0 0 0 0 $.0 0 0 0 0 0 0 0 0 0 0 0 0 0 0 0 0 0 0 0 0 $.$.0 0 0 0 $.$.0 0 0 0 6 0 0 $.O.O.O.X.X.X.X.X.6 4 3                                                                   ",
"                                                                      M - 7 7 6 X.0 0 0 0 0 0 0 0 q 0 0 0 0 0 0 0 0 0 0 0 0 0 0 0 q 0 0 0 $.O.0 6 6 * 3.}.#X@X{.[.[.[.[.[.[.[.[.[.[.[.[.[.[.[.[.[.[.[.'.'.'.'.'.'.'.'.'.[.'.'.'.'.[.'.[.[.'.[.[.'.'.'.`.'.'.[.[.'.[.[.[.[.`.E.P.b.; 4 8 0 0 0 0 0 0 0 0 0 0 0 0 0 0 0 0 0 0 0 0 0 0 0 0 0 0 0 0 0 0 0 0 0 0 0 0 0 0 0 0 0 0 0 0 0 0 0 0 0 0 0 0 0 0 0 $.$.$.0 0 0 0 $.$.0 0 0 0 0 0 0 $.O.O.X.X.X.X.X.6 7 u                                                                     ",
"                                                                        n * 4 7 6 6 0 0 6 6 X.$.0 0 0 0 0 6 6 6 6 6 6 6 0 0 0 0 0 0 0 0 6 6 0 0 0 0 * 3.}.+X{.'.`.`.`.~.`.~.`.`.`.`.`.~.`.`.`.~.~.~.~.~.~.~.~.~.~.~.~.~.~.~.~.~.~.~.~.~.~.~.~.~.~.~.~.~.~.!.~.~.~.~.~.~.~.~.R.P.n.> 4 8 0 0 0 0 0 0 0 0 6 0 0 0 0 0 0 0 0 0 0 0 0 0 0 0 0 0 0 0 0 0 0 0 0 0 0 0 0 $.$.0 0 0 0 0 0 0 0 0 0 0 0 0 0 0 0 0 0 0 0 0 0 0 $.0 0 0 0 0 6 X.O.O.O.O.O.X.X.X.X.7 r                                                                       ",
"                                                                          f * 7 6 X.X.O.X.6 6 6 0 0 0 0 0 6 6 6 6 6 6 6 0 0 0 0 0 6 0 0 6 6 0 0 7 0 * 3.).[.~.R.T.T.T.T.T.T.T.T.T.T.T.T.T.T.T.T.T.T.T.T.T.T.T.T.T.T.T.P.T.T.T.T.T.T.T.T.T.T.T.T.T.P.P.P.P.P.P.P.P.P.P.P.T.T.P.L.n.> 7 7 0 0 0 0 0 0 0 0 6 0 6 0 0 0 0 0 0 0 0 0 $.$.$.$.0 q 0 0 $.$.$.0 0 0 0 0 0 $.$.0 0 0 0 0 0 0 0 0 0 0 0 0 0 0 0 0 0 0 0 0 0 0 $.X.0 0 0 0 $.$.O.$.O.O.X.X.6 6 6 r Y                                                                       ",
"                                                                            n 5 7 6 X.O.O.6 6 6 0 0 0 0 0 0 q 7 0 0 0 0 0 0 0 0 0 0 0 0 6 X.6 6 0 7 5 | I.J.G.F.F.F.F.G.G.G.G.G.F.F.F.G.G.G.G.G.G.G.G.F.G.F.F.G.F.F.F.F.G.G.G.G.F.G.G.G.G.H.G.F.F.H.H.F.F.F.F.F.F.F.F.F.F.F.F.H.v.> 7 7 0 0 0 0 0 0 0 0 0 0 0 0 0 0 0 0 0 0 0 0 $.$.$.$.0 0 0 $.0 $.$.$.0 0 0 0 0 $.0 0 0 0 0 0 0 0 0 0 0 0 0 0 0 $.0 0 0 0 0 0 0 0 0 0 $.$.$.$.$.$.$.$.X.X.X.6 6 4 - U                                                                         ",
"                                                                              g 9 0 0 O.X.0 0 6 0 0 0 6 0 0 0 6 7 0 6 0 0 0 0 0 0 0 0 0 6 6 6 6 6 6 4 h Q Q K K Q Q Q L Q W Q Q Q W L Q Q ( ( ( L L L L L L L ! ! Q Q Q L ( [ [ L Q Q Q [ ! { { Q Q Q W L L L W W W W W L K K W U - 7 6 0 6 0 0 0 0 0 0 0 0 0 0 0 0 0 0 0 0 0 $.0 0 0 0 0 0 0 $.$.$.$.$.0 0 0 0 0 0 0 0 0 0 0 0 0 0 0 0 0 0 0 0 0 $.0 0 0 0 0 $.0 0 0 0 $.$.$.$.$.$.$.$.X.X.X.6 6 9 Y                                                                           ",
"                                                                                h 8 0 6 6 6 6 6 0 0 0 0 0 0 0 0 0 0 0 0 0 0 0 0 0 0 0 0 0 0 0 0 6 6 7 5 * * % * * * * * * * * * * * * * * * * * * % % * * * * * * * * % * * * * * * * * - - * - 5 * * * * * * * * * * * * * * * 5 7 7 0 0 0 0 0 0 0 0 0 0 0 0 0 0 0 0 0 0 $.0 0 0 0 0 $.$.0 0 $.0 0 0 $.$.$.0 0 0 0 0 0 0 0 0 0 0 0 $.$.$.$.$.0 $.$.$.$.0 $.$.$.0 0 0 $.$.$.$.O.O.O.O.X.X.X.6 6 9 U                                                                             ",
"                                                                                  3 9 7 6 6 6 6 0 0 0 0 0 0 0 6 0 0 0 0 0 0 0 0 0 0 0 0 0 0 0 0 6 6 6 7 7 7 4 7 7 7 7 7 7 7 7 7 7 7 7 7 7 4 4 4 4 4 4 4 4 4 7 7 4 4 4 4 4 4 4 4 7 7 7 7 8 8 8 8 7 0 7 7 7 7 7 7 7 7 7 7 4 4 4 7 7 6 6 6 0 0 0 0 0 0 $.$.0 0 0 0 0 0 0 0 $.0 0 0 0 0 0 $.0 $.0 0 0 0 $.$.$.$.0 $.0 0 0 0 0 0 0 0 0 $.$.$.$.$.$.$.$.$.$.$.$.$.$.0 $.$.0 $.$.$.$.$.O.O.O.X.X.X.6 9 U                                                                               ",
"                                                                                    f * 6 6 6 X.X.$.O.O.0 0 0 6 0 0 0 0 0 0 0 0 0 0 0 0 0 0 0 0 0 0 7 7 7 7 7 7 7 7 7 7 7 7 7 7 7 7 7 7 7 7 4 7 7 7 7 7 7 7 7 7 7 8 7 7 7 7 7 7 7 7 7 7 8 8 8 8 8 7 7 7 7 7 7 7 7 7 7 7 7 7 7 7 7 6 6 6 0 0 0 0 0 $.0 0 $.0 $.0 0 0 0 0 0 0 0 0 0 0 0 0 0 0 0 0 $.0 0 0 0 0 0 0 $.$.0 0 $.$.$.$.$.$.$.$.$.$.0 0 $.0 $.$.$.$.0 $.$.$.0 $.$.$.$.O.O.O.X.X.X.6 r R                                                                                 ",
"                                                                                      g 8 6 6 6 X.$.O.O.0 0 0 0 0 0 0 0 0 0 0 0 0 0 0 0 0 0 0 0 0 0 0 7 7 7 7 7 7 7 7 7 7 7 7 7 7 7 7 7 7 7 7 7 7 7 7 7 7 7 7 7 7 7 7 7 7 7 7 7 7 7 7 7 8 8 8 8 7 7 7 7 7 7 7 7 7 7 7 7 7 7 7 7 7 0 0 6 0 0 0 0 0 0 0 0 0 0 $.$.0 0 0 0 0 0 0 0 0 0 0 0 0 0 0 $.0 0 0 0 $.0 0 0 $.$.0 0 0 $.$.$.$.$.0 $.$.$.0 $.$.$.0 0 $.$.$.$.$.$.0 $.O.O.O.X.X.X.X...6 r Y                                                                                   ",
"                                                                                        n 5 7 6 X.X.O.O.O.$.0 0 0 0 0 0 0 0 0 0 0 0 0 0 0 0 0 0 0 6 6 7 7 7 7 7 7 7 7 7 0 8 8 6 7 6 7 6 7 7 7 7 7 7 7 7 7 7 7 7 7 7 7 7 7 7 7 7 7 7 7 7 7 6 6 6 7 7 7 7 7 7 7 7 7 7 8 7 7 7 8 8 8 8 8 8 0 0 0 0 0 0 $.$.0 0 0 0 0 0 0 6 6 6 0 6 $.$.$.0 0 0 0 $.0 0 0 0 0 0 0 0 $.$.$.$.0 0 $.0 0 $.$.$.$.$.$.$.$.$.$.0 $.$.$.0 O.O.O.$.O.@...X.X...6 4 9 I                                                                                     ",
"                                                                                          f % 4 6 X.X.X.X.$.$.0 0 0 0 0 0 0 0 0 0 0 0 0 0 0 0 8 0 6 6 6 6 6 6 7 7 6 7 6 0 0 0 0 6 6 6 6 6 6 0 0 6 7 7 6 6 6 6 7 7 6 6 6 6 6 8 8 0 6 6 6 6 6 6 6 7 6 0 6 0 8 7 7 0 0 0 8 0 0 8 0 0 0 0 0 0 0 0 0 0 0 0 0 0 0 0 $.6 0 0 6 6 0 6 6 $.$.$.0 0 0 $.$.0 0 0 0 0 0 0 0 $.$.$.$.$.0 $.0 0 0 $.0 0 $.$.$.$.$.$.$.$.$.$.$.$.O.O.O.O.....X.X.6 4 < U                                                                                       ",
"                                                                                            B < 7 6 6 X.X.O.O.0 0 0 0 0 0 0 0 0 0 0 0 0 0 0 0 0 0 6 6 6 6 6 6 6 6 6 6 6 0 6 6 6 6 6 6 6 6 6 7 7 7 7 7 7 7 7 7 7 7 6 6 6 6 7 7 6 7 6 6 7 7 6 6 6 6 6 6 6 0 0 0 0 0 0 0 0 0 0 0 0 0 0 0 0 0 0 0 0 0 0 0 0 0 0 0 0 0 0 0 6 6 0 0 6 0 0 0 0 0 0 0 $.$.$.$.$.0 $.0 0 $.$.$.$.$.0 0 $.0 0 $.$.0 $.$.$.$.$.0 $.$.$.$.$.$.O.O.O.O.X.X.X...4 2 Q                                                                                         ",
"                                                                                              F < 4 7 6 X.X.X.X.$.0 0 0 0 0 0 0 0 0 0 0 0 0 0 0 6 6 6 6 6 6 6 6 6 6 6 6 6 6 6 6 6 6 6 6 6 6 0 6 6 7 6 6 6 6 6 6 7 6 0 0 0 0 0 0 0 0 0 6 0 0 0 0 0 0 0 8 0 0 0 0 0 0 0 0 0 0 0 0 0 0 0 0 0 0 0 0 0 0 0 0 0 0 0 0 0 0 0 0 6 6 0 0 0 0 0 0 0 0 0 0 $.0 $.$.$.$.0 0 $.$.0 $.$.0 0 0 0 0 0 0 0 $.0 $.$.$.$.$.$.$.0 0 O.O.O.O.X.X.X.X.7 u                                                                                             ",
"                                                                                                K 3 4 6 6 X.X.X.O.O.0 O.O.O.O.0 0 0 0 0 0 0 0 0 0 0 0 0 0 0 0 6 6 6 6 6 6 6 0 6 0 0 0 0 0 0 6 6 6 6 6 6 6 0 0 6 0 0 0 0 0 0 0 6 6 6 6 6 6 0 0 0 0 0 0 0 0 0 0 0 0 0 0 0 0 0 0 0 0 0 0 8 0 0 0 0 0 0 0 0 0 0 0 0 0 0 0 0 0 0 0 0 $.$.$.0 $.$.$.0 0 0 0 0 $.$.0 0 0 0 0 0 0 0 0 $.$.0 0 0 $.$.$.$.0 0 $.$.$.$.$.$.O.O.O...X.X.6 7 j                                                                                               ",
"                                                                                                    , 5 7 6 6 6 O.O.O.O.O.O.$.O.0 0 0 0 0 0 0 0 0 0 0 0 0 0 6 6 6 6 X.0 6 6 6 6 6 0 6 6 6 0 6 6 6 6 6 6 X.0 0 6 6 6 6 0 6 6 6 6 6 6 6 6 6 0 0 0 0 0 0 0 0 0 6 6 0 0 0 0 0 0 0 0 0 0 0 0 8 0 0 0 0 0 0 0 0 0 0 $.0 $.X.6 0 0 0 0 $.$.$.$.$.$.$.$.0 $.$.$.$.$.$.0 0 0 0 $.0 0 0 0 $.$.$.$.$.$.0 0 0 $.$.$.$.$.$.$.O.X.X.....6 9 P                                                                                                 ",
"                                                                                                      h 9 7 7 6 O.O.O.O.O.O.O.O.0 0 0 0 0 0 0 0 0 0 0 0 0 X.6 6 6 6 0 0 X.X.6 6 6 0 0 6 6 6 X.6 X.X.6 6 X.O.0 0 6 6 6 6 6 6 6 6 6 6 6 X.6 6 6 0 0 0 0 0 0 6 6 6 0 0 0 0 0 0 0 0 0 0 0 0 0 0 0 0 0 0 0 0 0 $.$.$.$.0 $.0 0 0 0 0 $.$.$.$.0 0 $.$.$.$.0 $.0 $.0 0 0 0 0 0 0 0 $.0 0 $.$.$.0 0 0 0 0 $.$.$.$.$.O.@.X.X.X.X.4 - U                                                                                                   ",
"                                                                                                        U r 4 6 O.X.X.X.X.O.O.0 6 0 6 0 6 0 0 0 0 0 0 0 0 6 0 6 6 6 6 0 6 0 0 0 6 0 6 0 6 6 6 6 X.6 6 6 X.O.0 0 6 6 0 6 6 6 6 6 6 X.X.6 6 6 0 6 0 0 0 0 0 0 6 6 0 0 0 0 0 0 0 0 0 0 0 0 0 0 0 0 0 0 0 6 6 $.0 0 $.0 0 0 0 0 0 0 0 $.$.$.0 0 $.$.$.$.$.$.0 0 $.0 0 0 $.$.0 0 $.0 0 $.$.$.$.$.$.0 $.$.$.$.X.....o.....X.7 < T                                                                                                     ",
"                                                                                                          W 3 7 6 6 6 6 X.X.O.X.6 6 6 6 6 6 0 0 0 0 0 6 0 0 0 0 6 6 6 6 0 6 6 0 0 6 6 0 6 6 6 6 O.O.O.O.X.6 6 6 6 6 6 6 6 0 0 0 6 6 6 6 0 0 0 0 0 0 0 0 0 0 0 0 0 0 6 6 0 0 0 0 0 0 0 0 0 0 0 0 0 0 0 0 6 6 0 0 0 0 0 $.$.$.$.$.$.$.$.$.0 0 0 $.$.$.$.$.$.0 0 0 $.$.$.$.0 $.O.6 $.$.$.0 $.$.$.$.$.$.$.$...........X.4 3                                                                                                         ",
"                                                                                                              h 5 4 6 6 X.X.X.X.6 X.X.X.0 0 0 0 7 6 0 0 6 0 0 0 6 6 6 6 0 0 0 6 6 0 0 0 6 6 6 6 O.O.O.O.0 6 X.X.0 6 6 6 6 0 0 6 6 X.6 6 0 0 0 0 6 0 0 0 0 0 6 6 6 6 6 6 0 6 0 0 0 0 0 0 0 0 0 0 $.$.0 6 6 6 0 0 0 0 0 0 0 $.$.$.$.$.$.$.$.0 $.$.$.$.$.$.$.$.0 0 $.$.$.0 0 $.$.6 $.X.0 0 $.$.$.$.$.$.$.O...X.X.X.6 r P                                                                                                           ",
"                                                                                                                M < 4 6 X.X.X.X.X.X.6 6 6 6 0 0 0 0 0 0 0 0 0 6 6 6 6 6 6 0 6 6 6 0 0 0 6 6 0 0 O.O.O.O.0 X.X.X.6 6 6 6 0 0 0 0 6 X.0 0 0 0 $.0 6 0 0 0 0 6 6 6 0 0 0 6 0 0 0 0 0 0 6 0 0 0 0 0 $.$.$.0 0 0 0 0 0 0 0 0 $.$.$.$.$.$.$.$.$.$.$.$.$.$.$.$.$.$.0 0 $.$.$.$.$.0 0 0 $.$.0 $.0 $.$.$.O.X.X.X.X.X.6 4 t Y                                                                                                             ",
"                                                                                                                  Q 1 4 6 X.6 6 6 X.6 6 6 6 6 6 6 6 6 6 0 0 0 6 6 6 6 6 6 0 0 6 6 6 6 6 6 6 6 6 O.O.O.O.O.O.O.6 6 6 6 6 6 6 6 6 6 0 0 0 0 0 $.0 0 0 0 0 6 6 6 6 6 6 6 6 0 0 0 0 0 0 6 0 0 0 0 0 $.$.X.0 6 0 0 0 0 0 0 0 0 0 $.$.$.$.$.$.$.$.$.$.0 $.$.$.$.0 0 0 0 $.$.$.X.0 0 6 X.$.X.X.X.X.$.X.X.X.X.6 X.6 9 P                                                                                                                 ",
"                                                                                                                      n 9 4 7 6 6 6 6 6 7 0 0 6 6 0 0 6 0 0 0 0 6 6 6 6 0 0 X.6 6 O.0 6 X.6 6 6 0 O.0 0 O.O.0 O.O.O.O.O.0 0 0 0 $.O.$.0 0 0 0 0 0 0 0 0 0 0 6 6 0 0 0 0 $.0 0 0 0 0 0 0 0 0 0 0 0 0 0 0 0 0 0 0 0 $.0 0 0 0 $.$.$.$.$.$.$.$.$.$.0 0 0 $.$.$.$.$.0 0 0 6 0 O.O.O.X.X.X.X.X.X.X.X.X.X.X.6 7 r U                                                                                                                   ",
"                                                                                                                        Y < 4 4 6 6 6 6 6 0 0 6 6 6 6 6 O.0 0 6 6 6 6 0 O.X.X.6 X.O.0 X.X.X.6 6 0 0 0 0 0 O.0 O.O.O.O.O.0 0 0 0 $.O.0 0 0 0 $.0 0 0 0 0 6 6 6 6 6 0 0 0 $.0 0 0 0 0 0 0 0 $.0 6 0 $.0 0 0 0 0 0 0 0 0 0 0 $.0 $.0 0 $.$.0 0 O.O.0 0 0 0 $.$.0 $.0 0 6 6 0 O.O.O.X.X.X.X.X.X.X.X.X...7 5 u                                                                                                                       ",
"                                                                                                                            g * 7 6 6 6 X.$.$.0 6 6 6 6 0 0 0 6 6 0 6 0 O.X.X.X.O.O.O.X.X.X.6 6 0 0 0 0 0 O.0 0 O.O.O.O.$.0 0 $.$.O.0 0 $.0 0 0 0 0 0 0 0 6 0 0 0 0 0 0 $.$.0 $.0 0 0 0 0 0 0 0 0 0 0 0 0 0 0 0 0 0 0 0 0 0 $.$.0 0 $.$.$.0 $.O.0 0 0 0 0 0 0 $.0 0 X.6 0 O.O.O.X.X.X.X.X.X.X.6 6 4 t Y                                                                                                                         ",
"                                                                                                                              W 3 4 7 6 X.O.X.6 O.X.6 6 0 0 0 6 0 0 0 0 O.O.X.O.O.O.0 O.6 6 X.6 0 0 0 0 O.O.0 0 O.O.O.O.O.$.0 $.0 0 0 0 O.0 0 0 0 0 0 0 0 6 0 6 $.0 0 0 0 $.0 0 0 0 0 0 0 0 0 0 0 0 0 0 0 0 0 0 0 0 0 0 0 0 $.$.$.0 $.0 $.0 $.O.0 0 0 0 0 0 0 $.X.O.O.X.X.X.X.X.X.X.X.......6 7 9 P                                                                                                                             ",
"                                                                                                                                  U < 4 6 X.6 6 X.X.O.6 0 6 0 0 0 0 O.O.6 O.X.6 O.O.X.6 X.O.0 0 0 0 0 0 O.0 0 6 O.O.O.O.O.O.O.O.0 0 0 0 0 0 0 6 0 0 0 0 6 6 6 6 0 0 0 0 0 0 0 0 0 0 0 0 0 0 0 0 0 0 $.$.0 0 0 0 0 0 0 0 0 0 0 0 0 $.0 0 0 0 0 0 0 0 0 0 0 0 0 0 O.O.O.X.X.X.X.X.X.X.X.6 ..6 4 3 E                                                                                                                               ",
"                                                                                                                                    } n 9 7 6 6 6 6 O.6 0 6 0 0 O.O.O.O.O.X.X.0 O.O.6 6 O.O.0 0 0 0 6 0 0 0 0 O.0 0 0 O.O.O.O.O.0 0 0 0 0 0 0 6 0 0 0 6 6 6 0 6 0 0 0 0 0 0 0 0 0 0 0 0 0 0 0 0 0 $.$.$.0 0 0 0 0 0 0 0 0 0 0 0 0 0 0 0 0 0 0 0 0 0 0 0 0 0 0 0 O.O.O.X...X.X.X.....6 4 4 < U                                                                                                                                   ",
"                                                                                                                                        Q j 5 4 6 X.6 6 6 O.O.0 O.O.O.O.X.X.X.X.X.O.0 6 O.O.O.O.0 6 6 6 0 O.0 0 0 O.0 O.O.O.O.O.0 0 0 0 0 0 0 6 0 0 0 0 0 0 0 0 0 0 0 0 0 0 0 0 0 0 0 0 0 0 0 0 $.$.$.$.0 0 0 $.$.$.0 0 0 0 $.$.0 0 0 0 0 0 0 0 0 0 0 0 O.O.O.O.O.X.X.......X.X.6 4 4 < c                                                                                                                                       ",
"                                                                                                                                            Y 1 7 6 6 6 6 6 O.X.O.O.O.O.X.X.X.X.X.X.O.6 O.O.O.O.0 0 0 0 0 0 0 0 0 0 0 0 O.O.O.O.0 0 0 0 6 6 6 6 0 0 0 6 6 6 0 0 0 0 0 0 0 0 0 0 0 0 0 0 0 0 0 0 0 $.0 $.0 0 0 $.0 0 0 0 0 0 0 $.0 0 0 0 0 0 $.$.O.0 0 0 0 O.O.O.X.............6 4 * g {                                                                                                                                         ",
"                                                                                                                                                Y 3 & 4 6 O.X.O.$.O.O.O.X.X.X.X.X.O.O.X.O.0 0 0 O.O.O.O.0 0 O.0 0 0 0 0 O.O.0 0 0 0 0 0 6 6 6 6 6 6 6 6 6 6 6 6 0 0 0 0 0 0 0 0 0 0 0 0 $.$.0 0 0 0 0 0 0 0 0 0 $.$.$.0 0 0 $.$.0 0 0 0 0 0 0 O.O.O.O.O.O.O.X.............6 7 9 3 F                                                                                                                                             ",
"                                                                                                                                                    F 1 9 7 6 O.$.O.$.O.X.X.X.X.O.O.O.O.O.0 O.O.O.O.O.O.0 0 0 0 0 0 0 0 0 0 0 0 0 0 0 0 6 6 6 6 6 6 0 0 6 6 6 6 0 0 0 0 0 0 0 0 0 0 0 $.$.$.0 0 0 0 0 0 0 0 0 0 $.$.0 0 0 0 $.0 0 0 0 0 0 0 0 O.O.O.X.O.X.X.X.X.....X.6 4 r h A                                                                                                                                                 ",
"                                                                                                                                                        A h 9 7 $.O.6 6 X.X.X.X.O.O.O.O.O.O.O.O.0 0 O.0 0 0 0 0 0 O.0 0 0 0 0 0 6 6 6 0 6 6 6 6 6 6 0 0 0 0 0 0 6 0 0 0 $.0 0 0 0 0 0 0 0 0 0 0 $.$.$.0 $.$.0 0 0 0 0 0 0 0 0 0 $.$.$.0 O.O.O.O.X.X.X.X.X.X.X.X...4 4 r n W                                                                                                                                                     ",
"                                                                                                                                                            W h r 8 7 6 6 6 6 6 X.O.O.O.O.O.O.0 6 6 0 0 0 0 0 0 0 0 0 0 0 0 6 0 6 6 0 0 0 6 6 0 6 6 6 0 0 0 0 0 0 0 0 $.$.0 0 0 0 0 0 0 0 0 0 0 $.$.$.0 0 $.$.$.0 0 0 0 0 0 0 0 $.$.$.$.O.O.X.X.X.6 6 6 ....6 6 4 < n                                                                                                                                                           ",
"                                                                                                                                                                Q n > 5 4 6 6 6 $.O.O.O.O.O.O.O.0 0 0 0 0 0 0 0 O.0 O.O.0 $.0 0 0 0 0 0 0 0 0 0 0 0 0 0 0 0 0 0 0 0 0 0 $.$.0 0 0 0 0 0 0 0 0 0 0 $.0 0 0 0 0 0 0 0 0 0 0 0 $.$.$.0 0 O.6 6 6 X.X.X.X.6 6 7 5 > M                                                                                                                                                               ",
"                                                                                                                                                                      B 2 * 4 4 6 $.O.O.X.O.O.O.0 0 0 0 0 O.0 O.0 0 0 O.0 0 0 0 0 0 0 0 0 0 0 0 0 0 0 0 0 0 0 0 0 0 0 $.$.$.0 0 0 0 0 0 0 0 0 0 0 0 0 0 0 0 0 0 0 0 0 0 0 $.$.$.0 $.O.X.6 6 6 X.X.X.6 4 r h T                                                                                                                                                                   ",
"                                                                                                                                                                          T M 1 9 8 7 0 O.O.0 6 6 6 6 6 0 0 0 0 0 0 6 6 6 0 0 0 0 0 0 0 0 0 0 0 0 0 0 0 0 0 0 0 0 0 0 0 0 0 0 0 0 0 0 0 0 0 0 0 0 0 0 0 0 0 0 0 $.$.0 $.$.$.O.X.X.X.X.6 6 6 6 7 7 r j Y                                                                                                                                                                         ",
"                                                                                                                                                                                D M 3 9 7 6 7 7 6 6 6 6 6 6 0 0 O.0 0 0 0 0 0 0 0 6 6 0 0 0 0 0 0 0 0 0 0 0 0 0 0 0 0 0 0 0 0 0 0 0 0 0 0 0 0 0 0 0 0 0 0 0 0 0 $.O.0 X.X.X.X.6 X.6 6 6 6 4 5 3 U Q                                                                                                                                                                             ",
"                                                                                                                                                                                      W n > * & 4 7 7 6 O.$.0 0 6 $.6 0 6 6 6 6 0 6 0 0 0 0 0 0 0 0 0 0 0 6 0 0 $.0 0 0 0 0 0 0 $.$.$.0 0 0 0 0 0 6 0 X.$.$.0 0 $.$.$.$.$.X.6 6 6 7 5 5 < n Y                                                                                                                                                                                   ",
"                                                                                                                                                                                            C f 3 < 5 4 6 O.6 O.0 6 6 6 6 6 6 6 6 6 6 0 0 0 0 0 6 6 6 0 0 $.$.0 6 6 0 $.$.O.$.$.O.O.O.O.0 0 6 6 6 6 6 6 X.6 0 6 0 0 6 6 7 7 4 9 < 3 M F                                                                                                                                                                                         ",
"                                                                                                                                                                                                  Q A M 3 r 9 8 7 7 7 6 6 6 6 6 6 X.6 0 0 0 6 6 6 X.$.$.O.O.$.$.$.$.$.$.$.$.$.0 $.$.$.X.X.X.X.X.X.X.6 6 X.X.6 7 7 4 5 r < 3 U T {                                                                                                                                                                                               ",
"                                                                                                                                                                                                            A n 3 1 < 5 4 7 7 7 6 0 8 8 7 7 8 7 7 0 0 6 6 O.X.X.$.$.$.$.$.$.$.X.X.X.X.X.X.X.7 6 7 6 7 6 7 7 9 r 3 h M G                                                                                                                                                                                                         ",
"                                                                                                                                                                                                                      T M h 3 1 r r 5 5 4 4 4 4 7 7 7 7 6 X.6 6 6 6 7 6 6 6 6 6 6 6 6 6 7 7 4 5 r r t j P U Y Q                                                                                                                                                                                                                 ",
"                                                                                                                                                                                                                                  G G f h g , , 3 < < < r r r r r r r r r r < 1 3 t 1 3 h h M T G                                                                                                                                                                                                                               ",
"                                                                                                                                                                                                                                                                                                                                                                                                                                                                                                                                ",
"                                                                                                                                                                                                                                                                                                                                                                                                                                                                                                                                "
};
