/* XPM */
static char *fitecash128[] = {
/* columns rows colors chars-per-pixel */
"128 128 191 2 ",
"   c None",
".  c #254AAE",
"X  c #2B4EAE",
"o  c #2E52AD",
"O  c #3E5CA7",
"+  c #3356AE",
"@  c #3857AD",
"#  c #3558AF",
"$  c #3B5BAC",
"%  c #264DB6",
"&  c #2A4FB4",
"*  c #264EBD",
"=  c #284FBB",
"-  c #2C52B5",
";  c #2750BE",
":  c #2850BE",
">  c #2950BE",
",  c #2851BE",
"<  c #2951BE",
"1  c #2850BF",
"2  c #2950BF",
"3  c #2851BF",
"4  c #2951BF",
"5  c #2A50BE",
"6  c #2A51BE",
"7  c #2A51BF",
"8  c #2852BE",
"9  c #2952BE",
"0  c #2852BF",
"q  c #2952BF",
"w  c #2B52BE",
"e  c #2951BD",
"r  c #2951BE",
"t  c #3053B2",
"y  c #3054B2",
"u  c #3355B2",
"i  c #3056B2",
"p  c #3356B2",
"a  c #3657B1",
"s  c #3457B2",
"d  c #3256B4",
"f  c #3355B4",
"g  c #3957B1",
"h  c #3358B1",
"j  c #3558B1",
"k  c #375AB1",
"l  c #3659B3",
"z  c #3658B4",
"x  c #385AB1",
"c  c #385BB3",
"v  c #3A5CB1",
"b  c #3E5EB0",
"n  c #3C5DB4",
"m  c #3154B8",
"M  c #3E5FB9",
"N  c #3F60B6",
"B  c #405DA7",
"V  c #425EAC",
"C  c #405FAE",
"Z  c #415FAC",
"A  c #415FB2",
"S  c #4B65A7",
"D  c #4261A9",
"F  c #4260AB",
"G  c #4460A8",
"H  c #4562AA",
"J  c #4260AC",
"K  c #4361AE",
"L  c #4161AF",
"P  c #4463AD",
"I  c #4763AC",
"U  c #4563AF",
"Y  c #4665AC",
"T  c #4562AC",
"R  c #4864A8",
"E  c #4865AC",
"W  c #4A66AD",
"Q  c #4A66AE",
"!  c #4D69AB",
"~  c #4E69AF",
"^  c #4E69AE",
"/  c #4D69AC",
"(  c #506AAE",
")  c #4362B0",
"_  c #4664B2",
"`  c #4362B4",
"'  c #4866B0",
"]  c #4966B4",
"[  c #4A68B0",
"{  c #4E6AB4",
"}  c #4464B8",
"|  c #4D6EBC",
" . c #536DB1",
".. c #526DB6",
"X. c #526EB8",
"o. c #5773B3",
"O. c #5975B5",
"+. c #5572BA",
"@. c #5976BA",
"#. c #5D79BB",
"$. c #667CB5",
"%. c #697FB6",
"&. c #637DBC",
"*. c #687FBB",
"=. c #264FC1",
"-. c #264FC1",
";. c #284FC0",
":. c #2650C0",
">. c #2750C0",
",. c #2751C0",
"<. c #2650C1",
"1. c #2750C1",
"2. c #2751C1",
"3. c #2752C1",
"4. c #2750C2",
"5. c #2751C2",
"6. c #2651C2",
"7. c #2752C2",
"8. c #2750C0",
"9. c #2850C0",
"0. c #2851C0",
"q. c #2951C0",
"w. c #2850C1",
"e. c #2851C1",
"r. c #2951C1",
"t. c #2852C0",
"y. c #2952C0",
"u. c #2852C1",
"i. c #2952C1",
"p. c #2953C1",
"a. c #2953C0",
"s. c #2851C2",
"d. c #2850C2",
"f. c #2852C2",
"g. c #2953C2",
"h. c #2952C3",
"j. c #2951C1",
"k. c #6781BC",
"l. c #6A82BD",
"z. c #7388B9",
"x. c #6A84C1",
"c. c #6E88C1",
"v. c #718AC4",
"b. c #8094BF",
"n. c #8597C2",
"m. c #879BC5",
"M. c #8A9DC6",
"N. c #8297C9",
"B. c #869BCA",
"V. c #8A9CC9",
"C. c #8BA1CC",
"Z. c #93A6CD",
"A. c #96A9CE",
"S. c #9DAECE",
"D. c #92A6D2",
"F. c #9BADD1",
"G. c #9FB1D6",
"H. c #A5B3CF",
"J. c #A8B5CF",
"K. c #A1B1D7",
"L. c #ACBBD6",
"P. c #A5B5D9",
"I. c #A8B7DA",
"U. c #ABB9D9",
"Y. c #B1BED7",
"T. c #B1BFDE",
"R. c #B7C4D7",
"E. c #BCC6DA",
"W. c #BEC8DD",
"Q. c #C3CCDD",
"!. c #CDD7E4",
"~. c #CED9E6",
"^. c #CBD6E9",
"/. c #D2DBE6",
"(. c #D6DEEA",
"). c #D8DFEA",
"_. c #D7E0EC",
"`. c #DAE1EB",
"'. c #D6E1F0",
"]. c #DDE6F1",
"[. c #E1E7EE",
"{. c #E6E9EF",
"}. c #E8EBEF",
"|. c #E6EBF2",
" X c #EBEDF2",
".X c #EEF0F5",
"XX c #EEF3F8",
"oX c #F2F3F6",
"OX c #F4F5F9",
"+X c #F7F9FA",
"@X c #FAFBFC",
/* pixels */
"                                                                                                                                                                                                                                                                ",
"                                                                                                                                                                                                                                                                ",
"                                                                                                              / E I K b $ j j a j i h j v $ ) ] [  .                                                                                                            ",
"                                                                                                    E K $ # i - - - e e e e e e e e e e e e e e - - d c $ I E                                                                                                   ",
"                                                                                              V a - e e e e e e e e q.q.e e e e q.q.e e e e e e e e e e * * = - c _  .                                                                                          ",
"                                                                                      S $ @ - - e ; e e e e e q.q.q.q.q.q.q.q.q.q.q.q.q.; >.; >.q.q.q.e e ; ; ; e e - + O !                                                                                     ",
"                                                                                  H @ - % = e e e e e e e e e e q.q.q.q.e q.q.q.q.q.q.q.>.; ; e q.q.; e ; ; e e e e = = % & j I                                                                                 ",
"                                                                              $ + - e ; ; e e e e q.e e q.q.e e q.q.q.e e q.q.q.q.q.q.>.>.>.; e q.>.>.; ; q.e e = e = = * * * % + O                                                                             ",
"                                                                        R $ - - e e e e e e ; ; q.q.q.q.q.q.e q.q.e e q.q.q.q.q.q.q.>.; >.>.; ; >.>.>.>.>.>.q.; * ; e e ; ; ; * * % - $                                                                         ",
"                                                                      $ - - e e e e q.q.q.q.; ; q.e q.q.q.q.; >.e e q.>.>.q.>.q.q.>.>.>.>.>.>.>.>.>.>.>.>.>.>.>.; ; ; e ; ; ; ; ; * * * t $                                                                     ",
"                                                                  $ i e e e e e * ; >.>.q.q.q.q.e e e e q.q.q.q.>.>.>.>.>.; >.>.>.>.>.>.>.>.>.>.>.>.>.>.>.>.>.; >.>.; ; >.>.; ; ; ; q.q.e - i K                                                                 ",
"                                                              H + & e e e e e e ; ; >.>.q.q.q.q.q.q.q.q.q.q.q.q.>.>.>.>.; ; >.>.>.>.=.>.>.>.>.>.>.=.>.>.>.>.>.>.; ; ; ; >.>.>.; ; e q.q.e e e % + /                                                             ",
"                                                            v - = e e e ; ; ; >.; ; >.>.q.q.q.q.q.>.q.q.q.q.q.q.>.>.>.>.>.>.>.>.>.>.>.>.>.q.>.>.>.>.>.>.>.>.>.>.>.>.q.>.>.>.>.>.>.q.q.e e e e = = - V                                                           ",
"                                                        Y + e e e e e e ; ; >.>.; ; >.>.q.q.q.q.>.>.q.q.q.q.q.q.>.>.>.>.>.>.>.>.>.q.q.q.>.>.>.>.>.>.>.>.>.>.>.>.>.>.q.>.>.>.>.>.>.q.q.q.q.q.e e = * % @ (                                                       ",
"                                                      $ - - e e e e e e >.; >.>.* ; e q.q.q.q.q.>.>.q.q.q.q.q.q.; ; >.>.>.>.q.q.q.q.q.q.>.>.>.>.>.>.>.>.>.>.>.>.q.q.>.q.>.>.>.>.>.q.q.q.q.e e e = = = = - K                                                     ",
"                                                    @ - e e e e e q.e e e q.>.>.; ; q.q.q.q.q.q.>.>.q.q.q.q.q.>.; ; >.>.>.>.q.q.q.q.q.q.>.>.>.>.>.>.>.>.>.>.>.>.q.q.q.q.>.>.>.>.>.e e e e e e e e e = = = % $                                                   ",
"                                                E + - - e e e e e e e e q.e ; e e q.q.q.q.q.q.q.q.q.q.q.q.q.q.e e q.q.q.q.q.q.q.q.q.>.>.q.q.>.>.>.>.q.q.q.q.>.>.>.>.q.q.q.q.h.q.q.q.q.q.q.e e e e e e e e = = c                                                 ",
"                                              Y - e e e e e e e e q.q.e q.e q.e q.q.q.q.q.q.g.g.q.q.q.q.q.q.q.q.q.q.q.q.q.q.q.q.q.q.>.q.q.>.q.q.q.q.q.q.q.q.q.>.q.q.q.q.q.q.q.q.q.q.q.q.q.e e e e e q.q.q.q.e = + /                                             ",
"                                            F - e e e e e e e e q.q.q.q.q.q.e e q.q.q.q.q.q.g.g.q.q.q.q.q.e q.q.e e >.>.q.q.q.q.>.q.q.q.q.q.q.q.q.q.>.q.q.q.>.>.q.q.q.q.q.q.q.q.e e q.q.q.e e e e e e q.q.e e = = - {                                           ",
"                                          $ - * q.e e e e e q.q.q.q.q.q.q.q.e e e q.q.q.q.q.q.q.q.q.q.q.q.e e q.e e >.>.q.q.q.q.>.q.q.q.q.q.q.q.q.q.>.q.q.q.e q.q.q.q.q.q.q.q.q.e e q.q.q.q.e e e e e e q.e e e = * - ]                                         ",
"                                        $ - ; e e e q.q.q.q.q.q.e ; q.q.q.e q.e e e q.q.q.q.q.q.q.q.q.q.q.q.e e q.q.q.q.>.>.q.q.q.q.q.q.q.q.q.q.q.q.>.>.e e q.q.q.q.q.q.e e q.q.e e e q.q.q.e e e e e q.q.q.e e e e e - K                                       ",
"                                      $ - ; q.e e e q.q.q.q.q.e e e e q.q.q.q.e e e e e q.q.q.q.q.q.q.q.q.q.e e q.q.q.q.>.>.q.q.q.q.q.q.e q.q.q.q.q.q.q.e e q.q.q.q.q.q.e e e e e e e e q.q.e e q.q.e q.e e q.e q.e e = - I                                     ",
"                                    F & = e e e e e e ; e q.q.q.e e e q.q.e e e e e e e e e e e e e e e e e e e e e e e q.q.q.q.q.q.q.q.e e q.q.q.e ; ; e q.q.q.e e e e e e e e e e e q.q.e e e e q.q.e e e q.e e e e e * t {                                   ",
"                                  I - * = e e q.q.q.q.e e q.q.q.q.q.e e e e e e e e e e e e e e e e e q.e e e e e e e e q.q.q.q.q.q.q.e e e e e q.q.; e e q.q.q.e e e e e e e e e e q.q.e e e e e q.q.q.q.q.q.q.e e e e e = i                                   ",
"                                E - e e e q.q.q.q.q.q.q.q.q.q.e q.q.e e e e ; ; e e e e e = * ; = * * * * * ; ; * * ; ; ; e q.e = * * q.q.q.* * >.>.=.* * = = * * * * * * ; e e = = e e e e e e e e e q.q.q.q.q.e e e e e e = i                                 ",
"                                + * e e e q.q.q.q.q.q.q.q.q.q.q.e q.e e e - N N N N ` A ` ` N N ` M M M M M N M M M N N N ` A ` ` A A ` N N M M N M M M M M M M M M M M M M M M M M n m e e e e e e e q.q.q.q.q.e e e e e e = % j                               ",
"                              + * = e e e q.q.q.q.q.q.q.q.q.q.q.e e q.e * +./._.(._._.).).)._.)._._._._.).).(.(.).)._._._._._._._._._._.).(.(.(.).).(.(.).).(.(.(.(.(.(.(.(.(.(.(.(.^.&.e e e e e e q.q.q.q.q.q.e e e e e e e e e `                             ",
"                            $ % = e e q.e q.q.q.q.q.q.q.q.q.q.q.e q.q.q.e #.OX@X@X@X@X@X@X@X@X@X@X@X@X@X@X@X@X@X@X@X@X@X@X@X@X@X@X@X@X@X@X@X@X@X@X@X@X@X@X@X@X@X@X@X@X@X@X@X@X@X@X@X{.l.e e e q.q.q.e q.q.q.q.q.q.e q.q.e e e e e - E                           ",
"                          F - e e e q.q.e q.q.q.q.q.h.h.h.h.q.q.e e g.g.e #.oX@X@X@X@X@X@X@X@X@X@X@X@X@X@X@X@X@X@X@X@X@X@X@X@X+X+X+X+X+X+X+X+X+X+XOX+XOXOXOXOXOXOXOXOXOXOXOXOXOXOXoX).l.* e e q.e e q.q.q.q.q.q.q.q.q.e q.q.q.q.e e i                           ",
"                          o e e e q.q.q.q.q.q.q.q.q.q.q.h.h.q.q.q.e g.g.e &.XX@X@X@X@X@X@X@X@X@X@X+X+X@X@X@X@X@X@X@X@X@X@X@X@X+X+X+X+X+X+X+X+X+X+XOXOXOXOXOXOXOXOXOXOXOXOXOXOXOXoX.X(.l.* e q.q.e e q.q.q.q.q.q.q.q.q.q.q.h.q.q.e e % c                         ",
"                        $ % e e q.q.e e q.q.q.q.q.h.q.q.q.q.q.q.q.q.q.q.e &.oX@X@X@X@X@X@X@X@X@X@X@X@X@X@X@X@X+X+X+X+X@X+X+X@X@X+X+X+X+X+X+X+X+X+X+XOXOXOXOXOXOXOXOXOXOXOXOXOXOXoX.X).l.* e q.q.e q.q.q.q.q.q.q.q.q.q.q.h.h.h.q.e e e - `                       ",
"                      E - e q.q.q.q.e e q.q.q.q.q.h.q.q.q.q.q.q.q.q.q.q.e &.oX@X@X@X@X@X@X@X@X+X@X@X@X@X@X@X@X@X+X@X@X+X+X+X+X+X+X+X+X+X+X+X+X+XOXOXOXOXOXOXOXOXOXOXOXOXOXOXOXoXoX.X).l.* e q.q.e q.q.q.q.q.q.q.q.q.q.q.h.h.h.q.q.e e e d                       ",
"                      @ e e q.q.q.q.q.q.q.q.q.q.q.q.q.q.q.h.q.q.q.q.q.q.e &.oX@X@X@X@X@X@X@X@X@X@X@X+X+X@X@X@X@X@X@X@X+X+X+X@X@X+X+X+X+X+X+XOXOXOXOX+X+XOXOXOXOXOXOXOXOXOXOXoXoXoX.X`.l.* e q.q.q.q.q.q.q.q.q.q.q.q.h.h.h.h.q.q.q.q.q.q.e M                     ",
"                    V - e e q.q.q.q.q.q.q.q.q.q.q.q.q.q.q.q.q.q.q.q.q.q.e &.oX@X@X@X@X@X@X@X@X@X@X@X+X+X@X@X@X@X@X@X@X+X+X@X@X+X+X+X+X+X+X+XOXOXOXOX+XOXOXOXOXOXOXOXOXOXOXoXoXoXoX.X`.l.* e q.q.q.q.q.q.q.q.q.q.h.q.q.h.h.g.q.q.q.q.q.q.q.- {                   ",
"                    - e e q.q.q.q.q.e q.q.q.q.q.q.q.q.q.q.q.q.q.q.q.q.q.e #.oX@X@X@X@X@X@X@X@X@X@X@X@X@X@X@X@X@X+X+X+X@X+X+X+X+X+X+X+X+XOXOXOXOX+X+XOXOXOXOXOXOXOXOXOXOXOXoXoXoXoX.X).l.* e e e q.q.q.q.q.q.q.q.h.h.q.q.h.h.q.q.q.q.q.q.q.e c                   ",
"                  $ e e q.q.q.q.q.q.q.q.q.q.q.q.q.q.q.q.q.q.e e q.q.q.q.e #.oX@X@X@X@X@X@X@X@X@X@X@X@X@X@X@X@X+X+X@X+X+X+X+X+X+X+X+X+XOXOXOXOXOXOXOXOXOXOXOXOXOXOXOXOXOXoXoXoXoXoX.X(.l.* e e e e q.q.q.q.q.q.q.h.h.h.h.h.h.q.q.q.q.q.q.q.e - ]                 ",
"                  o e e q.q.q.q.q.q.q.q.q.q.q.q.q.q.q.q.e e e e q.q.q.q.e #.oX@X@X@X@X+X+X+X+X+X+X+X@X+X@X+X+X@X+X+X+X+X+X+X+X+X+X+X+X+X+XOXOXOXOXOXOXOXOXOXOXOXOXOXOXOXoXoXoXoXoX.X).l.* e q.q.q.q.q.q.q.q.q.q.q.h.h.h.h.h.h.q.q.q.q.q.q.q.e c                 ",
"                $ - e q.q.q.q.q.q.q.q.q.q.q.q.q.q.q.q.q.q.e e e q.q.q.e e #.XX+XoXoXoXoXoXoXoXOX+X+X+X+X+X+X+X+X+X+XoXoXoXoX.X.X.X.X.X.X.X.X.X.X.X.X.X.X.XoXOXOXOXOXOXoXoXoXoXoXoX.X).k.* e q.q.e q.q.q.q.q.q.q.q.h.h.h.h.h.h.q.q.q.q.q.q.q.q.- ]               ",
"                d e e q.q.q.q.q.g.q.q.q.q.q.q.q.q.q.q.q.q.q.e e e q.q.q.e #.'.(././././././.(..X+X+X+X+X+X+X+X+X+XOX[./.!.!.~.~.!.!.!.!.!.!.!.!.!.!.!.!.`.oXOXOXOXoXoXoXoXoXoXoXoX X`.l.* e e e e e q.q.q.q.q.q.q.q.h.h.h.h.h.h.q.q.q.q.q.q.a.q.n               ",
"              V w w q.q.q.q.q.q.g.q.q.q.q.q.q.q.q.q.q.q.q.q.e e e e q.q.e n #.#.#.#.#.#.O.O.n.XX@X+X+X+X+X+X+X+X+XOX`.n.o.O.#.#.@.@.@.@.O.@.@.@.O.O.O.o.H.@XOXOXoX.X.XXXoXoXoXoXoX X`.l.* e e e e e q.q.q.q.q.q.q.q.q.q.h.h.h.h.q.q.q.q.q.q.q.q.- ]             ",
"              + e e q.q.q.q.q.e q.q.q.q.q.q.q.q.q.q.q.q.e e e e e e e e e e * % % - e * * % @.XX@X+X+X+X+X+X+X+XOXOX_.l.% % = * * * * * * e e e e * % X Z.@XOXOXoX.XoXoXoXoXoXoXoX X_.l.* e e e e q.q.q.q.q.q.q.q.q.h.q.q.q.h.q.q.q.q.q.q.q.q.q.e c             ",
"            I - e e q.q.e e e q.q.q.q.q.q.q.q.q.q.q.q.q.e e e e e e e e e e e e e e e e e * #.oX@X+X+X+X+X+X+X+XOXOX`.c.* = e e e e e e e e e e e e e & Z.@XOXoXoXoXoXoXoXoXoXoXoX X`.l.= e q.q.q.q.q.q.q.q.q.q.q.q.q.q.q.q.q.q.q.q.q.q.q.q.q.q.e t             ",
"            # * q.q.q.q.e e q.q.q.q.q.q.q.q.q.q.q.q.q.e q.e e e e e e e e e e e e e e e e * #.oX@X+X+XOX+X+X+X+XOXOX`.x.* e e e e e e e e e e e e e e - Z.@XOXoXoXoXoXoXoXoX.X.X.X X).l.* e e e e e e e e e q.q.q.q.q.q.q.q.q.q.q.q.q.q.q.q.q.q.e e `           ",
"            - ; ;.q.q.q.e e q.q.q.q.q.q.q.q.q.e q.q.q.e q.e e e e e e e e e e e e e e e e * #.oX@X+X+XOXOX+X+X+XOXoX`.l.= e e e e e e e e e e e w w e - C.@XOXoXoXoXoXoXoXoX.X.X.X X).l.* e e e e e e e e e q.q.q.q.q.q.q.q.q.q.q.q.q.q.e e q.e e e c           ",
"          Z e e q.q.q.q.e e q.q.q.q.q.q.q.q.q.e e e q.q.e e e e e e e e e e e e e e e e e * #.oX@X+XOXOXOXOXOXOXOXoX).l.= e q.e q.q.q.q.e e e e e e e % C.@XOXoXoXoXoXoXoXoX.X.X.X X).l.= e e e e e e e e e q.q.q.q.q.q.q.q.q.q.q.q.q.e e e q.q.q.q.- ..        ",
"          + = q.q.q.q.q.e q.q.q.q.q.q.q.q.e e e e e q.q.e q e e e e e e e q.q.e e e e e q.* #.oX+X+X+XOXOXOXOXOXOXoX`.k.% e e e e e q.q.e e e e e e e % C.@XOXoXoXoXoX.XoXoX.X.X.X X(.l.* e e e e e e e e e e q.q.q.q.q.q.q.q.q.q.q.q.e e e e q.q.e e A         ",
"          o e e q.q.q.e e e q.q.q.q.q.q.e e e e e e q.q.e e e e e e e e q.q.a.e e e e e q.* #.oX@X+XOXOXOXOXOXOXOXoX_.l.- e e e e e e e e e e e e e e & C.@X.X X X X X X X X X X X X(.k.% e e e e e e e e q.q.q.q.q.q.q.q.q.q.q.q.e e e e e e e q.e = a         ",
"        F - e w q.q.e e e e q.q.q.q.q.q.e e e e e e e e e e e e e e e q.e e e e e e w e q.* #.oX@XOXOXOXOXOXOXOXOXoX_.l.% e e e e e q.e e e e e e e e % B.|.(./.~.~.~.~./.~.~.~.~.~.!.l.% e e e e e e e e q.q.q.q.e q.q.e q.q.e e e e e w w e q.q.e e -         ",
"        $ e e q.q.q.e e e e q.q.q.q.q.q.e e e e e e e e e e e e e e e e e e e e e e w e e * #.oX+XOXOXOXOXOXOXOXOXoX_.l.% e e e e e e e q.q.e e e e e e | v.c.c.x.l.l.l.l.x.x.x.x.l.c.} e e e e e e e e e e q.q.q.q.e e e e e e e e e e e a.e w e e q.e `       ",
"        a e q.q.q.e e e e e e q.q.q.q.q.e e e e e e e e e e e e e e e e e e e e e e e e e * #.oX@XOXOXOXOXOXOXOXOXoX_.l.= e e e e e e e e e e e e q.e e e % - e e e - % % e e e e e e e e w e e e e e q.e e e e q.q.e e e e e e e e e e q.g.e w q.e q.e b       ",
"        - e q.q.q.q.q.q.q.q.e e q.q.q.e e e e e e e e e e e e e e e e e e e e e e e e e q.* #.oX@XOXOXOXOXOXOXOXOXoX_.l.= e e e e e q.q.q.e e e e q.q.e e e e e e e e e e e e e e e e w w w e e e e e e e e e e e e e e e e e e e e e e q.q.e e q.q.q.= d       ",
"      H - e q.q.q.q.q.q.q.q.q.q.q.e e e e e e e e e e e e e e e e e e e e e e e e e e e q.* #.oX+XOXOXOXOXOXOXOXOXoX`.l.= e e e e e e e e = * * * = = * = = * * * e e e e e e e q.e e e e w e e e e e e e e e e e e e e e e e e e e e q.q.q.q.e e q.q.e -       ",
"      $ % e q.q.q.q.q.q.q.q.q.q.e e e q.e e e e e e e e e e e e q.e e e e e e e e e e q.q.* #.XX+XOXOXOXOXOXOXoXOXoX`.l.= e e e e e e e M X.X.X.X.X...X.X.+.+...{ } e e q.e e e e e e e e e e e e e e e e e e e e e q.q.q.q.e e e q.q.q.q.q.q.q.q.q.q.e - I     ",
"      $ e e q.q.q.q.q.q.q.q.q.q.e q.q.e e e e e e e e e e e e e e e e e e e e e e e e q.q.* #.XX+XOXOXOXOXOXOXOXOXoX`.x.= e e e e e e & C..X X X X X X X X X X X].D.- e q.e q.e e e e e e e e e e e e e e e e e e q.q.q.q.q.e e e q.q.q.q.q.q.q.q.e e e e A     ",
"      @ e e q.q.q.q.q.q.q.q.q.q.q.q.q.q.e e e e e e e e e e e e a.a.e e e e e e e e e e e * #.oX+XOXOXOXOXOXOXOXOXoX`.x.= e e e e e w - F.@X+X+X+X+X+X+X+X+X+X+X|.Z.- e e q.q.q.e e e e e e e e e e e e e e e q.q.q.q.q.q.q.e q.e q.q.q.q.q.q.q.e e e e e c     ",
"      + e q.q.q.q.q.q.q.q.q.q.q.q.q.q.q.q.e e e e e e e e e e e w w e e e e e e e e e e e * #.XX+XOXOXOXOXOXoXOXOXoX`.l.* e e e e e e - F.@XOXoX.X.X.X.X.X.X.X.X[.Z.- e e q.q.q.e e e e e e e e e e q.q.e e q q.q.q.q.q.q.q.q.q.q.q.q.q.q.q.q.q.e e e e e c     ",
"      - e q.q.q.q.q.q.q.q.q.q.q.q.q.q.q.e e e e e e e e e e e e e e e e e e e e e e e e e % @.XX+XOXOXOXOXOXOXOXOXoX_.l.% e e e e e e - F.@XoX.X.XoX.X.X.X.X X.X[.Z.- e e e q.q.q.q.q.q.e e e e e e q.q.e q e e e e e q.q.q.q.q.q.q.h.h.q.q.q.q.w w a.w e m     ",
"    / - e q.q.q.q.q.q.q.q.q.q.q.q.q.q.q.e e e e e e e e e e e e e e w w e e % % % % = % % . o..X+XOXOXOXOXOXOXOXOXoX`.k.. % % % % % & X S.@XoX.X.X.X.X.X.X X X X[.Z.- e e e q.q.q.q.q.q.q.e e e e e q.q.e e e e e e e q.q.q.q.q.q.q.q.q.q.q.q.q.w a.a.w e m     ",
"    H - e q.q.q.q.q.q.q.q.q.q.q.q.q.e e e e e e e e e e e e e e w w w w e } N.N.B.B.V.V.V.n.S.oX+XOXOXOXOXOXOXOXOXoX[.J.M.V.B.V.V.V.V.n.Q.@XOX.X.X X.X X.X.X X X[.Z.t e q.q.q.q.h.h.q.q.q.e e e e e q.q.e e e e e e q.q.q.q.q.q.q.q.q.q.h.h.h.q.w w q.e q.w     ",
"    H - q.q.q.q.q.q.q.q.q.q.q.q.q.q.e e e e e e e e e e e e e e w w w w = &.oX@X@X@X@X@X@X@X@X@X+XOXOXoXoXoXoXoXoXoX.X+X@X@X@X@X@X@X@X@X@X+XoX.X.X X X X.X.X.X.X[.Z.t w q.q.h.q.h.q.q.q.q.q.e e e e q.q.e e e e e q.q.q.q.q.q.q.q.q.h.h.h.h.h.q.a.w e e q.w     ",
"    B - e e e q.q.q.q.q.h.q.q.q.q.q.e e e e e e e e e e e e e e w w w w = #.oX@X+XOXOXOXOX+XOXOXOXoXOXoXoXoXoXoXoXoXoXOXOXOXOXoXOXoXoXoXoXoX.X.X.X X X X X.X.X X[.A.t w q.q.q.h.g.g.q.q.e q.q.q.e e e e e q.q.q.q.q.q.q.q.q.q.q.q.q.h.q.h.q.q.q.a.w e e q.e `   ",
"    O - e e e q.q.q.q.q.h.q.q.q.q.q.e e e e e e e e e e w e e e e w w w = #.XX+XOXoXoXOXOXOXOXoXoXoXoXoXoXoXoXoXoXoXoXoXoXoX.X.XoXoXoX.X.X X.X.X.X.X X.X X X.X.X[.A.- w q.q.q.h.q.q.q.q.q.q.q.q.e e e e e e q.q.q.q.q.q.q.q.q.q.q.q.q.h.h.h.q.q.w w e e q.e ]   ",
"    $ - e e e q.q.q.q.q.q.q.q.q.q.q.e e e e q.q.e e e e w e e e w w w w = #.XX+XOXOXOXOXOXoXoXoXoXoXoXoXoXoXoXoXoXoXoXoXoXoXoXoXoXoXoXoX X X.X.X X.X X X X X X X[.Z.- e q.q.q.h.q.q.q.q.q.q.g.q.q.e e e e e q.q.q.q.q.q.q.q.q.q.q.a.q.h.q.h.h.q.a.a.e w q.e }   ",
"    $ - e e e q.q.q.q.q.q.q.q.q.q.q.q.e e q q.q.e e e e e e e w w w w w = #.XX+XoXOXoXoXoXoXoXoXoXoXoXoXoXoXoXoXoXoXoXoXoXoXoXoXoX.X.X X X X.X.X.X.X.X X X X X X[.Z.- q.q.q.q.q.q.q.q.q.q.q.q.q.q.e e e e e q.q.q.q.q.q.q.q.q.q.q.q.q.q.h.h.q.q.q.q.e w e e `   ",
"    $ - e e e e e q.q.e e q.q.q.q.q.q.q.q.e q.e e e e e e e e e w w w w e #.XX+XoXoXoXoXoXoXoXoXoXoXoXoXoXoXoXoXoXoXoXoXoXoX.X.X.X.X.X.X.X.X.X.X.X X.X.X X X X X[.Z.- e q.q.q.q.q.q.q.q.q.q.q.q.q.q.e e e e q.g.q.q.q.q.q.q.e q.q.q.q.q.q.q.q.q.a.w e e e e `   ",
"    $ - e e e e e q.q.q.e q.q.q.q.q.q.q.q.q.q.e e e w e e e w w w w w w e #.XX+XoXoXoXoXoXoXoXoXoXoXoXoXoXoXoXoXoXoXoXoX.X.X.X.X.X.X.X.X.X X X X.X X X.X X X X X[.Z.- e q.q.q.q.q.q.q.q.q.q.q.q.q.q.q.q.e q.q.q.q.q.q.q.q.q.e q.q.q.q.q.q.q.q.q.w w q.e e e `   ",
"    $ - e q.q.q.q.q.q.e e e q.q.q.q.q.q.q.q.q.q.q.q.w w w w w w w w w w e #.XX+XoXoXoXoXoXoXoXoXoXoXoXoXoXoXoXoXoXoX.X.X.X X X.X.X.X X X X X X X.X X X X X X X X[.Z.- e q.q.q.q.q.q.q.h.h.h.q.q.q.q.q.q.q.e q.q.q.q.q.q.q.q.q.q.q.q.q.q.h.q.q.q.w w q.q.e e ]   ",
"    $ - e q.q.q.q.q.q.q.e e q.q.q.q.q.e q.q.h.q.q.q.w w w w w w w w w w e #.XX@XoXoXoXoXoXoXoXoXoXoXoXoXoXoXoXoXoX.X.X.X.X.X.X.X.X X X X.X X X X X X X X X X X.X[.Z.- e q.q.q.q.q.q.q.q.h.h.q.q.q.q.q.q.q.e q.q.q.q.a.a.q.q.q.q.q.q.q.q.h.h.q.q.a.a.a.e w e `   ",
"    V - q.q.e q.q.q.q.q.q.q.q.q.q.q.q.e q.q.q.h.q.q.w w w w w w w w w w = #. X X|.|.|.|.|.|.|. XoXoXoXoXoXoX.X.XoX.X X[.[.[.[.[.[.[.[.[.[.[.[.[.[.[.[.`.[.[.[.[.`.A.- e e e q.q.q.q.q.q.h.q.q.q.q.q.q.q.q.q.q.q.q.q.q.q.h.q.q.q.q.q.q.q.h.q.q.q.w w w e e e     ",
"    I - q.q.q.q.q.q.q.q.q.q.q.q.q.q.e e q.e q.q.q.q.e w w w w w w w w w = X.T.Y.L.L.L.L.L.L.E.|.oXoXoXoX.X.X.X.X.X X`.R.L.L.L.L.L.L.L.L.L.L.L.L.L.L.L.L.L.L.L.L.Y.N.- e e e q.q.q.q.q.q.q.q.q.q.q.q.q.q.q.q.q.q.q.q.q.q.q.q.q.q.q.q.q.q.q.q.q.q.w w e e e -     ",
"    E - w e e e q.q.q.q.q.q.q.q.q.q.e e e e q.e e e e e e w w w w e e e e - c c b M M b b $ $. XOXoX.X.X.X.X.XoX.X X(.z.$ n M b b b b v b b b v v v b b b v v v b z e e e q.q.q.q.q.q.q.q.q.q.q.q.h.q.q.q.q.q.q.q.q.q.q.q.q.q.q.q.q.h.h.q.q.q.e e e e e e -     ",
"    ^ - e e e e q.q.q.q.h.q.q.q.q.e e e e e e e e e e e e e w w e e e e e = e e e e e e e % @..XOX.X.XoX.XoXoX.X.X X`.l.% = e e e e e e e e e e e e e e e e e e e e e e e e q.q.q.q.q.q.q.q.q.q.q.h.q.q.q.q.q.q.q.q.q.q.e q.q.q.q.q.h.q.q.q.e e e e e e e m     ",
"      - e e e q.q.q.q.q.q.q.q.q.q.q.e e e e e e e e e e e e e e e e e e e e e e e e e e ; * @..XOX.X.X.XoXoXoX.X.X X`.l.= = e e e e e e e e e w w - w w e e w w e e e e e q.q.q.q.q.q.q.q.q.q.q.q.h.q.q.q.q.q.q.q.q.e e e e q.q.q.q.q.q.e w w e e e e e e f     ",
"      t e e q.q.q.q.h.q.q.q.e q.q.q.e w e e e e e e e e e e e e e e e e e e e e e e e e ; * #..XOX.X.X.X.X.X.X.X.X X`.l.= e e e e e e e e e e e e e e e e e e e e e e e e q.q.q.q.q.q.q.q.h.h.q.q.q.q.q.q.q.q.q.q.q.e e e e q.q.q.q.q.q.e w e e e e e e e c     ",
"      @ = q.q.q.q.q.h.h.q.q.e e q.q.e e e e e e e e e e e e e e e e e e e e e e e e * ; * * @..XOX.X.X X.X.X.XoX.X X(.k.* e e e e e e e e e e e e e e e e e e e e e e e e e q.q.q.q.q.q.q.q.q.q.q.q.q.q.q.q.q.q.q.q.q.e e q.e q.e q.e q.e e e e w w e e e c     ",
"      @ = e q.q.q.q.h.q.e e e e q.q.e e e e e e e e e e e e e e e e e e e e e e e e ; ; * * @..XOX.X.X.X.X.X.X.X X X).k.* e e e e e e e e e e e e e e e e e e e e e e e e e q.q.q.q.q.q.q.q.q.q.q.q.q.q.q.q.q.q.q.q.q.e q.q.e q.q.q.e e e e e e e e e e e $     ",
"      $ = e q.q.q.q.q.e e e e e e w e e e e e e e e e e e e e e e e e e e e e e e e e e * * +..XOX.X.X.X.X.X.X.X X X).l.* e e e e e e e e e e e e e e e e e e e e e e e e e e e e e e q.q.q.e e e e e q.q.q.q.q.q.q.q.q.e e e e q.e q.e e e e e e e q.q.- K     ",
"      Z - e q.q.q.q.q.e e e e e e w e e e e e e e q.e e e e e e e e e e e e e e e q.e e * * @..XOX.X.X.X.X X X X X X).l.* e e e e e e e e e e e e e e e e e e e e e e e e e e e e e e q.q.q.e e e e e e q.q.q.q.q.q.q.q.e e e e e e q.e e e e e e w q.e -       ",
"        - e e q.q.q.e e e e e e e e e e e e e e e e q.e e e e e e e e e e q.e q.; ; e e * * @..XoX.X.X X X X X X X X).l.% e e e e e e e e e e e e e e e e e e e e e e e e e e e e e e e e e e e e e e e q.q.q.q.q.q.q.q.e e e q.e e e e e q.e e w e q.e d       ",
"        a e e e q.q.e e e e e e e e e e q.q.e e e e q.q.e e e e e e e e e q.e q.; ; e e * * +..XoX.X.X X X X X X X X).l.% e e e e e e e e e e e e e e e e e e e e e e e e e e e e e e e e e e e e e e e q.q.q.q.q.q.q.q.q.q.q.q.q.q.e e q.q.e e e e e e c       ",
"        $ - e q.e e e e e e e e e e e e e w e e e e e e e e e e e e e e q.q.e e e q.e e =.* @..XOX.X.X.X X X X X X X).l.* e e e e e e e e e e e e e e e e e e e e e e e e e q.q.e e e e q.q.e q.q.q.e e e e e q.q.q.q.q.q.q.q.q.q.q.e q.q.q.e e e e e e `       ",
"        E - e e e e e e e e w w e e e e e e e e e e e e e e e e q.q.e e e e e e q.q.q.e =.* @. XOX.X.X.X X X X X X X(.l.* = e e q.e e e e e e e e e e e e e e e e e e e e e q.q.e e e e q.q.q.q.q.e e e e e e q.q.q.q.q.q.q.q.q.q.q.q.e q.q.e e e e e -         ",
"          d e e e e e e e e w w e e e e w w w e e e e e q.e e e e e e e e q.e e q.q.e e =.* +. XoX X.X.X X X X X X X(.l.* = q.q.q.q.e e e e e e e e e e e e e e e q.q.q.e e e e q.e e e e e q.q.e e e e e e e e q.q.q.q.q.q.q.q.q.h.q.q.q.q.q.q.q.; * a         ",
"          c = e e e e e e e w e e e e e w e e e e e e e q.e e e q.e e e e q.e e e q.e e * * @. XoX X X X X X X X X X(.l.* * q.q.q.q.e e e e e e e e e e e e e e e q.q.q.e e e e q.e e e e e e e e e e e e e e q.q.q.q.q.q.q.q.q.h.h.q.q.q.q.q.e e ; * A         ",
"          ) e e e q.e e e w w e e e e w w e e e e e e e e q.q.q.e e e q.q.q.q.e e e e e * * +. XoX X X X X X X X X X).l.* = q.q.q.q.q.q.e e e e e e e e e e e e e q.e e e e e e e e e e e e e e q.q.e e e q.q.q.q.q.h.h.h.h.q.q.q.q.q.q.q.q.e e q.>.-           ",
"            - = e q.e e e w w w e e e e w e e e e e e e e e q.q.q.e q.q.q.q.q.q.e e e ; * * +.|.oX X X X X X X X X X).*.% = q.q.q.q.q.q.e e e w e e e e e e e e e q.e e q.e e q.e e e e e e e e e e e e e q.q.q.q.h.h.h.h.q.q.q.q.q.q.q.q.q.e e q.* z           ",
"            j * ;.q.e e e e w e e e e e w e e e e e e e e e q.q.q.q.q.q.q.q.q.e q.q.* * * * +.|.oX X X X X X X X X X(.*.% e e e e e e e e e e e e e e e e e e e e e e e e e e q.q.e e e e e e e e e e q.e q.q.q.h.h.h.q.q.q.q.q.q.q.q.q.q.e q.;.=.* `           ",
"            ] e * q.e e e e w e e e e e e e e q.q.e e e e e q.q.q.q.q.q.q.q.e e e >.* * * % +.|.oX.X X X X X X X X X(.k.% = e e e e e e e e e e e e e e e e e e e e e e e e q.q.e e q.q.e e e e e e e q.e q.q.q.h.h.h.q.q.q.q.q.q.q.q.q.e e q.=.* -             ",
"              f * q.e e e e e e e e e e e e e e e e q.q.q.e q.q.q.q.q.e q.e e e q.>.* * * % +.|.oX X X X X X X X X X(.*.% = e e e e e e e e e e e e e e e e e e e e e e q.q.q.q.e q.q.q.e e e e e e e e e q.q.h.h.h.q.q.q.q.q.q.q.q.e e e q.q.=.* j             ",
"              b e e e e e e e e e e e e e e e e e e q.q.q.q.q.q.q.q.e e e e e e e * = * * % +.|.oX.X X X X X X X X}.(.k.% = = = e e e e e e e e e e e e e e e e e e e e q.q.q.e e e q.q.e e e e e q.e e e q.q.h.h.h.q.q.q.q.q.q.q.q.e e e q.q.=.e               ",
"                m * e e e q.e e e e e q.q.e q.q.q.q.q.q.q.q.q.q.q.q.e e q.e e e e e ; * * * +.|.oX.X.X X X X X X X}.(.k.% = * = e e e e e e e e e e e e e e e q.q.e e e e e e e e e e q.e e e e q.q.q.q.q.q.h.h.h.h.h.q.q.q.e e q.q.q.e q.q.>.=.z               ",
"                M = e e e e e e e q.e q.e e q.q.q.q.q.>.q.q.q.q.q.e e e q.q.e e e e ; ; * % +.|.oX.X.X X X X X X X X(.*.% = * ; e e ; ; e e e e e e e e e e e q.q.q.e e e e e e e e e e e e e e q.q.q.q.q.q.h.h.h.h.q.q.q.q.e e q.q.q.q.q.>.=.e `               ",
"                  - * e q.q.q.q.q.q.q.q.q.q.q.q.q.q.q.q.q.q.q.q.e e e e q.q.= = = = = = * % +.|.oX X X X X X X X X X(.*.% = = = = = * = = = e e e e e e e e e q.q.q.e e e e e e e e e e e q.q.q.q.q.q.h.h.h.h.q.q.q.q.q.q.q.e e e e q.q.q.>.=.d                 ",
"                  b e e e q.q.q.q.q.q.q.q.q.q.>.q.q.q.q.q.e e e e e e e q.e % % % % & & % % o.|.oX X X X X X X X X}.).%.. % & % % & & & = * e e e e e e e e e q.q.e e e e e e e e e e e q.q.q.q.q.q.h.h.q.h.h.q.q.q.q.q.q.q.e e e e q.q.q.>.* )                 ",
"                    m e e q.q.q.q.q.>.q.q.q.q.q.q.q.q.q.q.e e e e e e e = } G.U.P.U.U.U.U.U.E..X.X X X X X X X X X X[.W.P.I.P.P.K.K.P.K.+.= e e e e e e e e q.q.e q.q.q.e e q.q.q.q.e e e e q.q.q.q.h.h.q.q.q.q.q.q.q.q.q.q.q.q.q.q.q.q.>.* d                   ",
"                    ` e e e q.q.q.q.>.q.q.q.q.q.q.q.q.q.e e e e e e e e = +.XX@X@X+X@X+X+X@X+XoX X X X X X X X X X X XoX+X+XOXOXOXoXOX|.c.= e e e e e e e e e e e e q.q.q.e q.q.q.q.e e e q.q.q.q.h.h.h.q.q.q.q.q.q.q.q.q.q.q.q.q.q.q.q.>.e                     ",
"                      a * e ;.e q.q.>.>.q.q.q.q.q.q.q.e e e e e e e e e = +.|.OX.X.X X X X X X X X X X X X X X X X X X X X X X X X X X(.l.% e e e e e e e e e e q.q.q.q.q.q.q.q.e q.e e e e e e q.q.q.q.q.q.e q.q.q.q.q.q.q.q.q.q.e q.>.* c                     ",
"                        - = ;.= q.q.q.q.q.q.q.q.q.q.q.q.e e e e e e e e * +.|.oX X X X X X X X X X X X X X X X X}. X X X X X}.}. X X{./.l.% e e e e e e e e e e q.q.q.q.q.q.q.q.e q.e e q.q.e e q.q.q.q.q.e e q.q.q.q.q.q.q.q.q.q.q.q.=.-                       ",
"                        $ % = = q.q.q.e e e e e e e e e e e e e e e * ; * +.|.oX X X X X X X X X X X X X}.}.}. X}. X X X X X X X X X{./.l.% e e e e e e e e e e e e q.e e q.q.q.q.q.q.e e e e q.q.q.q.q.e e q.q.q.q.q.e e e q.q.q.=.* * `                       ",
"                          t * * q.q.e e q.>.e q.e e e e e e e e e e ; ; * +.|.oX X X X X X X X X X X X X}.}.}. X X X}.}. X X|.|.{.|.{./.l.% e e e e e e e e e e e e e e e q.q.q.q.q.q.q.e e e q.q.e q.e e e q.q.q.q.e e e e q.q.q.=.* j                         ",
"                            - >.q.q.q.>.q.q.q.e e e q.q.q.q.e e e e ; ; * +.|.oX X X X X X X X X X X}.}.{. X X X X X X X X X|.|.{.|.{./.l.= e q.q.e e e e e e e e q.q.q.q.q.q.q.q.q.q.q.e e q.q.q.q.e e e e q.q.q.; e e e e q.>.>.* -                           ",
"                            v e >.q.>.>.q.q.q.e e e q.e e e e e e e e e * +.|.oX X X X X X X X X X}.}.}.{.|. X X X X|.|.|.{.{.{.{.|.|./.x.= e q.q.q.e e e e e e e e e q.q.q.q.e q.q.q.e e e q.e q.q.e e e e q.e q.e e e e >.>.>.=.e )                           ",
"                              a * >.>.>.>.e e e q.= e e e e e e e e e e * +.|.oX X X X X}.}. X X}. X X{. X X X X{.|.|.|.{.{.{.{.{.|.|./.l.= e e q.e e e e e e e e e e e e q.e e q.e q.e q.q.e e q.q.e e e e q.q.e q.e q.q.>.=.=.* n                             ",
"                                - * =.* e e q.e e e e e e e e e e e e e = +.|.oX X X X}.}. X}. X X X X}.}. X X|.{.{.|.|.|.{.{.{.|.|.{./.l.% e e e e e e q.e e e e e e e e e e e e e e q.q.q.e e e q.e e q.e e e q.q.e q.>.=.=.* d                               ",
"                                  - * * e e q.e e e e e e e e e e e q.q.* +.|.oX X X X X X X X X X}.}.{.}.}.{.{.{.{.{.{.{.{.{.{.|.|.{./.l.% e e e e e e e e e e e e e e e e q.e e e e q.e e e e e e e e q.q.e e q.q.>.>.=.=.* -                                 ",
"                                  A e * * e e e e e e e e e e e e e q.>.* +.|.oX X X X X X X X X}.{.{.{.{.{.{.{.{.{.{.{.{.{.{.{.{.|.{./.l.% e e e e e e e e e e e e e e e e e q.e e e e e e e e e e e e q.q.e e q.q.>.=.=.=.-                                   ",
"                                    $ % * >.= = e e e = = = e e e e * ; * +.].[.`.`.`.`.).).`.).).`.`.).).).).).`.`.).).(.(.(.(.(.(.).~.x.% e e e e e e e e e e e e e e q.q.e e q.q.e e e e e e e e e e q.q.e e q.>.>.=.* e `                                   ",
"                                      $ e >.* = ; ; e e = e e e e e * * * ` V.M.n.m.M.M.M.M.M.M.M.M.M.M.V.M.M.M.M.M.V.C.V.V.m.n.m.m.m.n.X.* e e e e e e e e e e q.e e q.q.q.e e q.e e e e q.e e e e q.q.q.q.e e >.>.=.=.= b                                     ",
"                                        c e * * ; ; ; e e e e e e e e e * = & & & & & & & & & X X X & & - - X X & & - - - & & & & & & & = * e e e e e e e q.q.e q.q.q.q.e q.q.q.q.e e e e q.q.e q.q.q.q.e q.q.q.>.=.=.e M                                       ",
"                                          $ = * =.>.e e e e e e e e e e e = = = = = = = = = = = = = = = = = = = * = e e = = = = = = = = = = e e q.e q.e e e e e q.q.q.q.e e q.q.q.q.e q.q.q.q.e q.q.q.q.q.q.q.>.=.=.e `                                         ",
"                                            $ % * >.q.; e e e e e e e e ; = * * * = e e = = = = = = = = = = = = = = = = = = = = e e e e e e e e q.q.e e ; ; * e e q.e q.e e q.q.q.q.q.e e q.q.q.q.q.q.q.q.q.>.=.=.- c                                           ",
"                                              V - * =.>.; e e e e e e ; * * * * * * * * * * * * = = = = = = * e = * = = = e e e ; ; ; e ; e e e q.q.e e e ; * q.e e e e e e q.e e q.e e e e e q.q.q.q.q.>.>.=.=.-                                               ",
"                                                I - * * >.>.q.q.e e ; ; ; ; ; * * * * * ; ; ; * * * * ; ; ; ; * * * * ; ; ; ; e e e ; e e e e e e e e e e e q.q.e e q.q.e e q.e e e e e e e q.q.e q.q.q.>.=.=.m                                                 ",
"                                                    i * =.=.>.>.; ; ; ; ; ; ; * * ; * * ; * * * * * =.; * * * * * =.* ; ; ; ; = e e e e e ; e e e e e e q.e q.q.q.q.e q.q.q.q.e e q.e e e q.q.q.q.q.q.-.-.* f                                                   ",
"                                                      c = * =.=.=.* * ; ; ; ; ; * * ; ; ; ; * =.>.>.* * * * * ; =.* >.; ; ; ; * * * e e ; ; e e e e ;.q.q.q.q.q.q.q.e q.q.q.q.; q.q.q.q.q.q.q.q.q.q.=.=.e c                                                     ",
"                                                        A - * =.* * * * * e ; ; * * * * * * * =.>.>.>.=.* * ; ; =.>.>.; ; ; * * * = e e e ; ; e q.e q.e e q.q.q.q.q.q.q.q.q.q.; q.q.>.; >.;.q.q.=.=.* t                                                         ",
"                                                            d % * * * e * = e ; * * ; * =.* * * ; ; >.; >.>.e e e ; e ; ; ; * * q.e q.q.e ; e e q.q.e e e q.q.q.q.q.q.q.e e e e e * * >.=.=.=.=.=.= z                                                           ",
"                                                              $ - * =.; * * e ; ; ; >.=.>.; * * ; ; ; ; >.>.q.e e ; >.; ; ; * ; e e e q.e e e e e e e e q.q.q.q.q.q.e q.; ; e e ; * >.=.=.=.=.* d `                                                             ",
"                                                                  n e * =.* ; ; >.>.>.* >.* >.; ; ; ; ; >.>.>.>.; e ; ; ; e * * ; ; e e e e e e e q.e e e e e q.e e q.q.>.>.; e =.=.=.=.=.* - v                                                                 ",
"                                                                      a = * * >.>.>.=.=.=.; >.>.; ; ; ; ; ; >.>.; ; * * ; * ; ; ; e e e e e e e e q.e e e e e e e e q.q.>.; >.>.=.=.-.=.% j                                                                     ",
"                                                                        _ a e ; >.=.=.=.>.>.>.>.>.>.; ; ; ; ; ; ; ; * * * * * * q.e e e q.q.q.q.q.e e q.e e e q.e e ; >.>.>.=.=.=.* e a                                                                         ",
"                                                                              c - * * =.>.>.>.>.; ; ; ; ; ; ; ; * ; * * * ; ; ; e e q.e e e e q.e e e e e e e q.e e >.>.=.=.=.* - c                                                                             ",
"                                                                                  v - = * >.>.>.; ; ; ; ; ; ; ; ; ; ; ; ; ; e e e e e e e e e e e e e e e e q.q.q.=.* =.=.e d c                                                                                 ",
"                                                                                      I c m e * * * ; ; ; ; e e e ; ; ; ; ; e e e e e e e q.e e e e e e q.>.>.=.=.* * - c ]                                                                                     ",
"                                                                                            ` @ - - e ; * = = = = e e ; = e q.e ;.;.q.e q.q.e e ;.;.;.= = = = - d g A                                                                                           ",
"                                                                                                    A j d - e = = = = = = * =.=.;.;.q.;.;.;.;.= = = w - f c A                                                                                                   ",
"                                                                                                              A b g a t t - m m m d m t t m f g n A                                                                                                             ",
"                                                                                                                                                                                                                                                                "
};
