/* XPM */
static char *fitecash64[] = {
/* columns rows colors chars-per-pixel */
"64 64 157 2 ",
"   c None",
".  c #3B5BAE",
"X  c #274FB6",
"o  c #294EB7",
"O  c #264FBD",
"+  c #284FBC",
"@  c #2D53B6",
"#  c #2750BE",
"$  c #2951BE",
"%  c #3255B5",
"&  c #3856B6",
"*  c #3658B3",
"=  c #3A5BB3",
"-  c #3155BA",
";  c #3458BB",
":  c #3B5EB9",
">  c #3F62BF",
",  c #4264BE",
"<  c #496ABE",
"1  c #516FBE",
"2  c #5271BE",
"3  c #274FC0",
"4  c #284FC0",
"5  c #2750C1",
"6  c #2951C1",
"7  c #3F61C0",
"8  c #4A6BC0",
"9  c #506FC0",
"0  c #5171C1",
"q  c #7A92CC",
"w  c #93A7CF",
"e  c #92A5CE",
"r  c #91A5D1",
"t  c #91A6D1",
"y  c #92A6D0",
"u  c #93A6D2",
"i  c #93A7D0",
"p  c #95A9D1",
"a  c #9EAED3",
"s  c #9DAFD4",
"d  c #9FAED4",
"f  c #9DADD4",
"g  c #9CAED9",
"h  c #9FB0D6",
"j  c #9EB0D9",
"k  c #A2B2D5",
"l  c #A9B7D6",
"z  c #ABB9D6",
"x  c #A3B4DA",
"c  c #ADBCDD",
"v  c #B4C1DC",
"b  c #BBC6DF",
"n  c #BECADF",
"m  c #B5C2E0",
"M  c #BAC6E1",
"N  c #BCC9E3",
"B  c #C1CBDF",
"V  c #C6CFE1",
"C  c #C3CDE4",
"Z  c #C6D0E7",
"A  c #CCD5E6",
"S  c #D4DCE7",
"D  c #D1D9EA",
"F  c #D7DEEA",
"G  c #D6DEE9",
"H  c #D9DEEA",
"J  c #DCE2EF",
"K  c #DDE3EF",
"L  c #DCE2EC",
"P  c #DDE3F0",
"I  c #DEE4F0",
"U  c #DFE4F0",
"Y  c #DFE5F0",
"T  c #DFE6F1",
"R  c #E7EAEF",
"E  c #E8EBEF",
"W  c #E0E6F1",
"Q  c #E7EBF1",
"!  c #E9EEF4",
"~  c #EBEFF5",
"^  c #ECEFF5",
"/  c #EBEDF2",
"(  c #ECF0F5",
")  c #EDF1F6",
"_  c #EEF0F5",
"`  c #F0F2F5",
"'  c #F1F3F7",
"]  c #F0F3F6",
"[  c #F2F3F6",
"{  c #F2F3F7",
"}  c #F1F4F6",
"|  c #F2F4F6",
" . c #F3F5F6",
".. c #F3F5F7",
"X. c #F3F6F7",
"o. c #F5F5F7",
"O. c #F5F6F7",
"+. c #F1F3F6",
"@. c #F2F3F8",
"#. c #F2F4F8",
"$. c #F3F4F8",
"%. c #F3F4F9",
"&. c #F4F5F8",
"*. c #F5F5F8",
"=. c #F4F4F9",
"-. c #F5F4F9",
";. c #F4F5F9",
":. c #F4F6F8",
">. c #F5F6F8",
",. c #F4F7F8",
"<. c #F6F6F8",
"1. c #F6F7F8",
"2. c #F6F7F9",
"3. c #F7F7F9",
"4. c #F6F7FA",
"5. c #F7F7FA",
"6. c #F4F5F8",
"7. c #F8F7F9",
"8. c #F6F8F9",
"9. c #F7F8F9",
"0. c #F7F8FA",
"q. c #F7F9FB",
"w. c #F7FAFA",
"e. c #F6FAFB",
"r. c #F7FAFB",
"t. c #F7FBFC",
"y. c #F7F8FA",
"u. c #F8F8F9",
"i. c #F8F9F9",
"p. c #F8F8FA",
"a. c #F8F9FA",
"s. c #F8F9FB",
"d. c #F9F9FB",
"f. c #F9FAFA",
"g. c #F8FAFB",
"h. c #F9FAFB",
"j. c #FAFAFB",
"k. c #FBFBFB",
"l. c #F8F9FC",
"z. c #F9F9FC",
"x. c #F8F9FD",
"c. c #F8FAFC",
"v. c #F9FAFC",
"b. c #F8FBFC",
"n. c #FAFAFC",
"m. c #FAFBFC",
"M. c #FBFBFC",
"N. c #FAFAFD",
"B. c #FAFBFD",
"V. c #FBFBFD",
"C. c #FAFCFC",
"Z. c #FBFCFC",
"A. c #FBFCFD",
"S. c #FCFDFE",
"D. c #FDFDFE",
"F. c #FEFEFE",
"G. c #FAFAFB",
/* pixels */
"                                                                                                                                ",
"                                                    = = * * % - @ @ % * * =                                                     ",
"                                            . * @ $ $ $ $ 6 $ 6 6 6 $ # $ $ $ $ % =                                             ",
"                                        * @ $ $ $ $ $ $ 6 6 6 6 6 6 5 # 6 # # $ $ + @ % .                                       ",
"                                    % @ $ $ $ # 6 6 6 $ 6 6 6 6 6 5 5 5 5 5 5 5 # $ # # $ @ =                                   ",
"                                * @ $ $ # 5 6 6 6 6 6 6 5 5 5 5 5 5 5 5 5 5 5 5 5 # 5 # # 5 $ %                                 ",
"                            = @ $ $ # 5 # 5 6 6 6 6 6 6 5 5 5 5 5 5 5 5 5 5 5 5 5 5 5 5 5 6 $ + $ *                             ",
"                          * @ $ $ $ # 5 # 6 6 6 5 6 6 6 # 5 5 6 6 6 5 5 5 5 5 5 6 6 5 5 6 6 $ $ + + %                           ",
"                        % @ $ $ $ $ $ $ 6 6 6 6 6 6 6 6 6 6 6 6 6 6 6 5 6 6 6 5 6 6 6 6 6 6 $ $ $ $ + @                         ",
"                      @ $ $ $ $ 6 $ $ $ $ 6 6 6 6 6 $ $ $ 6 6 6 6 6 6 6 6 6 6 6 6 6 6 6 $ $ $ $ $ $ 6 $ $ =                     ",
"                    @ # $ $ 6 6 $ $ $ $ $ $ 6 6 6 6 $ $ $ 6 6 6 6 6 6 $ 6 6 $ 6 $ $ $ $ $ $ $ $ $ $ 6 $ $ $ =                   ",
"                  % + $ 6 $ 6 6 $ $ $ # # # # # # # # # # # 5 5 5 5 # O O O O O # # # # # $ $ $ $ 6 $ $ $ $ @ =                 ",
"                % $ $ 6 6 6 6 6 $ # $ > > > > , > > > , , > > , > > > > 7 7 > > > > > > > ; $ $ $ $ 6 6 $ $ $ @                 ",
"              * + $ 6 6 6 6 6 6 $ # < D I I I I I I I I I I I I I I I K P P K K K K K K K r $ $ $ $ 6 6 $ $ $ $ -               ",
"              $ $ 6 6 6 6 6 6 6 6 5 0 ) S.S.S.S.Z.z.Z.Z.Z.Z.Z.Z.Z.z.h.h.h.h.h.h.7.2.2.2.2.d $ $ $ 6 6 6 6 6 6 6 $ *             ",
"            @ $ 6 $ 6 6 6 6 6 6 6 5 0 ) Z.z.z.z.z.z.z.z.z.h.r.r.h.h.h.r.2.2.2.O.O.2.2.2.' d $ $ 6 6 6 6 6 6 6 6 $ $ =           ",
"          * $ 6 6 6 6 6 6 6 6 6 6 5 0 ^ Z.z.z.z.z.z.z.z.z.h.r.h.h.h.r.2.2.2.O.O.O.2.=.%.' d $ 6 6 6 6 6 6 6 6 6 6 6 -           ",
"          @ 6 6 6 6 6 6 6 6 $ 6 6 O 0 ~ Z.z.z.z.z.z.z.z.z.z.z.h.h.r.2.O.2.2.O.O.2.2.@.@.' a $ $ 6 6 6 6 6 6 6 6 6 6 $ *         ",
"        * $ 6 6 6 6 6 6 6 6 $ $ 6 O 0 ~ r.2.2.r.h.r.r.r.r.2.2.X.X.X.X.X.X.X.X.2.2.%.@.' ' a $ 6 6 6 6 6 6 6 6 6 6 6 6 -         ",
"        @ 6 6 6 6 6 6 6 6 $ $ $ $ $ , r p p w A z.r.t.h.2.V w r r r r r w w G 2.%.' ' ' ' d $ $ $ 6 6 6 6 6 6 6 6 6 6 6 :       ",
"      * $ 6 $ 6 6 6 6 6 6 6 $ $ $ $ $ $ $ $ X x S.r.r.r.2.h @ $ $ $ $ $ $ @ N h.@.' ' ' ) d $ 6 6 6 6 6 6 6 6 6 6 6 6 6 -       ",
"      @ 4 6 $ 6 6 6 6 6 6 6 $ $ $ $ $ $ $ $ + x Z.2.2.r.2.d $ $ $ $ $ $ $ @ N h.@.' ' ) ) a $ $ $ $ $ 6 6 6 6 6 6 6 $ 6 $       ",
"      $ 6 6 $ 6 6 6 6 $ $ 6 $ $ $ $ $ $ $ $ O x Z.2.2.O.O.d $ $ $ 6 $ $ $ @ N h.' ' ' ' ) d $ $ $ $ $ $ 6 6 6 6 6 $ $ $ $ *     ",
"    * $ 6 $ $ 6 6 6 $ $ $ $ $ $ $ $ $ $ $ $ O x h.2.2.2.O.h $ $ $ $ $ $ $ @ c K G G G G G r $ $ $ $ $ $ 6 6 6 $ $ $ $ $ $ @     ",
"    % 6 6 $ $ 6 6 6 $ $ $ $ $ $ $ $ $ $ $ $ # x h.2.2.2.O.d @ $ $ $ $ $ $ $ < 0 0 2 2 0 2 , $ $ $ $ $ $ $ $ $ $ $ $ $ $ 6 $     ",
"    @ 6 6 6 6 6 6 $ $ $ $ $ $ $ $ $ $ $ $ $ O x h.2.2.2.O.d $ $ $ $ + + + + + + + $ # $ # $ $ $ $ $ $ $ $ $ $ $ $ $ 6 $ 6 $ *   ",
"    $ 6 6 6 6 6 $ $ $ $ $ $ $ $ $ $ $ $ $ $ O x h.O.O.2.O.d @ $ $ @ q g d g g d q $ $ $ $ $ $ $ $ $ $ $ $ 6 6 $ 6 6 6 6 6 $ *   ",
"  = $ 6 6 6 6 6 6 $ $ $ $ $ $ $ $ $ $ $ $ $ + x h.2.2.2.X.d $ + $ - C Z.r.2.2.r.b ; $ 6 $ $ $ $ $ $ $ $ 6 6 $ $ 6 6 6 6 $ $ -   ",
"  * $ 6 6 6 6 6 6 6 $ $ $ $ $ $ $ $ $ @ @ @ @ x h.2.2.2.O.k @ @ @ * V 2.) ) ^ ) v ; $ 6 6 6 $ $ $ $ $ $ $ 6 6 6 6 6 6 6 $ $ -   ",
"  * $ 6 6 6 6 6 6 $ $ $ $ $ $ $ $ $ , c M M M K r.%.%.%.' H M M M b Q ' ^ ^ ) ) v & 6 6 6 6 6 $ $ $ $ $ $ 6 6 6 6 6 6 6 $ $ $   ",
"  % $ $ 6 6 6 6 6 $ $ $ $ $ $ $ $ $ 9 ) z.h.h.2.%.%.@.@.' 2.2.2.2.2.' ) ) ^ ^ ) v - 6 6 6 6 6 6 $ $ $ $ 6 6 6 6 6 6 6 6 $ $ $   ",
"  % $ $ 6 6 6 6 6 $ $ $ $ $ $ $ $ $ 9 ! 2.%.@.@.@.' ' ' ' ' ' ' ' ) ^ ) ) ^ ^ ) v ; 6 6 6 6 6 6 $ $ $ 6 6 6 6 6 6 6 6 6 6 $ $   ",
"  % $ $ $ 6 6 6 6 6 $ $ $ $ $ $ $ $ 9 ! %.@.' ' ' ' ' ' ' ' ) ) ) ) _ _ ) ^ ^ ) v ; 6 6 6 6 6 6 6 $ $ 6 6 6 6 6 6 6 6 6 6 $ $   ",
"  % $ $ 6 6 $ 6 6 6 6 6 6 $ $ $ $ $ 9 ~ %.' X.' ' ' ' ' ' ) ) ) ) ) _ _ ) ^ ^ ) v ; 6 6 6 6 6 6 6 6 6 6 6 6 6 6 6 6 6 6 $ $ $   ",
"  * $ 6 6 6 6 6 6 $ 6 6 6 $ $ $ $ $ < M C C B L ' ' ' ' ) S n n n n n n n n n n f - $ 6 6 6 6 6 6 6 6 6 6 6 6 6 6 6 6 6 $ $ $   ",
"  * $ $ 6 6 6 6 6 $ $ $ $ $ $ $ $ $ @ : : : = x 2.) ) ' _ k = : : : : : : : : : : $ $ 6 6 6 6 6 6 6 6 6 6 6 6 6 6 6 6 $ $ $ @   ",
"  * $ 6 6 6 6 6 $ $ $ $ $ $ $ $ $ $ $ $ $ O + j 2.) ) ) ) d $ + $ $ $ $ $ $ $ $ $ $ $ 6 6 6 6 6 6 6 6 6 6 $ $ 6 6 6 $ $ $ $ -   ",
"  = $ 6 6 6 6 $ $ $ $ $ $ $ $ $ $ $ $ $ $ O + j 2.) ) ) ) d $ $ $ $ $ $ $ $ $ $ $ $ $ 6 6 6 6 6 6 6 6 6 6 $ $ 6 $ $ $ $ $ $ %   ",
"    @ 6 6 $ $ $ $ $ $ $ $ $ $ $ $ $ $ $ # # + j 2.^ ^ ^ _ d $ $ $ $ $ $ $ $ $ $ $ $ $ $ $ $ $ $ $ $ 6 6 6 6 6 6 $ $ $ $ $ $ %   ",
"    @ $ $ $ $ $ $ $ $ $ $ $ $ $ $ $ $ $ $ $ + g X.^ ^ ^ ^ a $ $ $ $ $ $ $ $ $ $ $ $ $ $ $ $ $ $ $ $ 6 6 6 6 $ $ 6 $ $ $ $ $     ",
"    % $ $ $ $ $ $ $ $ $ $ $ $ $ $ $ $ $ $ $ + g X.^ ^ ^ ^ a $ $ $ $ $ $ $ $ $ $ $ $ $ $ $ $ $ $ $ $ $ $ 6 6 6 6 6 6 $ $ $ @     ",
"    * $ $ $ $ $ $ $ $ $ $ $ $ $ $ $ $ $ $ $ + g X.^ ^ / / a $ $ 6 $ $ $ $ $ $ $ $ $ $ $ $ $ $ $ $ $ $ $ 6 6 6 6 6 6 6 6 # @     ",
"      $ $ $ $ $ $ $ $ $ $ $ $ $ $ 6 6 6 $ $ + g X./ / / ^ a + 6 6 6 $ $ $ $ $ $ $ $ $ $ $ $ $ $ $ $ 6 6 6 6 6 6 6 6 6 $ $ *     ",
"      % + $ $ $ $ $ $ $ $ $ $ 6 6 6 6 $ 6 O + g X.^ / ^ ^ f + $ $ $ $ $ $ $ $ $ $ $ $ $ $ $ $ $ $ $ $ 6 6 6 6 6 6 6 6 5 $       ",
"        $ $ $ $ $ $ $ $ $ $ $ 6 $ $ $ $ $ O O g X./ / ^ / f + + $ $ $ $ $ $ $ $ $ $ $ $ $ $ $ $ 6 $ 6 6 6 6 6 6 6 $ 6 3 @       ",
"        @ $ $ $ $ $ $ $ 6 6 6 6 $ $ $ $ + O + g X./ / / ^ f o O $ # $ $ $ $ $ 6 $ $ $ $ $ $ $ $ 6 6 6 6 6 6 6 $ 6 6 6 $         ",
"        * $ 6 6 6 6 6 6 6 6 6 $ $ $ $ - - - - j ' ^ / / / a * - - - $ $ $ $ $ $ 6 $ $ $ $ $ $ 6 6 6 6 6 6 6 6 $ $ 6 5 @         ",
"          - $ 6 6 6 6 6 6 6 $ $ $ + , M Z Z C K ^ / / / / L C C C m < O $ $ $ $ $ 6 6 $ $ $ $ 6 6 6 6 6 6 6 6 6 6 6 $           ",
"            $ + 6 6 6 6 6 $ $ $ $ O 8 Q ' ) ) ^ / / / Q Q / ^ ^ _ L 2 O $ $ $ $ 6 6 6 6 6 $ $ $ 6 6 6 $ 6 6 6 6 6 5 -           ",
"            % + 6 6 6 $ $ $ $ $ $ O 8 I ^ / / / / / Q Q Q Q Q Q Q S 2 O $ $ $ $ $ $ 6 6 6 6 $ $ $ $ $ 6 6 $ $ 6 3 $             ",
"              @ 5 5 6 $ $ + $ $ $ O 8 I / / / Q Q Q Q Q Q Q Q Q Q S 0 O $ $ $ $ $ $ 6 $ 6 6 $ $ $ $ $ $ $ $ $ 5 $               ",
"                $ 5 $ $ $ $ + + $ O 8 I ^ / Q Q Q Q Q Q Q Q Q Q Q G 2 # $ $ $ $ $ $ $ $ $ $ $ $ $ $ $ $ $ 6 5 O -               ",
"                * + O $ $ $ $ $ $ O 8 W ^ / / / Q Q Q E E Q R Q Q G 1 O $ $ $ $ $ $ $ $ $ $ $ $ $ $ $ $ $ 5 3 @                 ",
"                  % $ O $ $ + $ $ O , x z z z z z z z z z z z l l k , + $ $ $ $ $ $ $ $ $ $ $ $ $ $ $ $ 5 3 @                   ",
"                    % O # $ $ $ $ $ $ @ @ - % % % % % % @ - - % @ @ $ $ $ $ $ $ $ $ $ $ $ $ 6 6 6 6 6 6 3 $                     ",
"                      % $ 5 $ $ $ $ O O O O O O + + + O O + + + + $ $ $ $ $ # $ $ $ $ $ $ $ $ 6 6 6 5 3 @                       ",
"                          $ 3 5 $ # # O O O # O O O O O O O # $ # $ $ $ $ $ $ $ $ 6 6 $ $ $ $ $ 6 5 3 -                         ",
"                            @ O O # # # O O O O 5 O O # O # # O O $ $ $ $ $ $ 6 6 6 6 6 $ 6 6 3 3 $ ;                           ",
"                              % $ O O # O O O O # # 5 $ # # # # $ $ $ $ $ $ $ $ 6 6 # # # 3 3 O @                               ",
"                                  - $ # 5 3 5 # # # 5 5 # # # # $ $ $ $ $ $ $ $ $ $ # 5 3 3 $ *                                 ",
"                                      - $ O 5 5 # # # # # O O # $ $ + + + 6 $ $ $ 5 3 O $ %                                     ",
"                                          * @ $ O # # # # # # $ $ $ O $ 6 6 6 6 + $ -                                           ",
"                                                % @ @ $ $ $ $ $ $ $ $ + $ $ @ - *                                               ",
"                                                          * % ; & * * *                                                         "
};
