/* XPM */
static char *fitecash16[] = {
/* columns rows colors chars-per-pixel */
"16 16 207 2 ",
"   c black",
".  c #395BB2",
"X  c #3C5DB0",
"o  c #254DBC",
"O  c #1845C3",
"+  c #3A5BB4",
"@  c #3759B5",
"#  c #12151A",
"$  c #385AB2",
"%  c #3759B6",
"&  c #3B5CB0",
"*  c #3A5BB5",
"=  c #244EC0",
"-  c #1342C3",
";  c #1E49C3",
":  c #0030D2",
">  c #3357B7",
",  c #2F55BA",
"<  c #3055B8",
"1  c #3054B8",
"2  c #2D53BC",
"3  c #2C53BB",
"4  c #798DC1",
"5  c #3255B7",
"6  c #073ECD",
"7  c blue",
"8  c #2F54BB",
"9  c #657BBC",
"0  c #3659B2",
"q  c #2F54B8",
"w  c #2D53BB",
"e  c #2C53BD",
"r  c #2C53BD",
"t  c #2C53BC",
"y  c #2E54B8",
"u  c #3458B4",
"i  c #546C9F",
"p  c #3055B7",
"a  c #2B52BC",
"s  c #2851BF",
"d  c #2851BF",
"f  c #2A52BD",
"g  c #3054B9",
"h  c #4461AF",
"j  c #51689E",
"k  c #2E54B9",
"l  c #2A51BD",
"z  c #2951BE",
"x  c #2E53BA",
"c  c #4360AF",
"v  c #2F54B8",
"b  c #2A52BE",
"n  c #2A52BF",
"m  c #3055BB",
"M  c #3659B4",
"N  c #2C53BD",
"B  c #2C53BF",
"V  c #3659BA",
"C  c #2F54B9",
"Z  c #2A52BF",
"A  c None",
"S  c #2F55BC",
"D  c #2D53BB",
"F  c #2D53BD",
"G  c #2D53BC",
"H  c #2D53BF",
"J  c #2D53BC",
"K  c #2C53BE",
"L  c #2D52BC",
"P  c #2C53BC",
"I  c #2E53BA",
"U  c #2A51BD",
"Y  c #2D53BC",
"T  c #3256B8",
"R  c #2B51BD",
"E  c #2951BF",
"W  c #2F54BB",
"Q  c #2C53BC",
"!  c #2850BF",
"~  c #2851BF",
"^  c #2B52BD",
"/  c #375AB3",
"(  c #2B51BC",
")  c #284FBD",
"_  c #2951BF",
"`  c #2A51BE",
"'  c #3256B8",
"]  c #3758B3",
"[  c #2C52BC",
"{  c #284FBD",
"}  c #2850BF",
"|  c #2B51BE",
" . c #3357BA",
".. c #3055BA",
"X. c #2B52BD",
"o. c #2951BD",
"O. c #2951BD",
"+. c #2A51BE",
"@. c #2B51BE",
"#. c #2B52BD",
"$. c #2D52BC",
"%. c #2851C0",
"&. c #2751C0",
"*. c #2751C1",
"=. c #2750C0",
"-. c #2952BF",
";. c #2D55C0",
":. c #2D55C1",
">. c #2C55C1",
",. c #2C54C1",
"<. c #2A52BF",
"1. c #2650C0",
"2. c #5777CB",
"3. c #BDC9E8",
"4. c #BECAE9",
"5. c #BECAE8",
"6. c #BCC8E7",
"7. c #BAC6E6",
"8. c #6481CC",
"9. c #2650BF",
"0. c #2952C1",
"q. c #264FC0",
"w. c #5E7CCC",
"e. c #D9E0EF",
"r. c #F9FBFC",
"t. c #E2E8F2",
"y. c #D0D8EB",
"u. c #E3E7F1",
"i. c #F9F9F9",
"p. c #7D95D3",
"a. c #264FBF",
"s. c #2952C2",
"d. c #2951C0",
"f. c #2B53BE",
"g. c #607DCB",
"h. c #EDF0F5",
"j. c #859BD4",
"k. c #2F56BD",
"l. c #7D95D2",
"z. c #DBE1EE",
"x. c #728BCF",
"c. c #264FBE",
"v. c #2952BE",
"b. c #2750BD",
"n. c #5675C9",
"m. c #EBEDF4",
"M. c #7C94D2",
"N. c #4B6CC5",
"B. c #849AD4",
"V. c #5877C7",
"C. c #345AC0",
"Z. c #2952C0",
"A. c #2850BD",
"S. c #5473C8",
"D. c #BECAE7",
"F. c #F0F2F7",
"G. c #CBD3E9",
"H. c #CFD7EA",
"J. c #E9EDF2",
"K. c #5877CA",
"L. c #2A52C0",
"P. c #2A52C2",
"I. c #2850BE",
"U. c #5674C8",
"Y. c #C0CBE6",
"T. c #EDEFF5",
"R. c #CCD4E8",
"E. c #B0BEE0",
"W. c #A9B8DD",
"Q. c #4A6CC6",
"!. c #2750C1",
"~. c #2A52C1",
"^. c #2951BF",
"/. c #2A51BE",
"(. c #2A52BE",
"). c #5574C8",
"_. c #E4E9F1",
"`. c #7C94D1",
"'. c #2951BC",
"]. c #2D54BD",
"[. c #254EBE",
"{. c #4F70C8",
"}. c #E2E7F0",
"|. c #7890D0",
" X c #244DBD",
".X c #2951BE",
"XX c #2951C1",
"oX c #2950C0",
"OX c #2850BF",
"+X c #365BC1",
"@X c #7991D2",
"#X c #E4E8F0",
"$X c #97A9D8",
"%X c #4163C2",
"&X c #2851BE",
"*X c #264EBE",
"=X c #6380CC",
"-X c #E4E8EF",
";X c #EAECF0",
":X c #E9EBF0",
">X c #8A9FD5",
",X c #4265C3",
"<X c #7C93D0",
"1X c #7C93CF",
"2X c #7D94D0",
"3X c #5573C6",
"4X c #264FBD",
/* pixels */
"  . X o 0 q w e r t y u O + @ # ",
"$ $ i p a s %.&.*.=.d f g h % % ",
"& j k l -.;.;.:.>.,.;.<.z x c * ",
"= v b 1.2.3.3.4.5.6.7.8.9.n m - ",
"M N 0.q.w.e.r.t.y.u.i.p.a.s.B V ",
"C Z d.-.f.g.h.j.k.l.z.x.c.0.A S ",
"D d.-.v.b.n.m.M.N.B.V.C.v.-.Z.F ",
"G 0.-.A.S.D.F.G.H.J.K.a.<.L.P.H ",
"J d.Z.I.U.Y.T.R.E.W.Q.!.0.~.~.K ",
"L ^./.(.A.)._.`.'.].(.d.Z.Z.-.P ",
"I U /./.[.{.}.|. X.X.Xv.-.XXd.Y ",
"T R oXOX+X@X#X$X%X&X^.^.0.XXE W ",
"; Q ! *X=X-X;X:X>Xb.^.^.^.~ ^ : ",
"> / ( ) ,X<X1X2X3XI.^.^._ ` ' , ",
"< 1 ] [ {  X X X4XOXOX} |  .2 3 ",
"4 1 5 6 ..X.o.O.+.@.#.$.7 8 2 9 "
};
