/* XPM */
static char *fitecash32[] = {
/* columns rows colors chars-per-pixel */
"32 32 123 2 ",
"   c None",
".  c #264EBD",
"X  c #284FBC",
"o  c #2E54B7",
"O  c #2750BE",
"+  c #2A51BE",
"@  c #3256B6",
"#  c #3559B7",
"$  c #3156BC",
"%  c #3459BC",
"&  c #3D60BD",
"*  c #274FC0",
"=  c #2751C1",
"-  c #2951C1",
";  c #4164C0",
":  c #476AC1",
">  c #4A6BC1",
",  c #5573C6",
"<  c #5B78C6",
"1  c #5775C8",
"2  c #627FC9",
"3  c #6682CC",
"4  c #6984CD",
"5  c #6C88CE",
"6  c #748DCE",
"7  c #7790CE",
"8  c #7E95CE",
"9  c #7D94D1",
"0  c #8097CF",
"q  c #8399CE",
"w  c #8297D1",
"e  c #8FA3D8",
"r  c #91A5D8",
"t  c #94A8D9",
"y  c #9BADDB",
"u  c #9EB0DC",
"i  c #A3B3DB",
"p  c #ACBBDC",
"a  c #B0BDDB",
"s  c #B9C4DF",
"d  c #BAC7E3",
"f  c #BAC6E1",
"g  c #BCC8E1",
"h  c #BCC8E2",
"j  c #BDC8E2",
"k  c #BDC8E3",
"l  c #BEC8E3",
"z  c #BEC9E3",
"x  c #BECAE3",
"c  c #BCC8E4",
"v  c #BFC9E0",
"b  c #C0CAE4",
"n  c #C1CBE4",
"m  c #C0CBE6",
"M  c #C2CCE5",
"N  c #C2CCE2",
"B  c #CFD6E6",
"V  c #CFD8E9",
"C  c #D1D8E8",
"Z  c #D0D8EB",
"A  c #D2D9EA",
"S  c #D6DDEA",
"D  c #DBE1ED",
"F  c #DBE2ED",
"G  c #DFE4EF",
"H  c #E6EAF2",
"J  c #E8ECF3",
"K  c #EBEEF2",
"L  c #EAEEF3",
"P  c #EBEEF3",
"I  c #ECEFF3",
"U  c #EDEFF3",
"Y  c #ECEFF4",
"T  c #EBEDF1",
"R  c #ECF0F4",
"E  c #EDF0F4",
"W  c #EDF0F5",
"Q  c #EEF0F4",
"!  c #EEF1F4",
"~  c #EFF1F4",
"^  c #EFF1F5",
"/  c #EFF2F4",
"(  c #F0F1F5",
")  c #F1F2F6",
"_  c #F1F3F6",
"`  c #F1F3F7",
"'  c #F2F3F6",
"]  c #F3F4F7",
"[  c #F4F5F7",
"{  c #F6F6F7",
"}  c #F1F2F5",
"|  c #F1F3F8",
" . c #F3F4F8",
".. c #F3F5F8",
"X. c #F3F5F9",
"o. c #F4F5F8",
"O. c #F4F5F9",
"+. c #F5F6F8",
"@. c #F4F6F9",
"#. c #F5F6F9",
"$. c #F5F7F9",
"%. c #F7F7F9",
"&. c #F7F8F9",
"*. c #F7F9FB",
"=. c #F8F8F9",
"-. c #F9F9F9",
";. c #F8F9FA",
":. c #F9FAFA",
">. c gray98",
",. c #FAFAFB",
"<. c #FAFBFB",
"1. c #FBFBFB",
"2. c #FBFCFB",
"3. c #F9F9FC",
"4. c #F9FAFC",
"5. c #F8FBFC",
"6. c #FBFBFD",
"7. c #FAFCFC",
"8. c #FBFDFC",
"9. c gray99",
"0. c #FCFCFD",
"q. c #FDFDFD",
"w. c #FFFFFE",
/* pixels */
"                            # @ $ #                             ",
"                      o O O O O O O O O o @                     ",
"                @ o O - - - = = = = = = O O + @                 ",
"              o O O = - - - = = = = = = = = - O o               ",
"            o O O O - - - - - - - - - - - - O O O O @           ",
"          + O - O O . . . . . . . . . . . . . O O O O @         ",
"        + - - - O 2 r e e e e e e e e e e e 6 + O - O O         ",
"      o - - - - O u 9.9.9.9.9.8.2.-.-.-.-.-.b $ - - - - o       ",
"    @ O - - - - O y 9.6.6.6.6.8.-.-.-.[ $.$.x $ - - - - - $     ",
"    o - - - - O O 9 x V *.6.H x f f x T ..$.x $ - - - - - +     ",
"    O - - - - O O + o 6 $.-.M % + + & A $.[ x $ O - - - - - $   ",
"  o - - - O O O O O . 5 $.-.b $ O O % f F F p $ O O - - O O +   ",
"  + - - - O O O O O . 5 [ *.b $ O + $ > > > ; + O O O O O O +   ",
"  O - - O O O O O O . 4 ] $.x o $ i b c 3 O O O O O - O - - O # ",
"  O - - - O O O O , 6 i ..$.A 9 w G [ ' 7 O - O O O - - - - + $ ",
"@ O - - - O O O O y -.$...| ' ' ' Q Q I 7 - - - O O - - - - - $ ",
"@ O - - - - O + O y $.' ' ' Q Q Q I I T 7 . - - - - - - - - O $ ",
"  + - - - O O + O < 0 i Q ' A q 8 8 8 8 > O - - - - - - - - O $ ",
"  O - - O O O O O X . 4 Q ' f + . O + O O O - - - - - O - O O $ ",
"  O O O O O O O O O . 4 Q ' f $ O O O O O O O O O - - O O O O   ",
"  o O O O O O O O O . 4 Y Q f $ O O O O O O O O O O - - - - O   ",
"  $ O + O O O O - - . 3 T Q f $ O O O O O O O O O - - - - - +   ",
"    + O O O - - O . . 3 T Q s o . O O O O O O O - - - - - O     ",
"    $ O - - - O O 1 9 i T I B w 6 % O O O O O O - - - - - O     ",
"      + - - O O . t ' I T T T I S > O O O - - O - - - - O       ",
"        O O O O . t ' T T T T T S > O O O O O O O O O O o       ",
"        o O O O . 9 N N x x x x a ; X O O O O O O O - +         ",
"          o O O O $ % % % % % % % O O O O O O O - - O           ",
"              O . . . . . . . . . O O O - - O - - +             ",
"                o O . * O O O O O O O O - - * O                 ",
"                    + O O O O O O O O O O O                     ",
"                          o o o + + $ $                         "
};
